/* XPM */
static char *door2[] = {
/* columns rows colors chars-per-pixel */
"303 401 256 2 ",
"   c #050401",
".  c #0A0601",
"X  c #060A02",
"o  c #0D0B04",
"O  c #060A0A",
"+  c #0D0D09",
"@  c #120601",
"#  c #1A0601",
"$  c #130C05",
"%  c #1A0D04",
"&  c #130E09",
"*  c #190F0A",
"=  c #0E1105",
"-  c #0E110A",
";  c #141106",
":  c #1A1106",
">  c #15120B",
",  c #1B140C",
"<  c #17190D",
"1  c #1D190E",
"2  c #101011",
"3  c #161511",
"4  c #1B1611",
"5  c #1D1A13",
"6  c #1A1B16",
"7  c #240D03",
"8  c #330B03",
"9  c #231305",
"0  c #2A1505",
"q  c #22150C",
"w  c #2A160C",
"e  c #23190E",
"r  c #2B1B0D",
"t  c #331C0D",
"y  c #381B0A",
"u  c #221611",
"i  c #2B1611",
"p  c #231C14",
"a  c #2A1D14",
"s  c #241E19",
"d  c #2A1E19",
"f  c #321E13",
"g  c #381E14",
"h  c #1E2118",
"j  c #35210E",
"k  c #3B210E",
"l  c #252116",
"z  c #2B2116",
"x  c #25221B",
"c  c #2C241B",
"v  c #29291A",
"b  c #2D291E",
"n  c #332215",
"m  c #3B2414",
"M  c #342916",
"N  c #3C2916",
"B  c #33251B",
"V  c #3A261A",
"C  c #372C19",
"Z  c #34291D",
"A  c #3B2A1D",
"S  c #212221",
"D  c #2B2621",
"F  c #2D2A22",
"G  c #282924",
"H  c #322621",
"J  c #332C23",
"K  c #3B2D22",
"L  c #342E29",
"P  c #392D28",
"I  c #2E3126",
"U  c #353126",
"Y  c #3B3125",
"T  c #35332A",
"R  c #3B342B",
"E  c #3A3929",
"W  c #3C392E",
"Q  c #3B3631",
"!  c #373932",
"~  c #3D3B33",
"^  c #441D0A",
"/  c #46240D",
"(  c #53270C",
")  c #422514",
"_  c #452617",
"`  c #432915",
"'  c #4C2B14",
"]  c #432C1C",
"[  c #4B2D1B",
"{  c #542D17",
"}  c #44311E",
"|  c #4C3218",
" . c #4B321D",
".. c #53321D",
"X. c #593619",
"o. c #5B341C",
"O. c #6B3619",
"+. c #65381C",
"@. c #422E22",
"#. c #492E22",
"$. c #542E23",
"%. c #443224",
"&. c #4B3424",
"*. c #443926",
"=. c #4C3925",
"-. c #43352B",
";. c #4A362A",
":. c #433A2D",
">. c #4B3B2C",
",. c #533524",
"<. c #563626",
"1. c #533926",
"2. c #5B3A25",
"3. c #543C2B",
"4. c #5B3D2B",
"5. c #453832",
"6. c #443C33",
"7. c #4B3D32",
"8. c #433E39",
"9. c #523E32",
"0. c #593E32",
"q. c #663C24",
"w. c #6E3D27",
"e. c #613E2B",
"r. c #3C402D",
"t. c #3E4136",
"y. c #6E431E",
"u. c #4A412E",
"i. c #54412D",
"p. c #5C4328",
"a. c #5B412D",
"s. c #444135",
"d. c #4B4235",
"f. c #45433A",
"g. c #4C453A",
"h. c #48493A",
"j. c #4C493D",
"k. c #544334",
"l. c #5B4433",
"z. c #544935",
"x. c #5C4935",
"c. c #53453A",
"v. c #5A463A",
"b. c #534A3D",
"n. c #5C4B3C",
"m. c #5B513D",
"M. c #63422D",
"N. c #69452B",
"B. c #764728",
"V. c #7C512B",
"C. c #634532",
"Z. c #6A4632",
"A. c #634A34",
"S. c #6B4A34",
"D. c #63463A",
"F. c #634D3B",
"G. c #6A4D3A",
"H. c #734D37",
"J. c #6C5137",
"K. c #64513D",
"L. c #6B523C",
"P. c #73543C",
"I. c #76563C",
"U. c #494741",
"Y. c #4D4B42",
"T. c #534D42",
"R. c #534D47",
"E. c #5B4D42",
"W. c #4E5146",
"Q. c #545145",
"!. c #5B5245",
"~. c #55544A",
"^. c #5B554A",
"/. c #58594B",
"(. c #5C5A4D",
"). c #5A5751",
"_. c #5D5C52",
"`. c #634E42",
"'. c #645343",
"]. c #6B5543",
"[. c #675847",
"{. c #6C5A45",
"}. c #62554A",
"|. c #635B4D",
" X c #6B5C4B",
".X c #765945",
"XX c #745A44",
"oX c #7B5C44",
"OX c #735D4A",
"+X c #635D52",
"@X c #6A5D52",
"#X c #625E58",
"$X c #725D51",
"%X c #5D6155",
"&X c #6A614E",
"*X c #796145",
"=X c #74624D",
"-X c #7B624C",
";X c #646254",
":X c #6B6355",
">X c #65645A",
",X c #6C655A",
"<X c #696959",
"1X c #6D6A5C",
"2X c #736453",
"3X c #7A6854",
"4X c #72665A",
"5X c #736B5C",
"6X c #7B6C5C",
"7X c #7A715E",
"8X c #6A6863",
"9X c #6D6C62",
"0X c #746D62",
"qX c #7A6E62",
"wX c #757264",
"eX c #7B7364",
"rX c #777569",
"tX c #7C766A",
"yX c #7B7A6F",
"uX c #7C7A6C",
"iX c #87532F",
"pX c #976539",
"aX c #815E46",
"sX c #84654C",
"dX c #856C56",
"fX c #88725C",
"gX c #93755D",
"hX c #806E62",
"jX c #837464",
"kX c #877968",
"lX c #837B6C",
"zX c #957C66",
"xX c #847D71",
"cX c #8A7E72",
"vX c #7E8172",
"bX c #8B816E",
"nX c #96826C",
"mX c #848274",
"MX c #8C8374",
"NX c #8C887A",
"BX c #958977",
"VX c #948B7B",
"CX c #9B917D",
"ZX c #A78E76",
"AX c #8E8D81",
"SX c #958E81",
"DX c #9C9383",
"FX c #999687",
"GX c #A49A88",
"HX c #AD9C8B",
"JX c #9EA091",
"KX c #ACA494",
"LX c #B5AA97",
"PX c #B9B3A5",
"IX c #C5B5A3",
"UX c #CEC6B6",
/* pixels */
":.K c K Z Z s.:.*.u.d.:.Y *.W :.:.*.*.b.n.z.F.'. XK.u.n.=.u.z.k.z.K V K i.n.-.>.%.7.E.}.K @X!.d.p e , p T g.b.z.*.z.-.:.*.:.z.u.m.3XjXjXbXn.[.d.d.d.s.(.~.~ g.Q.s.Q.:XlXDXeX!.u.!.3X3X7XlXz.m.7XGXGX3X6XbXCXCXCXjX&XjX2XfXd.z.M z.5X;XeX7XlX5XjXkXkXGXHXnXfX=X=XfX=XkXfXfXBXzXZXnX=Xi.kX3X'.2XCXHXHXGXLXCXPX2XbXbX5X[.'.z.'.nXbXVXeXeXbXkX5X7X6XVXMX7X&X&XMXDXVXlXBXCXbXfXjXbXGXbXjXIXPXVXLXGXHXBX=X|.!.j.g.(.:X!.^.;X|.T.T.~.R.Y.f.~ ! W ! T ! R Q 6.6.f.g.f.8.6.~ T W K c x F U T T E ~ E 6.f.g.g.s.6.j.T.g.6.6.b.b.b.c.n.}.'.n.'.`.'.n.l.'.[.n.F.x.{.].{.'.F.'.'.n.'. X3X2X{.{.=XOXK.n. Xm.n. X=X{.{.OXK.A.K.].OX[.=X&XK.x.",
"R R :.d.R -.c.d.b.z.:.>.*.Y W W *.R R >.c.*.A Y c.b.*.*.z.z.n.m.z.*.>.=.%.V A -.-.-.7.-.r n.:X!.E.b.Z z b R d.m.z.eX6Xd.d.z.[.'.z.!.'.6X6Xb.d.:.K J U U W f.U U R b.u.!.&XlX7X7X[. Xm.b.;Xm.d.7X3XkXDX XkXkXCXMXjXkX*.nXGXBX:X5Xd.eX|.^.&Xu.|.!.2X Xz.6XLXfX X=X X3XfX3XkX6X6XkXCXVXnXu.z.[.7X5X!.bX5Xm.MXlX:Xu.*.M *.u.'. X!.&X|.|.,XeXGXCXjXBXCXGXMXbXBXGXKXVXGXLXPXCXkXbXBXCXMXnXCXBXCXGXZXkXkXkXjX3X|.(.Q.b.b.^.;XQ.b.Q.Y.f.~ ~ ~ ! ~ T J T T ! ~ ~ ~ ~ 8.U.~.^.T.Y.f.~ 6.s.W F v v I E U W W T U E 6.s.d.6.g.T.b.c.z.z.n.n.K.'.n.l.v.F. XOX3XF.l.].{.=X XOX{.K.n.[.{.{.F.l.l.K.3Xn.n.z.n [.nXnX3X=X].A.F.{.=X=XK.=.u.m.k.",
"Z B K Y Y Y >.c.c.n.n.u.A A z z M M Y -.:.%.-.-.*.*.Y d.Y n M Z A n n n n z r A K >.A ;.M n.}.jX3X[.z p 1 p z Y !.!.5X&Xm.z.m.z.V M E.:.E.!.2XeX:X^.j.c F f.u.Z E :.z.E z.u.u.z.7XBXn.c.b.|.d.s.u.u.z.|.[. X3X'.z.>.u.z.!.[.b.u.:.d.E u.E u.d.*.c.u.[.d.kXjX2X3Xk.u.[.2X&X2Xm.m.3X7XbXMX2Xd.z.m.BX&Xu.m.z.eXbXKXGXGX7X5Xm.u.m.5XMXNXVXCXLXlX:XMXKXCXGXkXkXGXHX2X{.3XbX'.&X[.kXGXjXkX3XBXfXHXLXHXBXBXBXlXT.6.g.T.Y.Y.Q.h.s.s.f.~ W T L L T T T Q ~ Q T R E 6.f.g.Y.T.6.6.g.s.f.f.f.~ E F v x E W T T 6.R W 6.6.R Y R :.b.x.k.l.3.>.;.k.[.'.F.F.[.].K.].L.].x.n.F.'.'.x.'.'.F.i.l.K.OX{.{.n.;.V [.2X=XOXF.{.A.K.K.K.K.n.i.m.{.[.",
"-.:.:.:.:.-.-.-.>.'.z.[.z.m.m.M M A A M K Y 7.*.Y Z M M *.M r Z K M %.>.>.z.n.d.>.n.c.z.n 2X X2X6X:Xb.6.U s.b K 6.|.:Xn.z.n.'.2Xc.-.'.2X+X|.z.z.c.Q.b.T.~ ~ j.!.!.;X:X5X2X=X2X&X2X3X&XeXbX!.E E d.m.[.z.&XlXeX&X&X|.&XlX5X7X^.Q.(.;X;X&Xb.E ^.[.;X;X|.'.2Xz.[.2XjX'.*.b. Xm.m.2XjXd.6X:X3XVXuXW z.u.eX7XVXKXLXVXVXGXLXUXPXGX5Xm.|.wXwXlXeXeXVXPXGXbX=X7X2X'.CXCXCXbXGXLXDXGX7Xz.|.m.&XkXBXGXBXnXkXnXlX5X^.Y.W ~ s.g.Q.T J c D F F L T T F F J T T T T W 8.f.U.~.^.j.6.6.s.g.j.f.j.6.! ~ f.T x l x J 6.6.6.W -.R -.7.n.c.i.x.]. XK.].F.x.{.3X3X3X3X=X].=XL.K.[.n.n.n.'.'.k.i.'.=XOX Xn.}.l.k.Y  X2X{. Xx.F.K.x.i.n.{.{.z.x.m.'.",
"Y 5.c.b.b.k.%.;.V V %.u.=.=.u.d.Y n M z e z -.b.u.M z z *.!.u.A >.z.%.>.'.n.k.n.k.k.|.!.a d.}.b.:X6X>.Q./.b l p e p d.MX{. X[.z.z.n.3XR -.u.u.:.Y z b T W ~ E W h.;XuX,X|.|.z.z.5X2Xd.:XCX7X;XbXuXeX:X|.n.!.m.|.|.eX2X7X,X:X1Xd.s.(.mX2X&X^.Y E Y d.E.E.>.d.*.@X|.5X|.b.*.u.E u.:.|.|.c.c.:.b Q.MXJX(.MXtX<XVXLXPXLXKXPXVXNXLXPXJXwXg.g.!.lXlXeXbXm.b.u.;X7XMXBX!.d.m.!.d.-.z.d.m.&X5XVXMXbXBX&Xi.'.!.:X~ U b T ~ W W T F b D F F L J L F D F F L F D T ~ ~ f.f.f.T.T.^.^.Y.! T U F U s.s.~ 6.f.g.f.g.6.W 5.d.d.d.d.d.z.i.i.l.F.F.l.G.fXzX-X=XL.=X.XL.l.].{.'.K.x.x. Xn.n.F.n.].jX3X[.F.n.z.K k.'.{.K.k.k.z.k.x.x.z.2X}.K.n.z.",
"Y -.-.-.:.%.;.;.=.k.i.3.x.i.>.Y A 9 z z M z K -.u.z.-.Y z M m.m.*.K.m.n.*.n.E.n.'.b.d.d.p Z :.d.E.@Xd.d.u.l l v z :.b.c.n. X[.2X&X7X Xu.C A z M c K H J F F U U h.!.b.5Xb.b.'.m.|.eX!.|.^.!.;X:X:X5XmXeX5X!.mXlXlX5X5X:X|.|.z.|.,X|.wX'.'.7XDXb.!.d.T.g.|.!.R c Z Z *.K R u.z.j.g.:.Y Z lXKXPXNXLXPXVX/.;XuXtXLXUXPXIXKXFXUXKXmXVXVXmXFXVXeXb.d.u.b./.(.W :.s.m.;X!.!.c.lXeX:X:X!.!.!.d.^.eXBXDXlX!.+XY.~.g.F x F E W s.F F x F J F x x x F J E T L T T F E f.f.^.T.g.s.6.W T ~ f.f.~ f.~ f.f.f.6.W R 6.6.7.d.c.b.b.z.z.i.x.K.x.L.fXzX3X{.L.P.-XdXdX].OXOXOX].2XOXl.k.k.3.;.3.k.n.n.F.z.n.k.z d.n.{.'.n.n.k.>.k.k.K.n.k.m.n.'.",
"R -.-.-.-.>.;.3.3.3.l.n.K.x.u.z.-.e r z Y b.!.n.z.-.*.A r C *.z.z.*.A V %.n. Xz.-.B J 6.v E.Z K B Y :.u.E b E Y.K Y :.:X X6XnX3X2XGXbX3X=XmX5X!.c.K b s x J F I E (.b.6.n.3XeX6XlX3X2X2X7X!.g.z.|.:X;XQ.b.5X5XVXeX|.:X&Xn.,XmX;X|.Q.lX2XjXCXlXlX7.c.6.-.K +XxX5XlX!.U :.Q.h.E W <XxXFXSXKXLXAXmXKXPXNXrXSXFXPXKXFXFXDXAXVXFXFXFXFXFXFXmXLXGXMX5XVX5XW U r.Q./.1X:X5XNXDXVXVXVXlX5X1X|.1XlXMXKXeXeXlX|.f.E E F F F W f.Y.~.Y.E ! ~ ! W ! ~ W T ! T I F F ~ R.~.)._.T.g.s.f.f.f.~ ~ E ! W U T ~ W W W 6.6.7.g.b.d.c.z.[.z.i.K.{.3X3X-X3XdX3X-XdXsXdXsXG..XOXOXfX3XdX6X3X].{. XOX2XOX X[.z.A A M -.[.x.k.F.'.n.x.i.z.n.n.m. X@X X",
"R -.K K -.-.>.k.z.x.k.k.2X'.n.n.n.z z z z *.E.z.z.u.*.z.K =.z.z.=.K A Y z.>.'.2X>.Y 6.E J j.Y Y b e c b :.E R E.6.R Q.:.}.&XjXjXkXbXHX6XfXDXCXlXVX:XK b x D F b U U Y K :.|.2Xb.b.b.Q.lXmX!.s.b.b.d.R U Y R :.5X,X!.!.^.!.b.Q.5X5X(.!.&X7XlXbX|.!.6.U K W g.W #X,Xj.j.E T.<XwXmXFXxXmXxXJXPXrXNXNXVXmXwXtXNXFXVXSXVXFXNXmXmXAXNXNXGXKXNXGXmXSXmXDXFXSXrX/.s.;X(.wXuXmXmXuXuX5X5XwXtX5X0XwXlXMX5X;XT./.j.~ W 6.E T T ! ! Y.~ ~ ! ~ ~ ~ Y.s.T W ! f.f.f.f.R.Y.f.f.f.T.8.~ 6.f.f.W E F E T F F F U U W ~ W d.b.c.z.b.x. Xn.F.{.3XOX{.dXzXfX3X-X=X3X3XL.].-XdX3XOX{.OX].k.k.i.k.z.l.n.k.k.3.%.K A B ;.;.k.2X Xx.i.n.K.2X3X2X6X2X2X",
"R -.Y K Y W -.-.>.k.c.7.n.n.[.E.[.n q z e Z U A A z.z.k.m.k.z.z.u.Y *.>.A K u.b.b.c.Q.d.U v e p E g.d.E.T.b.:X:XY J z J A *.m. X'.&XGX6X}.|. X2X&X!.d.J 6 G 6 l x v b d.|.!.|.(.T./.j.Q.9XT.J j.;XNXmX;X;XW Q.Z J b v U /./.E s.j.6.E U b./.5X/.j.s.T T j.F J g.j.6.Y.rX9XmX1XmXrXmXuXtXlXNXFXrXmXrXuX/.Q.rXmXlXmXSXVXlXVXlXVXFXVXSXKXFXtX1XtXDXSXuXVXVXFXVX|.g.d.!.uXFXwXg./.:X1XQ.+XQ.b.j.;X1XQ./.<X;X;XY.E F l x F F T ! ~ T F U ~ ! T W f.~._.~.~ T ! ~ ~ ~ ~ ~ W ! ~ 8.~ W L x v v x v F T T T W 6.d.6.-.k.3.;.k.n.x.x.fXkXfXdX3X{.K.[.OXOX].].]..X].x.F.A.=.%.i.i.=.;.n.3.n.'.n.n.'.E.>.-.%.k.'. Xn.{. XOX2X2X3X2X X6X2X",
":.7.-.Z K R -.-.d.d.>.-.>.n.c.'.c.r -.>.Z R u.z.} K *.k.*.>.u.k.z.*.*.>.z.z.[.k.>.b.!.g.z p p v p U s.g.5X@X|.c.Y R g.!.z.!.m.|.|.'.b.c.*.:X7Xm.5X,Xs.s - 2 3 6 6 5 l R s.!.!.|.;X:X(.g.!.d.R U |.d.|.FXFXGXGXNXbX|.<XQ.:XuXmXQ.J J b v b U U R U v b s.F v F j.uXNXNXmXg./.rXuXtXuX,XFXuXtX1XuXmXwXrX(.W 1X1XtXMXNXDXVXMXNXFXvXVXGXKXtX+XAXKXxXMXGXFXVXMXlXFXFX,XQ.1XQ.Q.NXNX(.W d.,XmXNXwX/.s.j.;XSX<X/.~ F D F F F F D I ! ~ f.~ f.f.(._.(.Y.Y.f.~ ~ ! ! ! ! ~ ! W ~ ! ! E F x l x x v F F F J b W 6.W -.-.>.x.n.n.'.3X3XOXx.l.K.K.=X3XOX X3X2XOXF.G.-X-XOXx.F.x.3.n.'. X X`.n.z.k.}.'.|.%.c.}.=X'.'.'.OXOXOXOXOXkX6X2X2X X",
"Z Y Y -.Y R 7.7.:.-.%.%.A %.%.%.M e M %.A *.k.n.'.i.*.M %.} } >.i.x.m.n.m.u.-.c.c.R R 6.p g.:.Y c Y E.+X^.6.b.d.qXNXVXwX<Xs.s.!.b.g.E.^.:.M E 2X7X|.g.F > - - > < < s R g.c.b.!.g.:.d.z.E R Z R R &X5XmXCX|.eXeX5XSXPXVXlX+Xh.j.T J J u.U W j.s.v E (.Y.>X9XNXKXFX;X+XtXs.f.9XAXFXFXFX1X1X;X1X5XtXmXtXPXrX<XuX(.tXNXNXMXVXxXuXmXmXVXmXrXNXmXmXNXSXlXwX;XmXVXmXmX0XtXuX(.^.g.E s.h.s.j.^.h.W.(._._.;X>X_.(._.~.f.f.Y.Y.f.! ! f.~ ~ g.~.~.R.R.Q.f.f.f.f.U.f.f.f.~ ! T T J F D F F D D F F v b J J U J 6.W :.d.z.n.F.x.x.m.{.{.{.x.K.x.x.=X=X[.{.'.F.F.].2X3XOX]..XOX{.OXF.'.n.k.z.c.k.k.7.z.%.-.b.6X6XfXOX6XfXfXfXfX6X3X=X2X2X2X",
"R K z B c z K :.-.d.>.d.;.%.*.*.n *.fXfX3X>.l.'.2X2X=Xm.>.>.} } i.m.i.*.V %.>.z.b.7.R Z 5.NXxXeXE.E.g.R b.|.n.-.B s.d.:.s.Q.j.j.T.E b v v e E d.|.;Xb.h.I x < < < > , , b :.b.!.(.!.d.:X|.!.|.!.|.c.!.:Xz.z.z.GX5Xd.5X5X;X;X1X,X+X~.+XtX(.<X;X(.;XQ.9X;X/.<X|.g./.(.T W s.Q.;X<XtXrXwXwX0XtXrXtXuXwX1X,XFX;Xj.rXvXVXFXGXVXDXSXDXDXVXVXmXNXNXVXtXmXGXVXSXKXJXuX,X,XwXuXwX;XuXAXwX(.!.!.j.Y.Y.f.t.Y.h.~ Y.U.f.~ ~ T T F F F ! T.(.T.T.j.^.^.+XT.f.~ ! ! ~ ~ ! T T T F F x D x F F F F F F F T W W W 6.:.6.d.7.7.F. X2X6X2XOXK.F.K.{.x.K.x.x.K.n.].OX`.F.A.OXdXdXdX=X3X{. Xz.k.n.z.5.-.-.-.A *.V m.3X=XBXF.=XfXdX6X6X3X3XkX6X2X X",
":.5.-.5.7.7.>.>.Y n A %.;.n.m.z.[.K. X2X].x.2X3X X3X=X7XK.>.=.} x.2X X>.>.i.z.b.[.|.!.:.R xXqXlX!.K b U |.;X|.|.E.:.(./.T v U F g.j.uXQ.6.v h.d.h.W d./.~ h 6 6 6 6 > 1 p z T 6.d.d.E 5X:X:X:XeXBXjX:X&Xn.:X5X!.!.lXMXwX+Xg.s.s.g.#X0X;X(.j.j./.;XtXuX,XrXtX(.1X;X(.s.Q.s.(.wXwXrXwX<X;X/.;X<XwXmX1X/.;XrXuXW h.W.NXVXFXFXVXuXNXlXAXmXmXFXFXmXAXFXFXFX5XrXtXFXNX0X#XxXuXxXtXFXKXPXPXFX;Xh.~ ~ T t.W.f.t.T E f.Y.! T T ! f.Y.T.E.T.T.E.^.(.E.g.f.! T ! ~ ! L ! ~ ! ! T x D D D F F x l l T ~ W 6.6.E T W d.d.'.2X[.l.x.x.3XnXBXBXdX{.K.=.&.k.x.n.'.2X].OX3XOX].F.].OXdX3Xn.z.z.:.Y :.7.A c.}.k.6XzXnX3X3XfXzXzXfXnXzXzXjXOX{.'.",
"K R Y -.-.:.7.d.d.>.-.M M V u.z.>.z.'.m.z.>.=.k.z.'.=Xn.{.2Xn.>.x.{. X=X'.'.2X Xn.:.E.:.c Y !.1X!.d.z : J Z Z Y Z z z e v l F U J E 6.1X1XE b &X,XbXbXwXyXf.h 6 6 6 6 x s l J U R g.d.Q.Q.!.(.|.5XlX|.lXGXSXVXmX:Xb.!./.Q.;X;X^.+XtXrX0X;X;X;X1X(.wX1X1XwXwXNXtXmXNXFXMXuX;X|.:XuXrX;X(.;X1XtXrXmXNXuXrXyXmXf.v U ;XNXVXGXlXuXlXuXrXrXuXrXAXFXAXmXSXFXuXFX1X1X0XyXrXAXNX;XtXmXtX1XlX1XwX_.~.t.E ~ E F W 9X>X! ! f.! f.U.~.~.(.(.^.^.+XT.T.7.6.6.! E ! ! E T T E T T F F T F G x x l v b ~ j.s.W W 6.6.b.b.n.n.x.l.F.x.{.=X{.3X3X=X{.=X=X=X{.'.'.].l.OX2XOX=Xi.a.K. X2X'.n.n.z.K c Y :.-.;.n.z.K.2XzXkX=XfXBXfXzX6XdXfX XK.'.}.",
"K K Z K Y Y -.-.-.-.d.d.%.M Y >.z.-.d.d.>.Y *.z.u.*.i.>.=X2X6X X>.=.k.k.i.>.z.'.n.-.R R c z K b.1X,XwXj.Q.W R R U J l s.W s.6.6.b.|.wX|.1X/.h.|.5X|.^.|.s.T x < > ; ; > > , 5 1 p b v U U U E s.T.Q.b.g.|.:X5X1X:X:X;X:XwX;X;X,X;X+X#X_._.>Xg.g.~.,X;X(.;X1X;X<X;XtXVXmXtX0XeX|.1XwX;XQ.>X;X;X>X(.tX~.;X1XrXmX<XuXVXMXAXuXrXmXvXVXVXrX<XmXNXSXAXVXSXFXMXNXxXtXyX1XtXrXwX5XtX5X0XNXNXtX;XQ.(.Q.f.W ~ f.W j.Y.~ ~ f.f.~ ~._._.#X>X>X(.T.T.f.8.g.f.8.~ 8.~ ! E I E ! ! ! T T I I I I F F T W 6.E K W 6.6.d.b.z.'.OX=X=X{.=XK.K.K.K.K.].{.3X3X3X=X2X{.[.[.F.].K.OXL.].{.].n.n.l.=.Y U s.d.B M %.A 2XkXfX3XK.2XjXzXkX3XkXfX XF.x.n.",
"Y K Z Y K K Y -.-.>.>.;.>.%.7.>.d.:.K Y Y Z *.b.m.>.z.z.{.6X6X X{.K.'.=X[.'.[.[.2Xd.U Z Z s.v Z T.:XlXmXVX(.|.d.b.d.u.<XNX|.b.Q.:XtX+X:.R /.;X|.eXz.d.5X0Xg.h.G x 6 3 6 6 4 , , l l f.x s l x c b F E g.~.R.j.Q.^.W b.wXmXNX5X,X0X+X_.>X_.~.~ 6.j.(.;XQ./.Q./.Q.;XwXrX/.(.1X1X1X:X1X/.(./.(.(.^.wX1XQ.;XuXrXwXFXFXNXrXmXtXwXrXvXNXSXNXNXNXvXmXmXuXmXFXFXFXNXmX0XuXyXAXNXlXxXmXwXuXrX1X;X;X(.Q.T.j./.1X0X(.f.8._.8X~.! Y.).).#X;X+X^.T.R.T.R.g.f.~ ! ! T ! T F E ! ! ! I F F F F v v F T J W W W g.T.!.c.d.z.'. XdXfX3X=X{.K.{.=X{.{.{.OX{.[.'.x.l.l.x.'.F.'.OXOXF.F.k.i.k.x.x.d.:.E E *.-.>.%.`.F.fX Xi.6XfXdX3X2X2X XF.l.n.[.",
"6.7.d.c.5.:.:.-.Y K -.%.Y A -.k.d.A R u.:.E C M >.k.b.'.n.n.m.z.>.x.2Xm.x.3.>.2X[.|.6.l , v J Y.:.!.Q.W ;X|.;X(.7X;Xd.E ;Xd.j.+X|.5X^.!.R U s.b.7.Y n b.E.E.h._.f.h x 6 6 6 6 D T Y.! x l l l x l 1 , x J J T.1XwX;X|.+XmXwX5XwX(.T.9X8X>XY.~.>X9X1X1Xj.s./.;XwX;X<XrX(.(.^.;XT.1X>XQ.Q.wXrX;X(.Q.;XwX_.^.1X9XuXlXtX<XrXwXrX9XvXrXwXuXrXvX9XuXuXyXNXmXFXmXmX0XNXxXtX9XyXNXVXVXAXVXtXwXwX;X;X;X;X/./.;XNXSXLXxX).Y.f.f.f.Q.R.R._.(.~.#X9X^.6.~ T T T ! ! ~ ! E T E E T v F F F F F T J J J ~ 6.j.Q.^.!. X:X2X2X X=XOXF.OXOX2X{.{.{.].].OX{.'.'.2X{.F.[.'. X'. X=X].n.K.}.{.m.[.&Xm.!.!.>.c.n.;.9.[.K.BX X{.2X=X6X2X X'.K.z.z.z.",
"Y Y :.:.-.:.:.7.>.-.;.;.=.A *.z.d.u.d.u.z.u.u.z.Z -.R >.c.c.c.*.u.[.m.m.'.'.d.c.7.6.6.5 W x < F ^.!.7.s.b J Q.s.b z z j.Q.E v U s.W 6.T.j.6.g.j.!.|.0XxX@X+X^.(.Q.l 6 F 6 6 x h I Y.>X).Q.j.Y.g.j.b b s.+X(.+XrX1XwX!.:X1XQ.:XLXPXQ.j.f.f.j.~._._./.Q.Y.(.;XwX_.;X9X9X_.9X9X_.(.(.R.Q.W._.W.W.h.%X>XQ.).>X_.wXAXmXwXrX>XwX9X9X9XrXmXmXNXyXAXmXuXmXmXNXSXAXmXVXuXmXuXmXuXFXPXSXuX>X;X;X>X>X%X%XrX~./.;X:X;X1X1XSXSX;Xj.t.W W U s.Y.~ f.Y.f.f.~ ! ! ~ ! ! ~ T J L F F F T W J U E T T ! T ~ f.6.~ T 6.d.z.'.'.F.=X=X2XdX=XK.n.K.x.'.{.OXK.F.l.n.z.l.'.[.[.}.K.}.'.[.[.'.n.'.'.n.'.K.=X2XOXn.%.%.kXnX=X{.jXkXfX3XOX{.n.n.n.n.'.'.",
":.-.-.7.6.:.:.:.Y M Y z.n.z.*.u.*.A >.z.*.*.z.u.:.Z Y d.-.-.Y Y >.d.z.d.d.'.n.c.z.:.d.W f.h.c c H B M p p E R U W Q.;XT.h.U b U b g.j.W W s.s.W 6.6.!.+XT.g.9X~.t.~ t.F l 6 < 6 < x l F s.~ E ~ (.1XQ.+XQ.;X<X;X9X1XeX|.b.^.(._.mX9X~.~.~.(.Y.Q.Q.Y.~.Y.j._.wX_._.Y.(.).).;X_.~.%X(._.~.Y.s.t.W.~.~.(.%X>X1X9X1XrXuXtXNXAXvXrXvXmXNXAXvXmXyXmXNXwX1XtXMXwXwX1XxXNX,XtX9XFXyXwXrXwX,X;XwX>X~.(.;X;X;X:X;X|.Q.;XrX<XmXNX(.E 6.W J ~ f.s.f.! ! ~ ~ T I E E ! 8.8.Q F F U T T ~ E T T W E W 6.g.T.j.b.T.!.}.'.}.=X2X3XfXOXfX2Xx.*.F.].[.=X].'.[.'. X X'. Xn.=.K. XOX2X Xn.n.[.].OX2XdXdX XOXK.k.i.BX6X-XOXfXfXdX=X{.OX].n.x.n.F.'.",
"c B c Z Y R -.:.-.Y -.k.n.n.'.z.K >.!.3XjXu.K Y d.|.d.b.|.!.u.-.-.n.-. XBXGXBXjXjXMX^.W b s.T J R :.d.h.g.;X;Xb.T.g.W U J b.Q.h.rXrXQ.Y z v t.s.f.g.j.T.W U E f.E t.U._.f.l 6 6 < < 6 l x F s.g.(.Q.(.j.;X;X(./.j.!.^.tXuX;X(./.(.s.j.Y.;XY.Y.Q.Q.(.).~./._.mX_.;X;X>XY.;X~.~.Q._._.(.9X9X~.h.h.~.%X_.j.(._._.;X>X_.Q.>X1XuXmXuXmXNXNXrX9XwXuXuXSXmXmXtXlXtXwX0X,X>XwXuXNXmX9XrXuX9X(.wXlXtXlXVXlXlXlX:Xm.b.(.;XwX;X;X1X1XmXwXuXtXg.J T 6.6.6.t.t.T ! f.Y.f.~ ~ f.f.s.W U b x K 6.6.6.g.g.b.T.T.b.E.|. X=X2X3X3X3XkXkXOX{.=X2X6XdXdXdXOX{.3XdX=XOX=X{.K.OX X].{.{.].].OX{.{.OX].3XzXfXl.3.;.K  Xl.L.L.3XdX=X-X-X=XF.F.K.n.x.n.",
"z K Y R -.Y K R :.-.>.7.d.k.>.n.;.Y %.-.z. X&Xn.c.d.*.*.d.n.u.*.-.-.k.d.@XBXCXkXkX2XlXZ l ;X;X!.b.d.Y U g.^.Q.;X5X:X<Xj.&XmXeX1X,XuXVXeXQ.E b I I T s.Q.T F U T I E ~.~.>X~.t.T l h 5 ~ T.Q.g.j.j.+X;Xj.Q.rX^.~.;X1X<X(.T.j.Q.~.Y.j.6.(._.;X(.Y.f.~ Y._.Q.Q./.<XY.Y.;X>X;X1X(.~.(._.(.%X~ f.>X>X1X%XY.W.>X_._._.>X_._.>X9XrXrXrXuXuX9XrXyXrXwXmXwXwX<XrXrXrX0X0XmXNXmXSXAXSXmX9X;X(.T.j.|.:XbXlXMXbXkXeX3X:XQ./.j./.wX:X1XuX+XeXGXPXJX0X(.6.6.E ~ ! t.! ! 8.~ ~ T U T T W T W 6.6.6.j.d.g.E.|.@X|.@X[.[.2X3XkXkXnXnX3X=X=X=X=X3XfXjXjXjXfX=XOX=X-X=X-X{.F..XOX3X-X.X.XOXdXzXnXZXzX].l.K.k.] n n.'.-XOX.X3X3X3XOX=Xx.x.x.l.l.i.",
"R :.R R 6.6.R K Z M Z Y -.-.>.7.>.-.%.K !.2X-.c.|.eX!.C :.b.z.z.!.E.c %.b. X@X[.nX2Xd.R l b h.!.Q.m.c.b , l E s.s.|.;XQ.m.&XmXeX;X!.:.:.:X<XE v v b U F F E W.1X>X~ ~.f.~ f.U.j.T.s.^.+X1X(.Q._.Q.j.(.~.(.~._.(.rX(./.1Xg.(.^.;X(.>X8X;X1X;XQ.~.Q.Q.Q.(.j.Y.~.~.Y.f.F #X).Q.s.~.Q.Y.f.Y.f.s.%X%X/./.~.Y.W.Q.~.%X%X%X>X9XrXmXxXtX9X;X(.;XuXmXmXyXyXyXtX1XyXmXtX0XxXmXAXmXKXJXNXmXtX1X;XrXeXlXMXVXDXDXkXBXkX:X+XQ.j.Q.;X1X;X1XcX[.6XjXGXVXPXNX|.W f.~ ~ E T ! T ! ! T U F T E W 6.6.6.6.:.b.^.!.b.!.[.2XeX6X2X6X3X3XkXdX=X=X=X'.=X3X=XOX].{.2XjXdX3XjXfX3X3X3X-XdXfXfXzXnXfXdX3X3X3X2XOXn.3.V r z.'.K.].F.{.K.F.F.l.x.k.i.i.i.i.",
"K Y Y Y R W 6.d.R K K Y -.-.Y Y -.-.K K :.d.-.*.R *.g.!.!.!.|.z.!.^.!.:X:X!.'.'.[.!.c.U 1 l F s.b.n.c.b.s.Q.Q.W 6.g.5Xb.h.h.m.:.Z Y Q.5XtXyX_._.j.W s.j.~ E j.s.s.T.Y.1X~ ~.Q.1XuX;X<XwXuX0X8X>X>X^.^.Q.R._.^.9X_.s.W.;X+X(.1X>X>X1X_.1X_.;X~.Y.~._.;X).(._.>X_.>X~.6 T _.j._._._.~._.).Q.~.~./.W.f.s.h.Y.W.~.)./.~.).8X8XwXrX0X9X9XrXuXrX9XrXuXuXwXyXyXrXrX;X_.>XrXtXNXNXVXwX,X1XtXwXtXeXeXbXNXDXGXKXBXbXlX:X(.j.s.g.b.E.+XeXkXnXPXLXPXMXlXlXDXuXj.E F ~ W ~ ! f.~ s.~ ~ W W 6.6.6.6.g.g.b.!.E.b.[.'.'.!.'.[.'.}. X{.'.!.z.m.'.}.[.[.n. X3X2X6XfX3XOX3X3XfXjXfXkXjXkXfX3X3X$X XK.K.[.'.`.A r %.k.n.n.k.z.l.z.>.>.>.>.>.i.k.k.",
"Z Z K Z z z c K Y -.R Y Y Y B Z Y J p a |.b.K p z U s.(.5Xc.Y u.s.:.:.:.c.|.E.c.!.^.s.U 1 5 b E s.c.b.j.!.,X;X;X1X;X/.W /.b.h.h.:.E s.j.Q.g.g.s.Y.h.s.f.t.j.g.(.eX(.lXwXeXxXxXeXeXlXeXQ.tXwX_.).).^.Y.R.Y.~.~.;X;X~.~ h.;X(.(.(.R.R.R.Y._.Y.j.Y./.Q.~._._.~.~.(.~.).l 6 T ~.f.Y.Q.~.;X;X^.~./.~.W.f.T t.j.Y.~._._._.>X_.8X8X9XrXtXvXyXvX9X1X9XwX9X9X>X9XuXyXwX;X>XrXyX9XtXuX,X,X1X>X;X9XwXmXVXDXGXHXHXnXkXqX+X|.^.Q.Q.(.^.5XBXnXjXnXKXLXBXKXKXGXNXtXlX|.^.g.E U ~ W T E U T T E T T T W ~ 6.6.:.6.d.5.d.d.d.:.*.>.d.d.d.W :.-.R d.d.d.>.>.n.'.'.n.z.z.n.n.'.'.[. XK.n.n.n.k.k.d.-.R -.-.K a e n A Y A n M K Y A Y A Y -.-.%.>.",
"K Y Y Y Z c H b c K Z c B K K b c b v $ :.T.b e : :.;X|.(.|.|.m.<X7Xm.U Z Z Z e p K Q.g.; 5 5 s b -.!.tX+XU :.g.d.d.v E E r.W h.;XmXAX1XY.g.:.6.6.U T /.Y./.lXDXLXGXVXGXqXqXqX2X:XeX!.|.;X>X_.).~.~.Y.g.f.~._.Q.>X~ t.9X>X9X~.R.~.).^.1X~.~.Y.~.~.1XyXrX8X%XY.~.R.8.~ 6 6 ~ _.>X9X1X>XY.Y.Y.W.h.W.Y.~ W ~ f.Y.).~.W.~.8X8X1X>X0XtXrXwXrXmXuX9X>X>X;X%X>X>X>X_.~.>X>X>X~.>X;X9X;X,X,X#X,XmXVXMXFXGXGXVXeXcXlX5X1X;X;X+X;X+X@X6X3XfXnXLXLXLXLXHXCXcXcX4XlXlXDX1Xg.T b F T U J J b z x s s x x H z K H H F v z z p p a z e l p e z c K K Z Y K Z K Y Y Z A K Y *.*.%.Y Y :.K H H l , ; , , : , e q p p w : q p w e e , q a z z B ",
"Z Z K K Z H U W R R Y c z a p p p b U J b b U J R 6.R u.s.b.5XuX;XJ h.:Xb v Y W p J g.j.v c F x Z K Y U W g.~ s.s.v 5 < I v < 6 < < h l F E H v b T W W f.(.lXMXLXlXlX3XDXVXMXMX5X:X:X(.;X_.;XY.Q.R.R.g.~.~.)._.1X8XE f._.).).)._.#X#X>X;X).h.~.W./.Y.Y.h.f.h.t.E ! 8.~ ).Y.~._._.;X~._.>X(.W.~.~./.(.Q.j.Y.j.~ ~ _.~.Y.>XrX0X>X1X1XyXwXuX9X1X>X1X;X%X_.(.)._.~.~.>X_.>X_.1X1X1X1XwXtX0XwXwXuXxXNXVX5XDXVXMX5XeX0X:X+X:X1X4XfXfXfXkXkXLXbXBXGXcXGXkXVX2XVXlX!.5XFXwXY.W c p s , ; > 3 6 6 6 < 6 > 4 ; ; ; ; , 5 s , $ ; ; ; ; , 1 , $ , , : : : : : : : : : 1 e l 1 , $ $ ; $ o o ; 1 p p p i B K -.b.H T z , , $ : : : e , q ",
"l v v z l p p z Z c z c Z z p v b v v v z z v b c c l c Z U Y R Z Z U R R b l E U b b W J E z 1 1 l l b J l v I t.! 6 3 3 6 3 3 6 6 6 < h G ! t.t.s.d.Q.!.:XFXDXGXMXjXMXDXGXGXmXtXlX0X,X!.(.Q./.R.Y.Y.h.j.j.Y.Q.>XrX8XT.R.R.~.R.)._.>X_.).W.~.~.Y.).~.).f.f.E ~ Y.h.Y.~.Y.^._.^.~.Y._._.^.~.j./.s.E R g.(.+X5XQ.1XwXwXwX>XY.f.~.%X>X%X/.%X9X9X9XrXyX9X>X;X(.Q.Q.Y.j.~./.~./.9X8X#X0XqXrXtXlXSXmXVXDXVXMXMXVXNXlXeX5X|.|.1X5X4XqX4X3XlX:XBXCXHXGXBXBXkXDXeX+XE.0X0XrX>X;X! F 6 - 3 - & > + + o +   2 - ; - - - o - - - > ; > 4 3 6 4 & o $ + & * & o o     X + 2 +   X X o o + ; ; , Z :XMXGXHXHXGXVXcXc.|.:XE.Z p , e z z r r ",
"g.s.g.g.g.6.6.6.d.6.6.d.g.g.g.^.(.(.;X1X1X5X0XtXeXeX0X5XtXtXtXtXwX:X:X|.:X7X,X|.MXtX5XMXlXFXmX:X5X:X!.!.W U U b I G h < 6 6 6 6 > b v l h I t.s.j.(.uXlXBXjX(.5X5XlXmXMXBXMXeXlXlXtXmX1X,X(.Q.h.g.g.j.Y.Q.Q.f.Q.~.rXAX_._.#X~.~.~.~.~.Y.Y.~.).).).~.W.Y.U.t.Y.Y.~.>X;X8XyXrXtX8X).).Y.^.~.~.!./.;XtXPXKXVXMXtXlX5XuXtXtXFXLXJX1XQ.W.W.%X>X%X~.).~.>X1X%X_.>X9XwX>X/.W.h.f.~.%X~._.1X1X0X1XMXMXuXlXlXlXMXMXtX4X1X:X|.|.!.+X4XqXqXjXeX6Xb.2X3XkXVXcXjX X|.:XxX5X1XxXNXtX+X>XR.>X8X~.D $ , 4 > + - - 2 - > ; - ; + + o 6 F W l s D L L s 6 s 5 $ 4 c , > X     X X X o + . $ ; , l K :XVXKXHXIXLXHXHXkXn.n.n.!.:X X:X!.b.d.'.6XcX",
"6.6.s.s.s.g.d.6.g.6.d.d.d.g.g.g.g.c.T.^.!.b.E.^.|.!.E.!.^.:X1X1X,XeX5X:XlXFXDXFXMXVX5X:XNXVXlXmXbXLXLXLXbX!.b.h.W I I I T F v I /.<XmX;Xb.h.;X/.<X:X5XlXz.eXMXbXVXMX5XeXeX4X4XlXtXxX5XeX(.+X+Xj.j.Y.W.Y.R.(.~.j.(.^.>X).~.~.^.).~.~.R.R.~.~.W.W.).).Y.Y.! I f.~.>XrXyX_.Y.1X^.^.^.Y.^._.g.^.lXmXSXmX0XSXGXGXlXwXeXlXmXSXFXNXwXNXNXJXrXQ.Y.(._.+X1X).%X>X>X~.~._.W.W.W.W./.>X_._.(.^.+X(.;XwXxX0XtXlX5XlXjX5X:X:X|.:X|.+X:X5XqXcXBXkXfX6XfXkXnXjXeX6X:X4X!.}.eX:XxX5XeXlX(.s.K >XAXKXNXuXR.x 6 l 6 > - o + & > 5 b 6.^.,X[.c.5.d x p s x 5 p R @X1XK z ~ 6 o ; & ; ; o : l W !.|.6XBXfXCXIXUXLXZX3X{.'.fXBXBX'.d.;.b.z.2XfX{.3X",
"g.d.s.s.s.d.g.g.g.6.6.6.d.d.d.g.g.b.E.g.d.b.T.E.!.b.E.E.(.|.|.:X5X|.[.2X7XlX5XlXCXVXDXGXVX7XlXlXeXCXVX7XbXBX:Xs.R U l U !.1XlXmXwXNXeXeXlX;XQ.m.b.,XGXVXjXkX5X:XtXtXMX0XeXMXqXeX5XlXwX1XQ._.^.Q.f.f.Y.W.~.(._.~._.>X9X9X9X).).).~.).W.R._.~.Y.Y.).W.~.U.t.! G f.Y.U.f.8XY.6.+X^.g.j.~._.;X,XmXuXlXxXGXNXxXNXNXeXBXeXVXGXVXGXGXVXSXKXSXFXAXwX^.j.(._.>X).).~.f.W.~.~.)._./.Y.Y.Y.~.~.(.>X+X1X1XtXtXeX0XeXmXtXlXeX5X1X:X1X1X:X X7XcXGXCXnXnXBXkX6XkXqXjX@X:XqX5XrX^.6XlX:XxXeX5X0XlXNXcXGXKXJX9X~ G I ! ! f.U.T.+X|.}.@X2Xn.z.d.c.z p z b U u.2X Xn.>.K d.;Xs.b T :.:.d.d.!.|.2X6XdX3XBXnXdXzXfX3XjX3X=XzX=Xx.2X X}.2X XOXA.G.].",
"d.g.b.6.6.j.j.d.6.:.6.:.6.:.R :.6.6.7.6.6.g.g.d.g.E.!.^.!.b.b.!.!.|.2X2X:X5X&X5X5X&XlX7XbXGXHXLXDXDXCXCX7X2X7X5X:X7X1XMXVXbXlXlX:XlXBX5X[.;X5X;XeXlXeXMXMXkXuX;X5X5X:XtXlX0XcX5XlX5XxXNXtX0XrX(.).(._.Q.~.~.~.(.~.~.>X#X~.~.~.~.)._.~.~._.Y.U.f.f.Y.f.Y.U.Y.).f.f.U.Y.Y.Y.T.+X^.0XuX0XyXwX;X5X0X0X5XeX5XeXjXMXVX3X2XeXlXVXFXGXDXDXSXlXlXNXDXSXAXcX;X~.Y.~.~.).Y.Y.~.t.t.t.t.h.Y.Q.^.^._.~.Y._.1X1X0X5X0X5X1X0XtX5X1X1X1X5X+X:X6XkXBXCXkXkXzXnXGXVXMXlX:XE.^.|.+X0X'.eXmXBXVXMX!.[.MXGXPXLXGXtX1X_.~.Y.Y.f.f.g.b.b.'.'.n.'.2X2X@X:XT.g.M b.=X3XK.k.-.Y c.!.6.K c.b.>.i.{.=X{.{.zXfX=X.XL.OX3X].].G.L.sXL.i.3.[.jX=XK.n.i.3. . .",
"g.6.:.d.:.6.d.6.6.:.:.R R R -.:.6.6.:.-.:.:.6.d.d.b.b.E.b.b.b.b.!.!.|.5X:X:X|.^.|.:X&X&X|.|.[.uX5X5X7XlXbXcXbX5X5XeXeXMXbXMXGXVXDXeX7XeXeX5X:XuXeXeXbX5X7X5XlXmXlXmXtXeXeXtXtXxXeXuXtX;XrX0X#X#X_./.Y.f.Y.~._.~.Q._.R.Y.~.~.R.R.~.Y.U.~.~.f.f.t.f.f.f.~ t.f.f.T W f.).#X9X1XcXxXtX0XeX0X:X1X:XwX:X:X5X0X5XqXeX@X X X6XeXVXVXDXBXmXjXVXMXDXxXNXMXNXFXAXrX>XQ.Q.Y.Q.Y.j.f.Y.f.s.f.f.Y.Y.Q._.^.).>X1X1X;X;X,X1X5X5X0X,X+X:X!.|.5X2X6XjXcXkXkXZXkXBXBXNX5X!.b.Q.;X^.|.:X:X:XMXMXlXjXlXkXLXGXGXeXeX:X0XwX1X>Xg.E :.Y -.-.>.k.&X2Xd.b.c.b.c.!.!.K.x.F.3X|.n d.:.B Y '.m.K.3XkXdXK.nXdX].L.G.].G.{.{.F.K.L.G.G.].x.[.{.n.n.l.i.N ` 1.",
":.7.7.g.g.b.g.7.6.6.6.R R R R :.s.d.6.:.:.6.:.W W :.d.g.g.d.d.g.g.b.g.|.+X|.!.|.:X5X|.!.b.|.|.Q.!.|.|.|.|.[.lXlXjXcXMXMXlXlXlXlX&X!.:X5X:XxXFXmXmXlXwX:X7X|.;XrXNXuXxXtXwX1X^.eX0XuX1X0X1X0X8X_._.(.Y.~._.>XQ.Q.~._.8X_.~.~.Y.W.Y.f.f.f.f.f.~ ~ Y.f.f.~ h.j.j.W +XNXJXKXNXxXGXMXuX0X1X0X0X:X5XuX1X:X|.0XlX5X4X:X1X|.lXMXVXGXDXlXVXBXMXlXlXmXmX0XlXmXlXmXGXJXmX+XE.b.g.Y.~.Y.! s.s.f.f.Y._.9XwX>X_._._.#X5X1XeXuX;X>XuX,X!.^.;X:X5X5X4X2XkXjXCX7X5X:X|.g.|.(.^.+X#X+X+X^.tXlXeXDXMXMXCXnXkXCXcXDXHXVXKXVXlX:X!.:.-.d.c.c.d.d.c.b.!.!.[.'.[.-XkX=X&Xn.9 z z 7.b.[.6X=X3XfXfX.Xp.oXL.-X-XOXOX{.F.F.F.K.].dXOXx.'.z.k.k.k.n.L.L.L.",
"6.6.g.7.d.g.g.g.g.d.j.d.d.6.W :.:.:.W :.6.s.6.:.6.d.g.6.6.d.j.b.j.(.;X^.Q.Q.Q.(.+X(.g.b.Q.!.g.b.(.(.|.(.|.1XlXeX:X5XlXlX5XlX2X7X!.:X5XeXeXuXwXyXuXwX0X(.;XQ.wXuXrX<X1X+X0X:XlX0XxX,X+X+X>XrX8X#X).~.~.Y.~.>X_.(.~.).~._.).~.U.U.f.t.t.f.f.f.f.W.Y.f.f.f.;XNXJXtX0X,XwX1X,X0X5X+X5X5XeXtX5X:X|.|.Q.(.1X;X:X5X5XxXqX0XtXtXlXlXtXDXVXMXCXVXVXVXuXMXuXtXeXqXeXVXMXFXKXGXeXQ.W ~ ~ ~ s.f.s.Y.~.~.).~.~.~.^.^.+X+X;XQ.^._.#X0X^.Q.~.+X;X:X5X5X6X4X[.|. X!.:X+X:X|.Q.W s.^._.tXxXMXeXcXGXLXLXCXCXBXGXnXCXHXGXlX7XVXKXVX^.T.j.6.E W g.^.E.E.n.K.=X3XnX6X5X!.; l K g.n.2X X'.nXzXBX3XzXdXK.K.x.l.x.x.F.9.3.l.l.l.x.k.k.>.d.-.u.3.x.a.} ",
"-.d.:.5.5.6.6.6.:.6.d.g.g.d.:.:.6.:.W 6.s.s.:.s.d.g.b.6.d.d.g.g.T.j.#X_.R.j.g.Y.^.(.(.^.1X/.(.|.+X:X1X1XeX1XwX:X1X:XeX5X2X5X:X5X5X5X:XmX1X^.9X0X>XuXrXwX<X;X_.1XwX1XtXuX1X:X>XrX,X0X0X_.>X#X).).(.>X>XY.>X~._._._.>X~.~.W.Y.Y.U.t.t.~ ~.W.Y.t.f.Y.>XAXwXuXrXtXlXuXtX,X;X|.^.+X:X1X0X0X0X1X+X;XrXwX(.;XwX1X:X:X,XwX1X0XrXwXlXuXmXBXCXlXbXlXeXlX:X;X:X3XlXMXMXlXjXMXNXNXNXAXuX~.~ ~ s.s.f.U.R.~.~._.>X#X_.1X0X,X#X^.+X+X>X1X+X_.).#X0X5XtXeX:X4X4X!.!.b.E.;X;X(.j.s.j.#X+X5XeX4XeXMXGXKXkX2XjXbX3XBXGXGXBXBXBXVXlXuXmXyXg.~ ! g.6.6.c.z.{.=XdXfX3X&XeX, d.T.}.6X'.k.jX6X=XkXZXnX{.[.{.K.K.K.'. X'.n.i.k.k.>.=.%.M A A %.>.x.i.x.",
"6.d.d.g.d.6.6.7.:.:.d.d.6.7.d.d.6.6.s.g.g.d.d.6.6.d.d.s.g.j.Y.j.j.j.j.j.T.b.b.d.b.!.b./.(.5XwXrXuX1XuX0X>X,X0X0X5XeX0X,X|.:XwXtXlXtXeX5XQ.Q.<X:X(.;XmXuXmX1X;X(.(.;X(.0XxXtX,X#XQ.(.(.>X~._.~.).>X).>X8X>X9X>X).).~.Y.W.h.t.Y.W.W.Y.f.s.h.Y.>X9X1X;XNXuXtXlX5XlXuX5XE.:X^.W.g.^.^.5XlXeX0X1X5XlXmXlX5X5X5X0XcXcX4X:X0X:X5XMXMXMXnXDXVXlXlXeXcXeX5X5XeX5X5X5X0XxXlXxXMXBXMXVXGXDXmX;Xh.s.f.Q.).(.~._.%X%X<X9XrX9X>X1X#X^._.#X+X#X1X,X6X:X:X!.|.^.(._.~._.^.R.Q._.rXrX;X1X:X5X}.2XcXCXGXCXCXHXLXLXGXGXjX7X7XbXMXMXlXVXGXeX1X^.E.g.7.:.!.|.:XOX6X|./.Q.h W ^.E.b.i.'.2X X3X=X6X{.-XdX-XoXoX-XOX].[.'.b.k.>.;.*.K >.z.i.k.l.x.l.k.",
"W :.:.6.:.d.d.6.6.d.d.6.d.g.7.6.7.d.:.s.g.d.6.:.d.E.T.d.g.T.j.h.s.s.b.j.s.(.Q.c.s.!.5XmXtX1XuXFXVXSX;XcX#X0X+XqX+XeX1X!.Q.:X+X:XtXuX5XtX:X^.(.:X5XlXNXMX5X1X_.;X;Xg.+X(.;X1X0X1X8X1X(.;X1X>X(.~.~._.~.Y.%X~.~.~.~.Y.W.Y.Y.Y.Y.Y.~ t./.yX~._._.~.Q.tXwXNXtX|.5X5X|.b.b.:.d.t.E E.1XqXqXtX0XtXlXlXMXeXeXxXlXtXqX2X[.!.|.0XeXlXMXMXCXDXGXMXlXcXVXcXeX0X5X:X:X:X|.|.:XtXMXCXnXlXlX5XmXMXvX;Xj.(.~.~./.%X;X/.%X#X9XrX8X>X_._.>X_.^._.Q.|.|.,X0X|.Q.j.j.T.(.Q.j.Y.^.j.Q./.;X1X|.|.E.}.6X'.kXBXnXHXCXGXCX6XnXjXCXCXKXKXVXDXGX6X:X}.1X!.|.:X:.d.>.x.m.!./.t.h b g.c.'.n.}. X'.k.K.3X].L.I.dXnXzX-XF.l.3.;.z.;.;.=.>.x.n.x.l.l.3.%.%.A ",
"W :.6.:.R Z 6.b.d.d.c.d.d.c.E.b.b.g.d.g.g.s.:.6.g.E.E.j.T.b.s.s.s.j.j.s.6.W d.:XeXNXxXNXNXtXmX5XwXNXSXtXxX0X0X5X+XtXMX|.(.;XtXmXuX<X:X1X|.1XwXuX<XrXwX;XrXwX9X;XrX>X(.g.f.>X1X;X(.(._.W.~.~.>X;X>XR.W.).%X>X~.f.h.Y./.Y.f.t.(.9X9XW.>X~.(.Q.(.T.~.(.,X>X^.:X:X^.+X:X!.+X!.s.Q.1X1X0XxXeXtX5XeX7XlXmXcXlXqX5XxXlX&X!.b.;X0XwXlX7XkXVXGXlXlXVXVXVXlX5X5X:XeX5X1X:X0X5XeX6XeXbX5X1XwX;X;Xj.Y.^.tX0XY.Q._.~.~.~.~.)._.>X#X#X;X(.(.(.,X;X|.5X1XwX;Xf.s.j.(.(.(.g.Y.>X0X<X1X:XeXeXeX@XE. X6XkXkXkXBXGXBXBXCXGXCXGXnXjXlXVXeXlXqX5X5XqX@X:X:X|.+Xn.u.R Z l t.W j.E.c.c.d.k.n.z.V k.'.L..XP.-XL.K.x.K.'.n.F.l.k.i.K.{.K.x.K.3.>.>.=.k.",
"W R :.:.6.R B K d.c.d.:.6.7.6.d.d.g.b.d.g.j.g.j.g.g.d.6.g.d.6.E U W W s.Q.:XeXMXMX:XtXNXVXVX:X:X5X|.1X5XwX5X:X1X:X;XtXNX1X5XmXtXtXmXwXtX1X/.(.;X1X1X<X<X/.(._.(._.).(.>X1X1X_.(.wX;X~.)._.;X1X>X_.~.~.R.%XY.Y.Q.Q.s.f.~.;X;X).>X/.~.~.(.+X^.+X+X^.+X+X!.E.b.}.^.|.^.+X|.1X(.<X:X5XeXeX+X5X5X6XjXeXqXeX4X5XxXNXBX5Xb.!.s.|.tXMXbXkXbXlXDXmXlXlXMXNXMXmXxX5X5X1X:X:X5X4X:X3XeXwX:X;X/./.j.j.^.>XrXmXmXrX(.Y.~._.1X>X;X1XwX9X1X>XwXwX1XuXwXrXY.j.j.f.Y.Q.>X1X;X,X9X^.(.:XuXlXlXNXlX5X'.3X X2XBXcXMXCXnXnXCXbX7X6XbXMX6XeX3X4X:X:X:X5X|.5X:X5X2X2Xb.d.s.W s.g.:.5.R 7.g.7.7.-.n.E.{.x.{.x.K.n.z.n.z.3.x.i.&.&.i.1.i.i.=.k.n.*.*.%.",
"T R 6.6.d.7.c.-.Y 5.d.6.d.6.:.:.:.s.d.6.s.g.s.g.g.6.6.~ 6.W E Y T f.#XwXmXeXlXMXlX7XtXMXtX5XlX0XeXlXwX:X;X;X!.(.!.^.(.1X1X1X(.;X<X!.1X5X;X1X1X;X;X(.;XtX9XT.~.;X>X>X_.>X1X>X~.Q.(.rXuX_.;X^.j.Y.~.>X~.Y.~.Y.j.j.(.<XuXmX;X^.(.~.T.(._.>XQ.+X+X^.g.T.^.+X:X:X^.+X+X|.|.!.b./.+X1X1XeX:X1X:X0XeX5X5X4X1X5XlXmXlX5XBXm.Y Z |.GXBXMXlXbXlXMXmXlXlXlXmXlXeXeXlX1X|.:X:X5X5XlX5X:X:X:X(.T.T.^.T.b.#X,X#X#XqX0XrXuX1X>X;X_.;X>X1X9X(.<XwXmXNXAXvX).~.h.s.j.Y.(.Y.j.j.1X1X|.wX|.5X5XeX:X|.}.b.c.'. X2XkX6X6XCXbXkXnXBXkX&X2XeX:X1XqX5XeX5X5X|.+X|.:X X;X;X/.h.:.K -.K T -.6.b.c.E.E.z.k.z.z.>.z.z.i.z.>.>.F.3.=.A.a.L.x.i.a.i.} } A *.",
"d.6.5.5.6.d.c.c.d.:.d.d.7.:.*.:.:.d.6.6.6.6.W W ~ W T W T T 6.T.#X>XwXuXmXVXeXMXMX7X5XeX:X5X:XwX5XtX5X(.;X;X(.;X;X^._._.Q.f.Q.j.g.j.(.wXuX/.Q.rXrXyXyX_.tX~.9X>X>XY._.1X_.>X_.~.>X)._.>X1X>X_.Y.>X_.~.Y.f._.1XmXwX;X+X1X^.+X|.(.Q.T.T.Q._.^.s.s.6.6.d.^.^.+XE.|.0X+Xg.6.6.b.^.,X1X,X1XeXNXMXmX0X0XeXcXeXlXmXeXkXbXVXY Z |.mXMXbXkXMXMXlXGXcXlXeXeX@XeXeXlXlXtX:X:X:X:X;X7X:X;X^.+X+XT.g.T.E.+X^.R.^.#X~.#X9XSXFXFX9X(.(.;X;X<X;X/./.>X>X>X_.~.Y.h.~.^.f.Y.~.^.+X1X|.b.!.:XeXlXeX}.1X^.g.>.d.d.&XjXnXCXCXBXkXkXjXkXcX:X X:X|.@X5XeX:XlX:X:X5X0X1X:X|.!.5X^.Y z J 6.j.g.R b.5.d.d.>.*.*.Y n.z.>.>.F.].].{.OX3X].L..X3X=X{.=X{.{.",
"R T T T R -.R 5.g.7.R 6.7.R *.d.d.*.Y 6.J J ~ T T T T ~ T.#X0X>X0XeX,XmXmXMXBXMXMXcXNXDXmXxXlXlXtXlX5X;X1X^.1XR.^.R.).~ F x l 5 l l v F Y.mXMXQ.Q.s._.#X)._.~._.h._.~./.).~.f.f.Y.(.Y.Y.Y.Q.)._.Y.Y.~.9XmXmX>X,X;XwX5XxX1X!.g.d.b.^.;X+Xs.T.T.+X@X,X4X@X4X^.T.:X!.(.:X1X#X|.^.!.;X,X5XeXeXlX0X5XlXNXlXeXeXcXmXkXCXHXGX5X:XDXBXCXCX7XFXVXMXVXeXcXeXlX+X5XeXeX:X:X5X:XmXlX1X|.+X1X5X+X^.Q.6.6.j.T.R.^.(.^.~.;X:XxXFXSXLXFXxX,XQ.Q.<X9X%X~.).~.Y.Y.W.~.f.Q.+X^.^.,X:X^.1XlXlXlX1X|.0X:X:X,X!.d.>.-.'.jXkXBXGXGXHXBXjXjXkX XE.eXeXlX!.E.d.@X|.,X0X|.c.c.[.|.:X5XR.W 6.6.K R E.|.b.:X2Xb.d.b.m.k.c.}.}.F.F.n.3.=.l.l.3.1.a.i.a.F.K.",
"6.d.6.-.R Y -.d.g.d.:.d.c.g.*.Y M Z Z T H x D T ~ Y.~.^.^.(.#X,X0XwX|.5X5XlXMXVXMXcXlXeXlX5X5X5X:XlX^.1X^._.j.g.F 6 3 & 6 3 > < > T T D I h.1X/.wX#X~._.#X_._.W.).Y.~.~.U.Y.Y.f.W Y.1X>X^.~.f.j.yXFXNX;X/.1XwX;XwX;X5X1X1X1X!.d.!.!.Q.T.Q.Q.;Xb.T.E.^.E.^.^.|.^.+X5X^.5XeX1X1X1XrX<X0X>X4XqXlXqXtX5XeXlXMXDXHXCXnXIXUXUXKXBXGXjXjXlXlXBXlXlX5XeXlXlXlXeXtX0X0X:X5X|.!.b.|.|.(.^.1X1X(.T.s.6.f.Y.R.j.W ~ f.Q.1XuXJXlXeXNXFXJXFXwX/.Q.~.W.~.Y.U.f.E E j.R.Y.T.(.#XeX4X5X+X:X|.|.^.|.;X^.^.|.!.&X[.>.n.jX6X=XjX2X2X6X6X:X2X1XqX4XE.d.!.:X:X0X1X,X1X,X:X5XeXlX|.T.6.T.j.T.s.c J :.!.:X|.:Xb.n.2X[.n.n.n.}.[.z.k.K.x.*.3.4.1.G.a.x.",
"d.g.d.5.:.K K :.d.g.7.:.:.g.c.z.:.s.b.g.W T f.Q.~.~.^.^.^.#X>X,X1X:X5X:X|.:XtXVXjXqX0XjXeXeX5XlX5X0X5X(.rXW T s & + 2 3 3 6 ! R.8._.>XU._.h./.wXj.Q.).#X#X9X%X_.Y.W.Y.Y.f.Y.Y.)./._.~.~.~ f._.>X_._.>X(.(.(.+X(.b.Q.|.:X|.:X+XE.!.Q.6.6.g.^.+X^.!.T.b.T.(.T.T.T.#X+X^.^.,X5X:X;X;XwXrX0X@X4XcX5XtXlXNXmXVXHXGXHXHXIXUXHXIXKXKXBXjXcXbXcXcXMXMXSXlXlXlXeXeX0X:X:XeXlX5XQ.!.b.b.E.(.T.T.T.6.g.g.j.f.W E ~ h.E.|.eXlX5XNXGXDXSXVXVXSXvX>XU.f.f.U.~.~./.t.Y.#X+X+X@X0X4X:X:X:X:X:X!.:X0X1X#X+X5X7XjX6XK.*.[.6X&XkXCXkXMXBXcXlX5X:X:X|.qXlXeX:X^.;X;Xb.z.|.|.5XE.g.j.j.Q.d.j.E.!.6.Z Z Y K >.n.k.z.v.;.k.'.k.n.m.&X'.z.F..XG.-XdXXX",
"6.6.6.W 6.R Y -.:.R R R R 5.d.j.g.W 6.~ 6.8.f.T.T.^.^.^.+X+X+X>X,X1XuXxXwX,X0XwXuX1X1X1X1X,X;X+XrX0X^.0X,XxXT b x p , x f.NX9XY.U.R.)._.1XxX9X_._.R.R.T.Y.R.f.f.U.U.U.Y.Y.Y.)._./.Y.f.~.h.E ~.s./.|.;X;Xb.+X:X|.1X1XeX1X1X;X(.+X!.s.d.5X1X,XwX^.^.(.0X+X5XeXeX5X4XtX+X+X0X0X;X1XuX0XxX,XqXeXtXqXSXmXmXMXVXlXMXGXHXLXLXMXBXBXDXnXVXcXCXbXlXVXMXDXBXlXlX7XmXwX|.uX0XwX+XT.j.R.T.T.T.T.g.j.j.f.s.~ 6.T T ~ f.g.b.|.|.eXeXlXxXmXxXmXmXNXSXxXAXFXtXf.f._.~.T.+X#X#X8XqXrX0XwXwX0X0X:XlXMXlXMXjX2X3X2XjX6X X} n.bXMX2XeX2XlX4X4X5X|.@X5X5X:X|.}.+XE.g.b.5X^.|.E.7.j.s.g.j.g.g.6.E.+X^.s.b b R :.6.d.d.6.R R b.c.b.z.z.k.>.i.3X[.i.%.",
"W R W :.:.R R -.R Y K J Y K J c b K ~ f.g.f.g.Y.T.b.g.E.^.#X1X0X>X0XrXuX,X;X,X0X0XrX:XwX;X(.>X(.>X>XR.b.(.T.FXNXQ.6.6.tX_.#XyX8X^.Y.).#XR.~.f.Y.R.Y.f.Y.Y.Y.W.~ ! U._.~.Y.Y.Y.Y.(.Y.Y.f.~ ).(.>X;X;X(./.;X(.:XwX(.:X1X;X!.;XQ.:XeX1X1X(.1X,X0X+X;X0X,X1X!.!.E.|.:XwX!.tXeX:X1X0X:X,XwXxX0XlXNXSXNXmXDXDXKXHXKXlXlXGXHXHXGXDXnXjX5XBXBXMXVXVXDXeX5XbXlXuXwXtX:XtX<X>X^.j.Y.T.j.Y.j.T.j.f.W T ~ ~ W T U T ~ s.^.+X1XtX5XcXlXeXNXSXtXSXxX>X>XuXAXAXmX8XQ T.,X0X^.^.1X;X>X_.;X5XlXlXlXmXMXlXlXMXbX:XjXkX2X2Xu.z.2X2X:X2X4X5X:X@X@X4X:X4X|.:X@X>X;X5X5X|.!.!.b.j.5.g.b.T.!.g.6.T.E.g.b./.!.b.W K K :.U z l :.:.>.7.v.k.9.k.{.'.F.[.",
":.E W 6.W K J R 6.:.Y Z c K W s.j.Y.T.R.R.T.Y.T.T.j.j.Y.^.+X+X>X#X,XtXtXwX1X0X0XrXwX1X0X/.(._.;X>X#X~.,X;X0X_.xXPXKX^.1X).Y._.).#XU.f.8.f.! f.8.f.Y.~ ~ f.R.U.W.Y.f.Y.Y.~.8XrX9XNXSXrXs._.)._.Y.T.Q.(.;X(.1XwX:XeXwX+X:X5X1X5X:X5X0XtXuX:X5XtX1X1XcXcXxX1X5XeXeX1X5XtX:XlX1X!.+XtXNXcXGXNXNXcXcXlXGXBXCXbXCXGXMXMXlXBXVXCXBXCXMXMXlXLXBXbXCXMXlXVXMXVXMXMXMX5X,X_./.j.j.j.j.T.T.j.g.f.6.T W ~ ~ t.~ T U ~ d.E.|.@X4X5XeXeXeXqXxXlXuXrX>XtXyXwXwXtXMX0XT.(.^.g.T.#X~.).>X0XtXtXuXeXmXVXVXmXDXGXMXBXBXeXlXlXn.d.!.2X6X@X5X@X@X@XqX4X@X@X@X|.+X:X(.|.;X|.;X>XT.g.g.E.T.b.g.6.d.E.E.b.Q.!.|.+XE.g.Y K b Y d.*.K >.7.k.n.z.n.z.c.k.",
"6.W E W E K b K W W K H 6.j.g.Q.T.T.~.~.R.~.R.T.R.T.T.T.T.R.T.^.>X(.1X0X1X0XtX9X0X1X;X+X+X>X_.).>X#X~._._.+XtX>XyXAXwX0X>X8X_.Y.f.8.~ ~ ! T t.Y.Y.f.f.f.f.U.! f.~.%X9X>X).Y.Y.).(.~.yX_.Q.>X;X_.Q.+X|.;XwX:XtX:X;XlXMXtXlXeX:X5XlXtXeXMXmXMXVXmXxXtXcX0XNXlXlX5X:X:X|.|.eXeXtX5XeXeXSX0XVXmXcXMXcXlXbXDXCXVXVXCXVXCXGXCXCXGXBXVXCXLXKXGXDXGXDXVXGXGXVXlX5XtXuXrX+Xj.(.Y.f.f.j.Y.Y.f.s.~ E ! W W ~ W T W s.g.+X:X+X1X:X1X1X:X+X:X1X0X0XqXuXqX0X0XwX#X>X,XMXuX,X(.Y.Y.^._.^.#X1XrX,XrXlXeXtXeXlXmXlXlX3X5X5XqX X-.g.!.^.|.:X}.}.4X@X!.^.E.!.T.^.|.:X|.|.|.^.Y.W g.g.:.6.6.:.6.T.j.Q.|.!.|.+X+X|.:X^.s.U K :.Y Y :.7.:.>.>.-.>.7.",
"6.E U E W Y Z b Z H 6.E.T.j.Q.Q.j.Y.Y.R.Y.T.Y.j.j.6.f.j.j.T.T.^.Q.,X0X^.+X1XxXuX;X1X_.,X^.+X~._.)._.~.~.>X>X~.6.NXtX~.R.U.Y.Y.~.f.f.~ ).f.! ~ f.t.U.! f.Y.)._.>X8X).Y.R.Y.Y.~.+XY.^.R.~.(._.~.f.T.!.!.;X(.0X5X!.eX5XxXeXmX5X5XeXlXeXNXlXlX6XVX5XSXxXNXlX5XVXFXNXeX5XqXeXwX5X5XlXVXVX5XxXxXlXlX6XbXMXLXDXbXVXVXCXbXlXDXHXMXDXCXHXDXGXLXPXIXLXGXMXBXVXVXeXuXeXtX1XtX;XQ.^.Y.Y.f.~ f.h.f.f.T T T T U U E s.f.E.!.+X+X0X0XtX5X:X5X0XtX1X4X+X0XqX+X#X^.>X,X,XcX>X+XlXNX0XU.R.R.^.^.).^.,XMX0XtXcXVX5XcXGX5XeXeX5X|.!.-.K H 5.b.E.g.E.b.d.d.b.|.(.(.|.|.|.(.^.|.(.^.T.d.6.6.d.d.b.j.j.g.b.j.|.+X^.+X|.+X:X1Xb.:.Z R -.K K K K Y :.Y ",
"U U J b H v v K :.j.T.j.g.j.j.^.R.T._.~.R.g.U.f.g.6.6.s.T.f.g.f.Y.T.(.;X,XtX;X,X;X,X1XrX9X_.;XR.)._.Y.^.>X9X#XR.~.R.Y.g.f.~ f.f.! E Y.~.Y.~ ! ! Y.%X>X>X>X~.f.f.f.Y.Y.Y.! ~ g.s.U 6.g.6.j.(.;X~.5X|.tX1X5XqX+XtXlXDX5XVXeXlXlXeXMXGXLXCXBXMXeX5XtXlXeXVXtXMX5XmXSXmXVXlXeXMXVXmXSXlXlX5XlXMXVXDXVXlXeXDXDXlX:X|.&XeXlXbX7XbXGXLXLXKXHXBXCXDXDXBXMXDXVXMXMXmXrX|./.Q.j.Y.Q.Y.Y.Y.W.Y.f.~ T T I F U W f.f.~.;X0X1X+X5X1X|.!.+X|.1X5X+X+X+X+X(.}.+X(.;X0X,X1X+X+X4XeXuXxX1XY.~.^.R.Y.Y.(.+X1X0X0XeXcXSXlXlXxX5X|.^.+X,X(.+XE.K R ^.g.J j.:.b.T.^.|.|.1X:X5Xb.g.g.j.6.6.d.b.j.g.g.d.g.g.b.^.|.|.|.:X:X(.+X|.|.!.c.-.K z z Z c z v ",
"U b v b T W 6.g.j.T.T.T.^.(.(.(.Q.g.~.~.Y.U.Y.f.j.f.W f.s.~ f.Y.R.^._.^.(.;X;X+X,XwX9X>X0X>X_.).R.Y.).>X%X_.)._.~.Y.R.Y.t.f.~ ! E E ! T t._.8X8X>X~.Y.Y.Y._.f.~ f.f.8.f.8.Y.^.T.b./.;X|.b.(.Q.(.+X:X|.1X5XMXlXNXlXcXVXlXcXcXlXVXcXKXDXeX:X:X4XcXNXMXlXNXSXGXFXlXxXlXVXmXSXcXlX6X2XeXGXBXDXlXeXlXlXlX0X!.5.K J c z Z :.!.eXxXmXxXNXDXDXGXDXVXVXVXlXbXlXeX:X;X1X1X1Xj.Q.Y.~.Y.U.W.Y.f.t.f.~ E U T E ! t.s.j.b.^.:X1X:X|.5X5X1X0X+X1X:XE.T.+X0X).j.g.T.!.|.|.1X@X5X0X:X+X|.#X^.R.^.g._.>X>X+X(.>XqX0XcXcX5X;X(.^.>XqX,X(.>XmXeX|.b b !.E.:.^.E.+X5X5X5X:X^.E.T.g.g.6.d.g.g.6.g.b.g.g.g.j.!.^.^.E.}.+X|.|.^.|.!.!.E.:.E v , ; 5 x ",
"b b U f.R.j.f.f.T.Q.^.Q.Q.^.^.~.j.T.T.Y.Y.Y.Y.f.s.6.W s.g.f.s.s.j.Q.Q.Q.1X1X,X;X;X_._.9X_.~.Y.Y.~.R.~.>X~.Y.Y.~.R.f.f.~ ! t.f.T F E ~.9X8X~.R.Y.Y.~.U.f.f.).Y.f.~ ~ ! ~ 6.f.f.g.g.d.T.(.5X!.+X0XeX|.lXeXlXlXcXqX5XqXlXlXcXeX4XkXcXlXVXkXlXcXjXBXVXMXlXcXDXVXGXFXFXFXlXlX5XeX5XlXGXlX:XlXeXmXlX:XE.-.J a p q $ . $ ; ; , v :.T.,X5XlXVXBXCXGXHXGXGXbXlXlXwX:X|.(.(./.Y.Y.Y.f.~ f.t.~ ~ ! E T F T ! E T ~ j.Q.^.^.|.tXtXeX+X|.+X1X|.^.T.T.#X+X!.b.Q.^.+X+X>X@X+X^.|.eX:X!.^.^.+X~.>X>XrX_.^.^.^.#X,X#X8X+X+X,X1X,X>X~.T.#X1X+X#XqX^.J R R g.T.T.^.!.(.|.!.!.b.g.6.:.:.6.:.d.b.g.g.b.Q.^.!.^.!.^.|.^.+X+X^.Q.j.j.j.6.6.6.6.T l < ",
"s.f.j.Y.j.T.j.s.j.T.Q.Q.^.(.^.^.R.j.g.f.f.8.U.s.T E E s.f.f.6.W 6.s.j.Q.(.,X+X0X;X(.~.^.~.^.>X>X).U.~.~.f.! ! Y.Y.f.f.! T I T ~.9X8X).Y.Y.f.f.f.R.~.6.~ W 8.Y.R.Y.Y.U.f.f.8.6.K g.+XQ.E.Q.0XuXNX5XcXlXmXDXVXeX4X5XlXNXeXjXeXlXVXeXeX XlXbXjXlXjXGXMX3XMXVXxXDXSXVXNXlXVXDXDXGXeX5XbX6XeX!.d.Y Z a , * $ @ @ $ $ . . . $ $ $ 1 p Y z.:XeXlXbXVXCXMXCXMXeX1X1XeX;XQ.Q.Y.~.U.f.f.Y.f.~ ~ E U T T E T U ~ Q.(.^.g.!.|.+XeXtX5X+X|.:X|.1X(.(.(.}.T.T.T.+XwXwX0X0XqX1X@X:X!.c.^.^.T.j.f.g.R.1X_.~.(.+X+X,X>X0XrX#X^.Y.R.^.~.+XrX,X0X#X,X^.H b W 6.7.b.Q.!.!.E.T.g.g.6.6.R W 6.g.g.6.s.g.T.!.Q.!.!.}.|.^.+X+X(.(.Y.j.g.6.W ! f.f.f.~ ",
"g.g.T.!.^.^.^.T.^.^.(.^.|.(.!.Q.^.R.g.f.s.~ ~ ~ ~ ~ s.f.f.f.6.6.f.j.Y.Y.;X+X;X_.;X_.(.^.~.Q.~.Y.f.f.Y.Y.t.~ ~ t.f.! E E f.#X9X>XQ.Q.Y.R.~ 6.~ ~ f.f.6.f.~ g.f.t.~ ~ W W W W T g.j.Q.+X:X5X5XeXNXNXeXmXmXeXqXMXlX5XeX:XuXlXlX0XtXMXmXBXMXVXmXMXlXNXeXVXGXGXFXwXeXVXGXlXeXkXkXkXjX@Xn.>.K a e , ; o o . @ @ . . . . . . . . . . o $ , 1 b W b.2XlXMXnXbXbXnXcX|.b.(.^.^.Y.Y.f.f.f.t.f.U.T F T T ! ~ ~ ~ Y.(.|.|.eX5X|.!.|.1X0XeX;X(.^.T.6.T.~.).T.Q.wXqX0X:X>X@X+X|.:X:X|.!.!.!.+X(.+X(._.~.~.>X,XqX,X|.5X#X>XT.Y.Q.~.j.j.(.>XQ.~._.(.~.T 6 F 6.j.T.|.!.!.b.7.s.s.s.:.W 6.g.6.6.d.g.E.!.^.^.+X+X+X(.^.E.b.~.Q.Y.Y.f.W ~ 6.f.6.6.",
"b.b.E.E.!.^.^.(.T.^.^.!.^.|.(.T.j.j.f.6.s.s.~ ~ s.s.f.f.6.6.f.f.g.Y.Y.Y.(.>X+X;X#X#X).~.Q.Y.Y.f.s.s.f.t.t.t.E T ~ f.Q._.;X+X_.^.Y./.j.f.W ~ ~ 6.6.~ f.6.W ~ ~ E ~ f.f.g.T.T.g.s.g.j.^.1X+X1XeXqXlXeXlXeXlXqXlXmXmX:X0XtXtX0XlXmXlXtXDXVXMXBXMXFXSXSXNXFXFXGXFXVXMXbX2XjXjX3XE.;.A z p , $ $ + o o o o . $ $ @ . o o o o o . X o . . o $ $ q z Y n.2XjXnXkX3XjXjXlX5X+X(.(.(.~.Y.Y.f.f.f.~ ! E E ~ 6.s.g.Y.z.b.&X3X5X5X5X1X4X;X+X;X#X;XR.j.R._.T.,X0X0X+X>X:X,X,XqXeX5X|.@X1X5X1X:X+X).~.Q.j./.;XeXGXSXmXtX^.;XE.Q.Q.f.j.h.Y.j.j.Y.~.Y.Y.Y.E c F s.T.d.g.d.*.:.6.g.s.W 6.6.:.g.j.g.T.!.Q.E.E.^.+X+X+XQ.j.Q.T.j.f.~ W -.g.j.5.g.",
"T.E.E.!.!.^.T.T.b.T.T.^.|.!.T.j.Y.j.6.W W ~ ~ E ~ 6.~ ~ 6.f.j.j.j.Q.Y.f.Q.#X#X+X(.^.~.Y.Y.Y.f.~ s.s.t.~ E E ~ W._.;X(.T.s.^.>Xf.f.j.j.s.6.~ W W U T ~ ~ W 6.~ ! s.s.~ g.j.T.T.j.Y.T.Q.Q.!.|.5XeXeXqXtXmXeXeXlXeX5XmXuXmXtXlXeXlXtXxXcXBXGXBXMXVXBXVXVXSXCXBXjXkXjX6X2Xn.>.Z p q : ; $ o o = $ $ $ $ * , p , , ; ; ; $ o o o o o . o o o o o $ : 1 z Y b.:XlX5XeXeX5XeX0X1X,X+X^.(.R.f.f.~ ! T ! f.f.g.g.R.!.:X|.eXlX4X:X5X:X;X|.1X0X>X+X^.>X_.rX;X^.Q.^.E.:X5X0XlX5X@X:X:X@X!.;X(.(.+X^.^.^.Q.^.+XqXGXDXDXJXeX1X^.^.s.E ~ ~ 6.~ ! 8.U.Y.)._.Y.F F J T W U U E W ~ ~ E W R R W 6.6.E.^.(.^.^.(.+X^.(.^.Q.Q.R.f.~ Q ~ 6.d.j.g.6.",
"E.T.E.^.!.^.!.T.^.E.E.E.!.!.^.j.R.T.s.~ T U T T ~ s.W s.s.g.g.j.R.Q.h.f.#X^.+X^.^.Y.j.j.j.j.s.! ! W T ~ g.~._.~.^.^._.^.f.f.+X(.j.T.Q.j.6.f.s.~ T ~ ~ 6.E W g.f.~ ~ ~ f.6.6.T.j.f.Y.(.(.^.!.:X:X5X:X0XNXDXlXeX0XMXtXDXmX+X;XtXlXlXtXcXBXCXGXCXBXBXjXjX[.2X2X2X2X'.>.M r q 1 : ; ; ; ; o o = $ $ * , p z x , ; 1 p p 5 , ; o o ; ; $ o o o o o o $ $ ; , p b :.|.5X:X:X1XeXtXwXwX0X^.j.s.~ ! ! ~ f.g.Q.Y.Q.[.|.5X5XeX5X1X5XeX:X5XeXwX0X+X+X;XY.^.wXmX(.g.b.+X0X,X,X4X[.|.:X+X:X|.;X:X>X#XQ.^.(.+X5XlXMXqX0X|.4X@X5XxX:X6.~ ~ ~ W ~ 8.U.~.~.U.f.R.R.~ 6 4 x D U T T E ~ 6.W ~ 6.6.g.^.^.(.!.^.#X#X^./.Q.Q.Q.Y.6.6.~ ~ 6.j.j.6.W ",
"T.T.b.|.@X(.T.E.T.^.T.E.(.|.T.j.T.Y.~ ~ T F T W ~ f.~ g.g.f.j.j.Y.j.f.j.Q.^.Y.T.j.j.f.f.f.~ T W s.j.~.R.g.g.T.T.^.|.+XT.g.T.^.(.^.Q.(.(.^.Y.Y.j.W 6.g.6.f.g.f.Y.6.F b W W W g.f.f.f.Y.Q.T.^.1X5XeX5XlX5X:XeXlXlX5XtXtXxXeX5XlXlXMXMXHXBXbXBXkXjX X2X6X'.'.l.%.n w w , , : % ; : ; ; ; ; ; ; , u a d p , $ $ $ $ $ ; 1 p l s , ; o $ $ $ o ; . o = o o + = o ; , z R c.b.+X+X;X5XeX:XE.b.f.f.Y.Y.j.~.1X+X(.:X5X5X6X|.[.4XeXlXtX1X5X1X+X(.+X(.^.Q.(.!.|.E.|.|.0XeXlX5XqX5X4X4X:X0X1X1X#X,X>X1X5X:X@X:XeXeX4X:X:X4X4X5X5X4XyX>X^.6.Q 8.~ 8.U.8.Y.~.R.~.U.! D 6 x l F W ~ ~ ~ g.g.s.g.^.^.g.E.^.(.|.^.!.Q.Q.T.Y.Y.f.~ 6.6.g.g.6.6.",
"T.|.E.b.!.^.!.T.!.!.T.T.^.^.T.T.Q.R.g.j.f.~ f.f.f.s.s.j.g.f.g.Y.f.f.s.f.R.^.R.j.R.j.~ W 6.Y.R.T.g.~ E W W W 6.6.6.^.T.j.T.T.g.g.T.T.;X(.^.^.f.Y.s.g.j.j.Y.Y.;X^.6.J F U U U T W T E W 6.g.T.^.|.E.|.:XlXlXMXuXeXeX0XeX5X5XeXlXcXMXMXcXCXBXnXjX2X'.k.-.V z 9 : : : ; ; ; > % % % % $ $ , p s a p q * $ $ $ ; $ $ $ $ $ $ $ , p s p 1 , ; $ $ o o = = o = + + o o $ ; : e Z 6.E.!.|.|.(.b.Y.Y.Y.Y.Y.R.!.:X5X:X&X:X5XjX!.mXlXlX5X|.5X5X@X!.^.|.:X+XQ.(.^.g.g.^.:X0X5XkXjX5X2X|.|.5X5X0X1X,X:X@X}.b.'.:X:XqX:XqXqX4X4X@X|.+X>X1X>XwX8XY.T 8.f.Y.U.U.U.U.Y.Y.W.t.l < l E W T W ~ f.g.j.E.E.g.^.^.^.(.^.^.Q.Q.Q.g.6.6.6.Q g.g.6.7.8.",
"E.!.^.E.!.!.E.!.!.g.j.T.R.R.Y.Y.Y.g.s.j.j.f.j.g.f.s.~ ~ 6.6.s.f.f.j.f.f.f.Y.j.T.T.g.j.Q.^.R.6.W 6.T W T W W W W 6.g.g.6.g.b.b.b.^.T.^.,X;X;X~.g.j.f.s.f.f.g.T.,X#Xs.E F U U ~ s.~ ~ W 6.g.(.,X(.!.:X5XtXlXtXwXwX1X1X5XtXlXMXlX5X3XcXqX6X6X2Xk.Y n w 9 q ; ; $ $ ; ; $ $ ; % % * q e p a u * $ $ $ $ $ $ $ $ $ $ $ $ $ $ $ o o $ ; , 1 l p , ; $ o + - - + + + . . o o $ $ : p b W g.d.d.g.f.f.Y.Q.(.|.|.:X&X7XeX2XeX:X5XlX0X:XeX5XeXtXuXuX:X>X(.Q.Q.1XFXGXJXVXeXcXcXjXjX2X2XqX5XeXtX0X+X:X4X:X|.@XeX5X0X|.@X:X4X4X@X4X4X5X,X|.+X#X0X#X).Q T Q ~ U._.Y.U.U.U.f.E v F T U E ~ 6.6.g.b.T.^.^.^.^.!.E.Q.^.!.Q.Y.f.8.6.6.6.6.6.6.g.",
"E.E.|.^.!.!.!.!.E.E.^.!.^.R.j.g.g.j.g.f.s.f.Y.j.j.f.~ ~ s.6.~ 6.6.f.Y.Y.Y.j.f.T.#X,X>X(.j.g.~ E ~ K T F U ~ T b T g.^.T.d.6.:.d.j.T.!.+X1X9X>X~.R.R.f.s.6.6.j.T.+XW 6.W W T I E ! ~ f.s.f.R.T.E.^.1XwXuX1XwXrXtXxXlXeXeXeXeXlXcX6X@Xn.-.K z p w , * % $ $ $ $ * : * $ * , , 1 1 e 1 , $ $ $ o + ; ; $ & + + $ $ * * $ $ $ $ $ $ $ o o ; , p p p p , $ o o & o + + + o o $ o o o $ , l J W W ~ 6.s.g.j.|.0X2X5XlXMXlXlX5XeX0X7XlXlXqXNXtXtX0X+X!.FXUXUXGXmXlXMXeXcXcXMX6X4X2X@XeXeX5X1X5X4X4X2X@X|.:X2X0X0XeXqX0XqX4X4X@X|.|.+X+XeX@X^.,X@Xg.T T 8.f.f.U.Y.U.~ f.f.! L F W ~ 6.j.j.g.T.^.(.^.^.T.T.Q.^.(.^.T.g.f.6.6.6.6.5.6.7.",
"b.E.^.^.^.!.!.!.E.T.T.j.Y.T.j.g.g.g.s.s.j.j.j.f.f.s.~ 6.f.s.W 6.s.6.~ f.Q.>XrXrX(.~.#X^.j.6.J b H K T F F F v F ~ g.^.#X^.b.j.6.b.^.:X1X,X1XY.Q.R.Y.j.f.Y.Y.T.T.(._.Y.T T I I ~ Y.>X^.Y.R.~.+X;X:X,XwXtXMXtXwXtXlXmXeXlXVXMXlXE.-.A a e , , : $ $ * $ $ $ $ % * % % 9 w r < > ; o o + & ; & > - - - ; & & & > * * , : $ $ $ $ $ $ o ; $ $ @ $ , u p s s 4 4 > + + + + & + o o o o o o o $ p b E s.j.d.g.^.&X7XlXcXMX:XqXlXmXlXlXlXMXVXlXNXeX5XwXtX5XuXDXVXeXqXlXBXKXDXVXcX@X'.:X5X:X1X|.@X6XkXjX4X6X5X5X;XtXtXeX|.}.}.:X X4X@X,XeX|.T.|.,X4X#X6.g.8.8.f.f.8.f.t.Y.U.! T T E ~ 6.j.E.T.^.E.!.(.|.|.(.^.^.^.R.R.Y.g.8.6.6.6.6.6.",
"T.!.T.^.^.^.!.^.!.T.^.g.6.g.f.8.f.f.f.6.6.f.f.6.s.6.~ 6.6.6.~ 6.6.g.(.;X5X1XeX0X+XT.#X^.g.W b J J F F b J F c c E 6.Y.R.^.~.T.g.T.^.^.+X|.^.^.Q.(.Q.j.j.~.R.Y.g.g.g.T.6.~ T ! Y.j.f.j.f.Q._.>X;X+X;X1X5XtXeXjXkXlXcXeX4X|.:.B a e , : , $ $ $ $ $ $ $ $ $ % q q q q q * % $ o $ ; ; ; ; ; - ; ; ; ; & ; > > > ; , , , ; : ; $ $ ; ; ; $ $ $ $ $ $ $ $ 1 p s s 6 , ; & + $ $ $ $ o o o o o = ; ; , p K 6.T.!.|.:X:XqXqXcXcXkXlXlXMXcXGXNXNXtX,X5XeXeXeXVXqXeXMXNXMXqXVXkXlXqXqX5XqX^.;X:X2X7XjXeXlX2X5X5X;XuX5X:X@X@X@X}.|.}.!.|.|.@X|.|.:X@X@Xg.f.U.~ f.f.s.~ f.U.U.f.8.~ Q ! ~ f.f.s.Y.R.R.~.~.~.^.T.T.^.T.T.T.g.6.g.s.6.6.6.",
"j.!.^.+X^.!.(.(.^.Q.Q.T.g.g.8.~ ! ! 6.6.W ~ 6.~ ~ ~ ! ~ 6.6.6.T.|.5X0X|.@X1X1X:X:X^.R.T.f.W T U U F F c U U J W ~ g.~.g.R.~.~.~ W j.(.(.(.Q.g.Q.T.Q.~.#XR.g.f.6.Y.f.Y.Y.8.6.U.Y.j.~.~.Q.~.(.>X;X1XwX5X4X2X3XjXjXOXz.-.z w q : % * % $ $ $ $ $ $ $ * * $ % : : : * $ $ $ $ $ $ ; ; ; ; ; > > $ & ; ; , , , , , , , , , , , , , $ $ * * * * * * * * $ $ $ $ $ , p p l p , ; $ $ $ $ $ $ $ o o o o $ $ $ , p Z :.c.!.@X:X6X6XcXcXqXxXxXVXSXMXxXxX5XeXeXeXeX:X,XeXtX5XqXqXxXlX4X}.|.|.1X:X,X,X&X5X2X5XqX5X:X:X5X4X|.:X:X5X|.^.|.+X!.}.!.!.!.E.E.E.8.6.8.! Y.R.T.6.g.j.g.f.8.U.8.~ ~ f.8.! ! f.f.Y.Y.f.j.j.j.~.~.~.T.j.j.Y.s.~ 6.6.",
"g.T.^.+X^.Q.^.Q.T.T.Q.T.g.g.f.~ E T ! W W W W ~ ~ W W 6.Y.^.+X+X@X:X@X@X^.:X+X:X|.+XQ.~.g.6.6.W T J F b F J T W ~ s.T.T.f.R.(.f.T.Q.(.,X1X;X(.Q.!.Q.j._.^.f.f.6.g.g.Y.R.g.g.Y.g.T.(.,X,X;X;X;X;X5X:X&XeXeX[.9.A n r e e : $ $ $ % % $ @ @ $ $ $ * , , , * * % $ $ $ $ & > ; ; ; ; > > < ; ; , , , , , 1 5 p p p u , , , 1 1 1 , , * * , * * * * , , ; $ $ $ $ $ $ , 5 l x s , ; ; $ $ $ ; $ $ $ o o o $ $ $ : , M :.c.|.@X2X5X1XlXlXtXxXcXNXNXVXeX0XeX5X^.@X4X0X5X4XeXMXqX5XlX@X5X0X0X:X5XlXeX7X3X!.@X:X1X:X+X|.5X5X@X!.+X|.!.^.b.d.g.!.g.T.b.6.R E W R.#X1X|.qXtX(.6.Y.f.8.~ ! ! E ! ~ ~ f.f.f.f.f.g.g.T.T.T.j.g.j.j.W E 6.6.",
"6.j.T.(.^.(.(.^.Y.j.Q.s.6.~ E T I T ! E W T T W W s.T.+X(.#X#X(.^.,X@X^.b.T.g.Q.Q.!.T.T.s.6.6.6.W T ~ U F J W 6.W f.^.s.6.f.g.s.g.T.(.!.+X5XwX+XQ.Q.T.Q.~.T.f.f.g.f.~ f.j.Y.Y.g.!.!.|.|.|.|.:X5X5X2X[.*.z r q 9 9 % % % % : * % $ $ @ $ $ $ ; * > , , ; $ * , ; ; ; ; ; > ; > > > , , , , $ * , 1 p p z c Z H H B d p u , , , , , , , , , * * * , ; ; ; ; ; ; ; ; $ $ $ , 5 x v x p , $ $ $ $ $ $ o o o . o $ $ $ $ , c R b.^.!.|.1XeX5X0XwXeX4X5X5X1X5X+X5X4X:XeXeXlXlXqXqXqXqXlX0X1X(.5XeXVXlXeXqX4X5X:X5X|.:X5XeX}.!.!.!.b.d.d.6.:.g.j.d.6.~ ! ~ 8.T.^.}.E.b.b.E.Q.Y.Y.j.f.6.~ T ! ~ ~ s.~ ~ 6.6.s.g.Y.6.f.g.g.Y.j.~ W 6.6.",
"-.j.!.(.^.^.^.^.j.g.g.~ W T E T T E ! t.! T ~ Y.~.^.^.^.(.^.(.+X+X:X|.|.|.+X|.E.!.(.Q.Y.f.6.6.W E T W 6.6.6.6.~ W T 6.g.Y.R.j.Y.6.s./.Q.!.b.|.;X^.R.~.R.R.~.~.Y.Y.Y.g.g.f.f.Y.E.b.}.c.|.5X:X:Xb.*.n r 9 : : $ $ $ $ $ % % $ $ $ * q p , * $ * ; > * * * ; > > > > > > > > > > > , ; $ : , q p p z z c c z z p p a z c z a p q , * * * , , , , , , ; ; ; ; ; > > ; ; ; ; $ ; ; ; 1 l v z p q , $ $ $ $ $ + $ o . o $ $ $ $ , a Y d.!.!.^.+X:X5XeXlXeXqX5X:X:X5X0X4X4XeXeXqXqX4X@X4XeX0XwXeXmX2X[.4XqX0X5X5X:X:X5XeX:X}.E.!.T.d.E.b.6.6.6.:.6.~ ! ! Q 8.Y.E.E.c.!.!.g.g.g.g.g.g.Y.Y.~ ~ W ~ ~ g.f.~ ~ ~ 6.6.~ 6.f.f.f.f.6.s.6.6.",
"g.g.!.!.Y././.~.f.~ ~ T ~ ! ! ~ t.~ E ~ h.j.T.~.Q.T.T.(.+X@X@X#X:X+X,X:X!.b.g.!.(.#X(.g.6.W W 6.s.6.W W 6.~ 6.6.E T s.g.T.^.^.^.f.Q.^.Q.Q.(.+X(.Q.Y.R.g.~.R.s.f.f.Y.^.~.R.j.Y.b.E.}.|.[.!.-.z e 9 9 : % % $ $ $ * $ $ $ : , 1 p p p 1 $ $ $ & ; > > > > > > > ; > > , > , ; ; ; , 1 q a a a z z z a p e : % % $ * , q p p p p p , , , * * * * , , ; ; > > > ; ; ; > > ; , ; ; ; $ $ ; 1 a z z p 1 , $ $ ; $ $ $ $ $ o o o $ o $ $ e Z W g.Q.^.^.|.@X@X,X:X1XeX5X4X0X0X4X4X4X5X:XeX5X0X1X1X2X|.3X5X,X@X|.eX0X|.^.|.}.}.b.j.g.6.6.W W 6.6.6.W T T T R 8.g.c.c.b.b.E.b.g.d.g.g.g.T.Q.Y.~.T.6.W ~ 6.W W ~ ~ W E W ~ s.f.f.s.6.6.6.",
"g.T.(.^.T.f.Y.f.f.! T L T 8.t.~ T T 6.R.+XQ.j.^.Q.Q.Q.|.!.^.}.@X}.,X,X4X:X+Xb.Q.|.^.+XY.g.g.R.f.f.g.6.s.~ 6.f.f.f.6.s.W 8.g.j.^.j.j.^.T.j.:X(.+XT.j.~.Y.R.Y.g.Y.~.Q.g.s.j.j.g.^.!.b.-.z e : : : $ % % % % % $ $ $ $ , e p p q 1 * $ $ & $ * > > > > , > > > > , , , * * , , , e p a z z z z p p , : $ $ $ * : , $ $ $ $ * , , 1 4 u 4 , , , * * * * ; ; ; ; ; ; ; > , , , , ; ; ; ; ; , * , q a b Z b p $ $ $ $ $ $ $ $ $ o o $ $ o $ ; p H 6.b.!.E.b.^.1X1X4X0X:X4X@X5X4X0X5X5X4X@X1X0X5X1X5X:X,X+X0XeXeX:X^.|.|.|.c.5.W 6.j.s.6.6.6.6.W E U T T L R 7.c.c.c.c.c.c.c.d.s.s.s.g.Y.g.R.~._.R.g.6.T W ~ W W W ! ~ s.s.~ ~ ~ ~ ~ ",
"7.b.!.^.Q.s.W W ! ~ f.! ! ! T W ! s.R.Q.^.!.E.E.^.^.b.E.!.}.@X}.E.@X4XeX|.^.^.(.;X^.;XQ.Y.Y.f.6.s.g.Y.W W 6.6.f.g.Y.g.~ f.T.R.1X_.T.^.^.(.(.Q.T.Q.6.s.g.R.+XT.g.g.g.:.g.T.j.6.K z , : : $ $ $ $ $ ; ; $ $ $ * , w a p , , $ $ $ $ * > > > > > > > > > > , ; , , , , , , w a z z z z z p e q ; $ $ $ $ $ , , , ; ; ; ; ; ; $ $ ; , , , 4 4 4 4 4 , , , ; ; ; , , , , , ; ; ; ; ; ; , ; ; , , , , * * , a B B a q * $ $ $ $ $ o o o o o $ $ $ ; p z :.E.g.b.!.:X1X+X,X0X,X,X@X4XlXqX@X(.|.1XwX5X5X|.4X4X5X|.|.4X|.^.d.:.K W g.g.6.6.Q W Q W U J T T L R g.c.7.c.b.b.c.d.:.:.g.j.j.j.g.g.j.j.T.Q.^.g.W W ~ ~ E E ~ ~ W W W W W W ",
"5.g.b.Q.Y.! ! t.! ! ~ I T ! f.g.g.j.j.j.b.b.b.!.^.E.d.!.}.}.|.E.E.}.qX4XE.^.|.^.g.g.^.^.Q.f.6.~ 6.6.f.E T W 6.6.s.g.6.~ ~ f.f._.>X(.Q.(.T.T.j.j.^.Y.g.6.R.^.b.T.T.g.5.:.J a p , : ; : : ; $ $ $ $ ; ; , , p a a 9 % $ $ $ $ ; * * * * > < < > > > > > > ; ; , 1 e p a a n n f a a w q : $ $ $ & * * $ ; , , , ; ; ; ; ; ; ; ; ; ; * , , , 4 4 p p p p p p 1 , , , , , ; , , , ; ; ; ; ; , , , , * * * * * q a B B a p , $ $ $ o o $ $ $ $ $ $ $ $ % e B *.b.E.E.!.|.4X4XqXqX0X4X5X4X>X,X1X:X5X|.@X@X+X1X:X!.}.^.E.-.K c R 6.f.6.~ Q ~ ~ W U J T T L L 8.g.c.E.E.E.T.b.7.8.T.Y.s.6.s.j.T.E.T.g.g.Q.~.j.W E E U T W W W W T T T ",
"6.g.j.T.6.T W T T T ! f.6.Y.T.T.T.E.T.T.E.7.b.^.^.E.g.!.|.|.|.@X+X|.}.E.+X+X|.^.^.^.^.Q.^.g.s.6.6.Y.g.6.6.6.g.Y.T.g.6.W 6.g.g.j.^.:X+Xb.j.d.h.^.^.Q.j.g.j.R.b.b.6.H a 1 , , : * * : : % : * : : : , 1 p l q : % % $ $ ; , ; * * * , , ; ; < , ; ; , , , q e a a z n B n n a p 1 : $ $ $ $ $ $ & * * * * > , , ; ; ; ; > ; ; ; ; * ; ; * & & ; , 4 p p z b b z z p 1 , > ; ; , ; ; ; ; ; ; ; ; , , , , , , * % * , p a a p p 1 ; * $ $ $ $ $ $ $ $ $ $ $ : e K :.g.E.}.@X:X:X5X4X3X4X:X:X5X5X:X5X:X|.!.+X:X^.^.b.-.K K 5.6.8.f.6.W Q 6.6.W U K T T L R g.8.g.E.E.E.!.E.7.7.b.j.d.6.g.T.R.T.j.6.b.^.Q.Q.j.s.W T W W E W W J J T ",
"~ T.g.T.R U E E W 6.g.!.!.!.b.b.E.E.E.:Xb.b.E.E.^.Q.!.|.!.!.!.|.+X+X+XeX1X1X:X+X|.^.R.Q.R.g.s.6.W 6.6.8.g.Y.T.Y.~.~.f.Q g.6.Y 6.!.E.^.|.+X(.Q.Q.b.T.d.!.b.W c p 1 $ $ ; : : : * % % : : % q e r a e e : $ $ $ $ ; ; ; > , , , , , * , ; ; $ $ * % q u a f n B n n z a w q ; ; + + & $ & & * * * * * * * , , , * * ; ; ; ; ; ; > ; ; ; ; - + & ; , , , , e p z b Z Z c l , ; ; ; $ $ $ $ ; ; ; > > ; ; ; ; ; ; $ $ $ * * , q a d p 1 * $ * * $ $ $ $ $ $ $ $ $ ; , p Y d.b.'.[. X2X6X6X6X6X2X&X:X,X;Xm.;X;X;X(.W H 6.g.b.8.6.6.5.R R Q 6.R T T L L T 5.6.6.b.b.b.E.!.!.!.b.c.b.z.g.E.T.R.Y.j.b.b.b.g.d.b.^.T.g.g.W T E W T E ! ",
"W j.g.T.:.U s.s.s.j.g.g.T.E.T.b.c.d.@XR c Z d.E.^.!.!.^.|.^.!.E.Q.|.5X1X1X(.^.^.b.T.~.+X+X^.Y.Y.g.6.g.f.f.g.T.g.Y.f.6.~ 6.:.g.E.+X|.T.T.g.g.E.!.b.g.Y c e : : : : : , : : : , : : : : q w w w q : $ $ $ ; $ ; , > ; > > > > ; , , , $ $ $ , q w a a B B a a a a p q : $ $ + & & $ $ & & & * * * * * * * , , , * * ; > ; & * > > > > > ; - - ; ; * , , : : : , 1 p z v c v l 1 , , $ $ $ & & & & & & & & & ; ; ; $ $ $ $ $ $ $ * q a z a 1 * * : ; $ $ $ $ $ $ $ $ $ * , p B :.n.'. X:X&X2XjXbX7X2X2X2X:X;X!.Q.g.6.g.g.g.g.6.6.6.R R R 5.Q W T L L L Q 6.g.g.b.E.!.!.b.n.!.!.E.b.c.E.T.Q.R.T.!.!.b.!.g.!.E.g.T.!.T.6.U J T W W ",
"~ 6.6.6.j.j.T.(.j.T.E.Q.E.E.!.d.d.g.+X^.p K :.E.^.^.^.!.!.^.!.!.E.E.+X^.E.!.!.E.b.T.~.#X>X^.(.^.T.T.^.Q.+X(.T.T.T.T.g.6.6.6.6.7.g.|.^.d.E.b.g.*.z 1 : : : $ $ % : : : : : : : , e p p p , % $ $ ; ; ; ; ; ; ; > > ; ; ; ; > ; ; $ ; , q p a z z z z z z a p q , : $ $ $ $ & & & & & & & * & * * * * * * * , , * * ; > > & * > > > > > > ; ; ; > * * ; $ $ ; $ , , 1 1 5 s x v x s 1 , ; * ; ; , ; ; ; ; ; + o $ $ $ $ ; $ $ $ $ $ $ * 1 z z a p , : $ $ $ , * $ $ $ $ $ $ : , p J d.b.[.&X X X2X2X6X2X:X|.!.!.!.!.T.j.j.g.5.5.8.6.W W W R E W Q R L P W j.E.E.b.b.E.b.E.!.|.|.}.E.!.(.T.j.j.b.E.'.|.!.!.c.T.E.^.^.T.Y.g.U J E ",
"~ 6.W T.^.Q.Q.^.b.T.Q.!.^.|.|.|.E.E.!.mXg.R E.!.^.E.g.d.g.b.!.^.!.^.+X^.|.E.E.!.d.b.T.+X^.g.j.Q.^.(.Y.T.T.g.6.g.g.j.g.g.g.6.-.6.g.g.b.g.Y z , : $ $ : $ $ , % : : : : : q w a p p , $ $ $ $ $ : ; ; ; ; < , , , , , : : : , , e p z z n n z a a a a a w 1 , * * * $ & & + & + $ & ; & & & $ * * * * * * * , , * * ; > > ; ; ; ; > > > > ; ; ; > , , , , , , $ $ ; ; ; ; > < 5 s l x z x 5 , , ; * ; ; ; ; $ ; ; ; ; $ $ $ $ $ $ $ $ $ $ $ $ 1 p a a p , * , * * , ; $ $ $ $ $ $ $ : e M >.z.'. X&X[.2X6X3X2X:X[.|.(.Q.g.8.5.W 6.8.6.6.5.R T T T L P R 6.T.b.7.d.E.E.c.c.b.!.@X:X X|.|.T.T.b.!.[.|.2X|.}.}.E.^.|.|.!.!.^.j.E J ",
"W W F Q.^.T.|.!.b.b.E.E.!.!.^.T.g.g.,X^.lXeX+X!.b.b.b.d.d.g.g.T.b.|.!.Q.^.^.b.^.b.g.Y.^.~.^.^.+X;X^.Y.!.E.T.E.j.j.d.s.T.d.6.6.d.d.R z , $ * * * * * * : , , : : : q p p p q : $ $ $ $ $ ; $ $ $ ; > > > > 4 , , , , 9 9 w a n n n n n a a a a a w q : : > > & & > > > ; ; & + + $ & * $ * * * * * * * * , , * * ; , , > > > > > > > > > ; > , , 4 , , > ; , ; ; ; ; ; ; ; ; ; > , 1 5 s z b c p 5 , $ $ $ ; ; $ $ $ ; ; ; ; ; $ $ $ $ $ $ $ $ $ $ , p z z p , * $ $ $ $ $ * $ $ $ $ $ $ : e z -.n.'. X X X X:X:X!.Q.g.j.8.6.-.5.6.6.6.W R U K T R Q 5.6.j.d.d.b.E.E.n.E.E.!.|.@X'.'.|.^.T.E. X[.[. X|.}.[.|.5X+X+Xb.c.|.!.b.6.",
"J F x R.^.T.E.^.!.b.E.b.!.T.E.!.E.b.b.!.}.^.E.!.!.E.j.6.g.g.E.j.d.b.!.1X;X|.g.b.E.^.~.R.^.~.Q.^.^.~.^.!.|.^.E.T.j.d.6.6.6.6.Y z 1 $ $ $ $ % * % , , , , , , e p p p e , $ $ $ $ $ $ $ $ ; ; ; ; ; > , , , , , , e a f g g B f f B B n a p e , * * * : , > ; & & ; ; ; ; ; & $ $ $ & * $ * * * * * * * * , , * * ; , > > > > > ; ; * > > ; > , , 4 , , > > > > ; ; ; ; > ; ; ; ; ; ; ; , , 1 p z c b z s 1 ; $ ; $ $ ; ; ; ; ; $ $ $ $ $ $ $ $ $ $ $ $ $ 1 p z z p p $ $ $ $ $ $ $ $ $ $ $ $ $ % q B :.b.'.'.!.!.b.b.g.d.g.6.6.6.6.:.6.W T E W 6.6.6.6.W 5.d.b.b.E.E.b.}.!.}.}.[.!.}.|.E.b.}.'. X:X:X!.[. X X}.4X@X!.m.'.[.E.^.",
"F c 5 R._.^.}.!.!.E.T.b.g.j.E.b.g.}.^.|.E.!.E.E.E.g.:.6.g.E.E.g.g.E.^.:X:X^.!.!.E.T.Y.j.;X_.^.^.^.~.T.^.!.b.g.g.g.d.5.K p 1 * $ $ $ $ $ $ * * * * , q p a a p 1 , $ o $ $ $ ; ; ; ; ; $ ; ; ; ; ; ; ; , , w a z n n f B B B n a a q , , ; ; , , , , , , , , $ $ ; ; ; ; ; & $ $ $ * * * * * * , , , , , , * * * ; , > > > > ; ; , , > > > > , , u , > > > > > ; ; ; ; = = = ; ; ; ; ; ; : : ; , 1 p l v c b p 1 , , ; $ ; ; ; ; $ $ $ $ ; ; $ $ $ , , $ $ $ * 1 p a z a q , $ $ $ $ $ $ $ $ o $ $ $ : e n R d.c.c.b.d.7.6.5.6.6.6.:.6.W 6.:.W 6.6.8.g.6.d.E.!.c.c.b.b.b.b.b.E.@X[.@X|.g.Y b.'.6X&X3X X X'.'.}.|.|.[.{. X X|.E.",
"F x , R._.}.E.}.+XE.E.!.j.j.^.E.g.b.E.g.!.!.E.E.g.g.g.R :.d.E.b.g.E.+X1X|.!.b.j.b.E.~.R.#X>X_._.#X^.T.T.b.b.b.d.Y z q % $ $ $ $ $ $ $ $ $ * , q u u p u q * $ + + $ ; & ; ; ; ; ; ; ; ; ; ; > < , , 1 w a z M M M M B z p p , , , ; ; > ; > < , , , , , , , $ $ $ ; ; ; $ & $ $ $ * * * * * * , , , , * * * * * ; > > > > > ; ; , , > > > > , , u , > > ; > > > ; > ; = = = ; ; ; $ ; ; : : : : : : : , 1 p d b z z s , ; ; ; ; ; ; ; ; ; ; ; $ $ ; , $ ; ; ; $ % % q w a z p 4 , , $ $ $ $ o o o . o $ $ : q z K 7.7.7.-.W :.6.d.6.d.6.g.d.s.6.f.f.g.8.g.|.[.!.E.!.!.E.c.E.E.[. X2X|.R Z b.2X2X2X&X'.!.!.!.[.:X4X[. X X2X|.E.",
"x 6 > Y.R.E.}.E.b.b.b.b.E.^.^.b.g.d.!.6.d.!.|.g.g.g.g.g.6.g.b.j.b.!.!.b.^.!.b.T.Q.T.b.|.:X+X+X(.T.b.b.c.d.:.c , : $ $ $ $ $ $ $ $ % * * , u u p u , * $ $ $ + + & ; ; ; & & & ; ; ; ; > ; ; , 1 e a n M M n M M n p < , ; ; , > < > > > > > 3 4 , , , , , , $ $ $ ; $ $ $ & $ $ & * * * * * , , , , , * * * , ; > > > > ; > > > ; ; ; ; ; ; , , 4 , > > > > ; > > > > ; = + + ; ; ; ; ; : * * : : $ : : : % % , p z b b l p , : ; ; ; , , , , ; $ * ; $ ; ; , ; % 7 7 % * * q d z s 4 , $ $ o o o + o o $ $ $ $ $ q a K W W W 6.6.d.b.d.g.d.d.6.d.d.g.b.!.!.n.E.!.E.E.|.}.^.|.[.$X@X'.B -.2X2X6X2X X XE.!. X X@X2XOXOXOX X X|.",
"S > + g.^.!.}.b.b.^.!.E.^.^.^.!.E.T.T.g.T.g.T.g.7.g.!.^.b.b.E.g.s.g.d.!.(./.^.~.~.!.'.|.@XE.!.E.n.c.>.Z e : $ $ $ $ $ $ $ $ $ * * , e a p 4 3 ; o o o + + - + = = ; ; ; ; ; + ; ; ; ; ; : q a M m m m M n a p 1 , ; ; > , , , , , ; ; > > ; > , , , , , < > & $ & & & & & & & ; ; * * * * * * * * * * , > ; ; ; ; > > > > , , , > ; ; ; > , , , , , , > > > ; > , * * & & & $ $ & + & > * : , , , , , , , , , , , , 1 p b b b a q : * * : , : , * * > 4 ; > > > * * q * * * % * q u p c z q * $ $ $ $ o o . . o o o o o , p H W 5.6.c.c.b.n.n.z.d.d.d.d.d.b.n.'.'.|.:X|.:X|.!.@X$X$XjX2X6X3X6XfX&X[.[.|.$X'.[. X[.2X{.3X@X|.(.",
"6 + o f.^.^.b.b.E.!.!.E.b.b.^.+X^.T.^.g.g.|.(.E.d.d.b.g.:.d.b.b.g.g.g.^.!.Q.Q.^.|.^.!.!.!.|.E.6.K a : % $ $ $ $ $ $ $ $ $ : , e p p q * $ o . . + + + - - - + ; = + ; ; ; ; ; $ $ : q q a B M B M n r e q : $ $ * ; ; ; , , , , , ; ; > > ; > , , , , , < > & $ & & & & & & & & & * * * * * * * , , , , > ; ; ; ; > > > * , , * > > ; > > , , , , , , > > ; & ; * * * & $ $ $ & & $ & < , , , , , , , , , , , * $ * , * , 1 p z Z Z B p , : : , , , ; $ ; ; ; , * * , , , , * * * * * * q a z a p , $ o o o o o o o o o $ $ $ 1 z Z :.6.d.b.!.n.n.!.[.n.b.n.'.}.n.n.@X@X|.^.!.2X6X X3X6X2X6X=X X X X}.'.@X2X2X2X2X X[.2X6X3X+X",
"+   o f.^.}.b.7.d.T.^.^.!.b.g.T.g.g.E.T.j.T.^.^.E.!.^.d.6.6.g.d.d.z.!.:X|.|.!.Q.E.E.^.^.5.c p : * : $ % % % * * $ $ * 1 q p p 1 $ . . o $ o + + - + + - ; ; + ; $ $ $ $ , , , q e a a a f f B f w , : $ $ ; , , , ; ; ; , 1 , , , ; ; > > ; > , 4 4 , , < > & + & & & & & $ $ & & & * * * * * * , , , , > ; ; ; ; > > > * , * * > > ; > > , , , , , , > ; ; ; > , * * & & & ; & & $ & < , , , , , , , , , , , , , : $ $ $ * * * , p z K K Z p 1 , : : : : : : , * * , , , , , , 1 , , , * $ * , p a a 1 , $ $ $ o $ $ $ o $ $ $ $ $ e c R b.!.n.b.n.E.b.E.'.'. X2X[.'.2X X|.!.!.$X`.2X X2X6X2X6X&X&X2X@X@X6X4X3X6X6X6X6X4X:XQ.",
"    + f.T.^.^.b.T.!.E.Q.^.!.T.g.g.b.T.!.T.^.^.^.b.E.!.6.d.6.d.d.d.z.b.!.b.E.b.b.d.:.H 1 ; , $ $ , ; $ * % q * * , q 4 u q , $ $ o o $ $ o + + = + + + - & + o $ $ $ , , q u p a i a a a a e , % $ ; ; ; ; & * > , > ; ; , 1 , , , ; ; ; ; * , , 4 4 4 , < > & + & & & & & $ + $ & * * * * * * * * , , > , > ; ; ; > > > * ; , * > > ; > > > , , , , , > & & ; > , * * ; & & ; ; ; & ; 4 , , , * , , , , , , , , , , , : * $ , : * : , , p b K K Z z e , , : : : * , , , ; , , , , , , $ * , * * * * , p p p p , * $ $ , $ $ o o $ $ $ @ * e B -.c.'.n.`.|.}.:X X'.!.'.!.!.!.b.[.:X|.2XjX2XjX6X=X{.&X2X@X[.|.@X6X2XjX6XfX2X:X(.",
"    o f.T.b.}.c.g.b.E.b.Q.T.T.b.T.T.T.E.E.^.^.d.E.!.E.d.g.E.g.g.d.d.b.|.n.d.-.M p 1 * $ $ $ $ $ , , , , , q u u p 1 * $ @ $ $ $ o o ; ; + = = = = = ; $ $ $ $ $ , 1 p p a a a p p p 1 , $ $ $ $ $ ; ; ; & ; > > 4 > ; ; > 1 , , , ; ; > * * , , 4 4 4 , < > & + $ + $ & & $ + & & & * * $ * , , * * * ; > > * ; > > > > ; ; , , * > ; ; > > > , , , > > ; ; & * ; * * & & ; ; & & $ + > , , , , , , , * , , , , , , : $ , , , : : : : : ; : , e a B K R Z a , : , , ; * $ ; , , , , , , : * * * * * * * * , q p a d p q ; $ $ $ $ $ $ @ $ @ @ * e a K 7.E.c.b.4X3X6XlX2X X'.'.[.!.[.2X2X2X6X2X X2X[.2X@X@X4XqXqX2X=XjXjX6XeX1X",
"    + g.T.b.!.}.E.E.d.E.g.j.j.b.b.g.g.d.j.g.g.g.b.!.d.E.g.d.6.d.6.d.6.Y c e , * $ $ $ $ * , , , , 1 1 p p p 1 * $ $ . o $ $ $ $ o o ; ; = o + + + $ $ $ , 1 p p p p p p p p p < > ; = o o o = = $ & & & & > > > > ; ; ; , 1 , , , , , , * * , , , 4 , , < > & & + + + & $ $ + & & $ * $ $ * , , * * * > > > * ; > > > > > > , , * ; > > > ; > , , , > > > ; & ; , , , & & ; ; & ; $ $ > , , , , , , , * , , , , , , , $ : , , : : : : ; ; ; ; $ % : e p M K K c p 1 , ; , : , , , , , * * * * * * * * * $ $ * * , q p a p 1 , , : * * % $ $ $ @ $ $ * q B R c.!.!.|.|.'.[.|.'.b.b.n.[.'.[.2XOX X2X X[.2X@X2XqX2X[.=X2XjX6XqX:X",
"    o g.^.E.b.!.b.E.Y !.j.g.g.g.g.j.g.b.j.T.T.T.!.E.d.E.b.d.6.6.R Z p , : : $ $ $ $ $ * , 1 1 , q p p q , $ $ o $ o o + + + $ $ + + $ $ + + + $ $ , 1 u p a p a p p p p 1 , ; = = = = - + o ; ; & * * * * ; ; ; ; ; ; ; , 1 , , , , , , * * , , u u , , < > & & + + + & $ $ + & & $ * $ $ * , , * * * , , > ; ; > > > > > > , , * ; > > > ; > , , , > > > ; & ; , , , & & ; ; & ; & $ > , , , , , , , * , , , , , , , $ : , , , : : ; ; ; ; ; : : : : : , 1 l Z H b z p 1 , , , , * , * , , * * : : * * , : * * $ $ , 1 e p z a p e , * * $ $ $ $ $ $ $ * , p J 5.E.+X!.n.n.n.d.b.!.|.!. X XOX{.{.[.'.@X2X4XqX2X X3X3XhX4X5X1X",
"    + f.^.^.b.b.b.^.W K s.E.T.b.6.6.6.g.T.b.E.E.+XE.g.d.s.s.R z 1 ; ; $ $ $ $ $ * * , q p p d p u , $ $ o o + + $ ; + o - o + - + + + o + $ ; , p p a a d a a a e 1 , $ + = = = = = = $ $ $ $ $ * % * $ $ ; ; ; ; ; ; ; , 1 , , , , , , * * * 4 u u , * > > & & + + $ & & + + & & $ * $ $ * , , * * * , , > > ; > > > > > > , , * ; > > ; ; ; ; , , , > ; ; ; > , , , ; & ; & & ; & $ , , , , , , , , * , , , , , , * $ , , , ; ; ; ; ; ; ; ; , ; ; ; ; $ $ ; , q a J K Z z e : * , , , , , , , , * * $ , , , : , , , $ % % : a z B f i i * $ $ $ $ $ . $ $ $ $ * z 7.T.z.v.v.d.d.d.b.[. X=X[.[. X[.{.'.|.4X3X2X6X6X6X6X6X6X5X",
"    + f.T.E.b.E.b.b.b.K g.j.:.g.d.g.6.E.6.6.g.g.g.g.d.b.d.K 1 ; ; $ $ . $ $ $ , 4 p w a p p , $ @ @ . o + + + ; ; & ; > = o o + + $ $ ; , 5 p p p p a a a i * * * $ $ + o = - - + + ; , $ $ % * % % % $ $ ; ; ; ; ; ; ; ; 1 1 , , , , , * * * 4 u u , * , > & & + $ $ & & + + & & $ * $ $ * , , , * * , , > > ; > > > ; > > ; , * ; > > ; ; ; ; , , , ; ; ; ; > , , , ; & ; & & ; & & , , , , , , , , * , , , , , , * $ , , , ; ; ; ; ; ; , , , ; ; ; ; ; $ $ o $ $ * p z B J J z p q , , , , , , , , ; ; ; , , , ; , , % : * * * 7 i d H x 5 , $ $ $ $ $ o . $ $ $ , p K 7.c.c.s.b.!.[.[.'.}. X=X2X X2X4XjXjX6X6X3X3X[. X6X:X",
"    o 8.T.!.E.|.!.g.!.(.!.E.!.E.b.E.s.g.d.g.b.g.s.d.j.j.T ; $ o o o $ $ : 9 e r r r e , ; $ . o + & + o + o $ ; ; , , * o o $ ; : , q p p a a p p p 5 1 * * & & & $ + + + $ ; & $ $ & ; & $ & * & & & & * * * * & & & ; , 4 , , , , , , , , , , , 4 4 , , > & $ + $ & & ; & & ; & $ + $ $ & ; ; ; ; ; ; > > & & * ; ; ; > > > > ; ; ; ; & > * , , , > & ; ; & > < < > ; & & & > & ; o > * * * * , , , * * > > ; ; * ; * * > , ; * ; * * * * * * , , ; , ; & & & + o + $ & < 6 x F H c z p , : * : , , , , , , , , , , , * * * * * * * , 1 p z z a u * $ $ $ $ o . . + $ , B g.b.d.b.!.'.'.'.}.}. X&X&X2X=X2X=XjX3X6X X3X2X3X@X",
"    + 8.T.c.b.|.^.E.d.6.d.!.Q.!.g.g.g.b.s.d.b.s.s.j.T.g.F o o o $ * q p p p p w 9 : $ o o o + ; ; & ; $ ; ; , 1 , : * : ; , 1 p p p a a a p u , * $ $ $ $ $ & & & $ + $ $ & ; & & $ & ; & $ & * & & & & & * * * & & & > , 4 , , , , , , * , , , , 4 4 , , > & & & & & & & & & ; & $ + $ & & ; ; ; ; ; ; > > * ; ; > ; ; * * > > ; ; ; ; & * * , , , > & ; ; & ; > > > ; & & & > & ; o > * * , * , , , * * > > ; ; * ; * & > > ; ; ; * * * * * * , , ; ; ; & & & & $ $ $ $ + + & > 5 p c Z Z z p q , : * , , , , * , , , , , , * * * * * * $ $ , p p z p , $ . o o . . o o p c.b.c.d.b.c.m.'.'.}.[.[. X2X2X&XkX6X3X2X X2X3X6X:X",
"    . ~ j.b.!.1X^.c.c.!.:.g.!.^.+X!.:.g.:.:.j.W 6.g.T.T.J o $ 5 p a a p q , , $ $ o $ ; ; ; ; ; & & & , , , 1 q q q w a p a z z z p p 1 1 * $ o . . + & ; , ; ; * $ $ $ & & & & & $ & & & $ & * $ $ $ & & & * * & & & ; > 4 , > , , , , , * , , , 4 4 , < < & & & & & & & & & ; & $ $ + & & & * * * * ; ; ; * & * & & & & * ; > ; ; ; ; & * * * , , ; ; ; ; & & ; ; > ; & & ; ; & ; + > * * , * , , , , , > ; ; ; ; > * & > > ; ; , * * * , * * , , * * & & & & & & & + + + $ $ o o $ $ , p c b b z p p q , , * * * * * , , * $ $ $ $ , , , : $ $ $ $ 4 p s p ; . . o   . p c.E.E.d.c.c.b.n.n.n.'.[. X2X X2X2X3X3X{. X&X3XjX6X",
"    o 8.T.E.E.|.:XE.E.d.d.d.b.6.d.b.!.!.6.g.T.T.6.6.T.Y.U ; , l p e , * $ $ $ & > ; + ; ; + ; & & & * * % % e a a n n n B z a p u , ; $ $ $ o o o o o + & * ; ; * $ $ $ ; ; & & & $ $ & & $ & * $ o $ $ $ * * * & & + & ; > , , , 4 4 , * * , , , 4 4 , 4 < ; & ; ; & & $ & & ; & $ $ + $ & & & & & & ; ; ; & * * & $ $ & & ; > ; ; ; ; & * * * , > ; ; ; ; & & $ ; > ; & & ; ; & ; + > * * , , , , , , , > > > ; ; > * & > > > > ; & * * , * * , , * * & & & $ & & & & $ + $ $ $ $ $ $ $ $ $ , p a z z z z p q , : * * , , , * $ $ * $ $ $ $ $ $ $ $ $ * , 1 s s < . . o p b.E.d.6.:.c.b.z.n.n.n.m.|.&X2X3XjX X6X X X2X[.2X:X",
"    . ~ Y.E.E.g.d.g.g.g.g.d.b.d.6.:.:.g.b.b.E.j.6.d.Q.T.T ; ; ; $ $ $ $ * * & & 3 > + ; ; & > > > > * 7 e a B M M M n a d p , * $ $ o $ $ + o o X X o + & * ; ; & $ $ & * * * ; * & $ $ & $ & & $ o $ $ $ & & & & & + & & ; , , , , 4 , , , , , 4 4 4 , 4 < ; & & + $ $ $ & & & $ $ + + + & & * * * & & ; & & * * & & & & * ; > & & & ; * * * , , > > ; & & & + + & ; & & & ; ; & ; + > , , , , , , , * * > ; > ; > > & & > ; ; > ; * * , , , , , * , , ; ; $ $ & & & & & ; & & & $ $ $ $ $ $ $ $ $ , q w z B B z a e , , 1 , , , , , , : : $ $ $ * $ $ * $ $ $ < 6 6 & $ e d.b.d.:.:.7.d.d.n.n.b.z.!.'.'.&X3X2X X X X X[.@X|.",
"    . 6.j.E.b.g.g.g.6.d.6.:.6.d.6.6.g.g.g.!.!.E.g.b.(.Q.K $ $ $ $ $ $ * * > * & & > ; ; ; ; * ; , , q i f B M M B a w q * $ $ $ $ o o $ + o . o X X o & * * ; * & $ $ $ * * * ; ; & $ $ & & $ & $ o $ $ $ & & & & & $ & $ ; , , , , 4 , 4 , , , , 1 1 , 4 < & $ + + $ $ $ ; ; ; $ + o + + & & & ; & & & & & & & & & & * ; ; ; ; & & & & * * * * , > > ; ; & & & $ & & & & & ; ; & & + > , , , , , , , * * > > > > > > & & > ; ; ; ; * * , , , , , * , , > ; $ $ & & & & & & & & & $ $ $ $ $ $ $ $ $ $ $ $ : q p z c b c p 1 , , , : : , , * * $ * $ $ $ $ $ $ $ o & ; & ; p 7.b.g.R R -.7.7.d.c.7.d.!.'.'. X:X:X|. Xn.}.&X X|.",
"    . 8.T.E.^.T.j.d.g.d.6.6.5.g.7.5.d.g.d.g.!.!.b.j.Q.^.U o $ $ $ * * ; ; ; * & & ; ; $ $ , * , w a a n B B z p q , $ $ $ o o + + o o + + o X X X X + ; * * , ; & $ $ * * * * ; ; & $ $ & $ $ & $ $ $ $ $ $ $ $ $ $ & & $ ; > , , , , , , 4 , , 4 4 4 4 4 < & $ + + $ $ $ & & ; $ $ + + + $ $ * * & $ & & * & & $ $ $ & & * * ; & ; ; ; * * * * * ; ; ; ; ; & $ + + & & $ $ $ $ + & + ; , , 4 4 4 4 , * * > > > ; > > & & > > ; * * * * , , , , , , , , ; ; $ $ & $ $ $ $ $ & & & & $ $ $ $ $ $ $ $ $ $ $ $ $ $ ; 1 l b Z c z p p 1 , , , , : $ $ * * $ * $ $ $ o . o o $ p c.E.g.:.:.:.7.d.c.d.:.d.c.b.E.n.[. X2Xn.'.'.2X:X@X",
"    . ~ j.b.^.^.^.E.j.g.6.5.6.6.6.d.7.s.6.d.g.d.d.j.Q.^.E $ $ $ ; ; ; ; ; ; ; $ : $ $ : 1 p a a a a a p e , : $ o o o o o o o o o o + + + + X X o o $ ; * * * * * $ $ * * * * * ; & $ $ $ $ $ $ $ o $ $ $ $ $ $ $ $ & & $ ; ; , 4 , , , , , , , , 4 4 4 4 < & $ $ + $ + + + $ $ $ $ $ $ + $ $ $ & & $ & & & & $ $ $ $ $ $ & * ; ; ; ; ; * * & * * * ; ; & & & $ + + & $ $ $ $ $ + $ o ; , , 4 4 4 1 , * * > > > ; > > & & > > > > * * * * , , , , , , , ; ; $ & $ $ + + + $ $ & ; & $ $ & & $ $ $ $ ; ; ; $ ; + o o + $ , p c b c z p p 1 , : : : , * * * * $ o o . o o $ w :.g.g.6.6.6.d.g.d.7.*.d.z.c.m.:.c.'.E.'.'. X'.[.}.",
"    . 6.Y.T.^.Y.T.T.T.b.j.g.:.:.:.:.6.:.:.6.6.s.s.g.^._.U $ $ $ ; > ; ; ; ; : : : , 1 p a a a a a w 9 ; $ $ o o o + + + X X X X o o + + + o . X o + $ ; * * * * * $ $ * * * * * ; & $ $ $ + $ $ $ $ $ $ $ $ $ $ $ $ & & & ; ; , 4 , , , 4 4 , , 4 4 4 4 4 < & & & $ $ + o o o + + + $ + + $ $ $ & $ $ & & & $ $ $ $ $ $ $ $ & ; > > ; ; * * * * * & & & $ $ & $ + $ $ o + + & & $ $ o & , , 4 4 4 4 , * * > > > ; > > & & , 4 4 , , * * * , , , , , > , > ; & & $ + + + + $ $ & ; & $ $ & & $ $ $ $ > ; - + + + + + + o $ $ $ , p z b b c p e , : $ * $ * * $ $ o . . o $ w 7.j.g.6.d.g.d.d.-.-.*.:.g.b.c.d.b.!. Xb.n.'.}.}.!.",
"    . W g.T.(.E.g.7.g.6.d.j.g.:.W 6.5.W 6.6.W K :.g.!.j.T $ $ $ $ $ ; $ : : : q w r r r a a p p < $ o o + + o o o o o o o + + + + + + + + + o o X X o = ; > , * * * $ * * * * * > ; + + + + * $ $ o $ $ $ & & & & & & & & $ ; > , , , , , , 4 , , u 4 4 4 > & + + + o o $ + + + + + + + + + $ $ $ $ $ $ ; + + ; + + + & $ $ * ; > > > > ; & o & $ & & $ $ $ & + + + + + + + + + ; + o ; > , , 4 4 4 > > ; $ ; ; ; ; > & $ > > > > * * * * , 4 4 , , > , > ; & $ $ $ $ $ + $ $ & $ $ $ + & & $ $ o + & ; o $ + = + + + + . . o o o $ ; p x z z a w 9 : % % % $ o o $ $ $ $ a g.g.g.6.:.6.6.6.6.W R W s.b.:.:.6.d.!.}.E.!.!.@X^.",
"    o ~ j.T.T.b.d.6.j.d.6.6.6.T K W 6.W 6.6.-.:.6.6.b.T.T * $ $ * ; , , 1 e a a a r r r e : $ $ o o o o + $ $ o o o o o o + + + + + + + + + o o o o o + ; > , , * * $ * * * * ; > ; ; + + + * $ $ $ $ $ $ & & & $ $ $ $ & & * , , , , , , , 4 , , u 4 4 4 > & + + + o $ $ + + + $ $ $ + + + $ $ $ $ $ + + + + ; + + + & & & & * > > > > ; $ o & & & & $ $ $ & + + + + + + + + + ; + o ; > , 4 4 4 , > * ; $ ; ; ; ; > & $ > , > > ; * * * , 4 4 , , > , > ; & + + $ $ $ $ + $ & $ $ $ + & & & & $ $ ; ; o $ $ + + + + + + + + + o . . $ & : e a z z z w q % $ o $ $ $ $ $ p b.b.g.g.T.d.d.6.6.:.s.j.g.:.W 6.d.:.:.g.|.}.'.@X|.",
"    o ! j.T.j.g.6.:.6.6.6.6.R T W W W T T W W R 6.d.g.T.Y * * , , , , 1 u p a a w , : $ $ o o o o o o o + $ $ $ o . . o o + + + + + + + + + o o o o o + ; , , , * * * * * * * ; ; ; ; + + + * * $ $ $ $ $ & & & $ $ + + $ $ * > , , , , , , 4 , , u 4 4 4 > & + + + o $ & + + + $ $ + + + + $ $ & & $ & + + + ; + + + & ; & & * > > > > ; $ o & & * & $ $ $ $ + + + + + + + + + ; + o ; > , 4 4 4 , > * ; ; ; ; ; , > & $ > , , , ; * * * , 4 4 , , > , > > & + + $ $ $ $ + $ & $ $ $ + & & & & $ & ; ; $ $ $ & + + + + + + + + $ o o . o . o $ , 1 p x l 1 * $ * ; $ $ $ p g.E.b.d.d.d.6.6.d.d.s.d.:.6.6.d.6.R 6.b.!.!.|.}.^.",
"O   o ~ g.T.b.g.6.6.6.5.6.6.5.R T W 6.K K T T K R g.T.T.K $ * , , , 1 1 , , , * $ $ . . o o o o o X X o o o $ $ o . . . o + + + + + + + + + o + - + + o & , , , * * * * * * * ; > ; ; + + $ * * $ $ $ $ $ & $ $ $ o + + + o * > , , , , , 4 4 , , u u 4 4 > & + + + o $ $ + + + o o + + + + $ * * & & & + + & ; + + + & * * * > > > ; ; ; $ o & & & & $ $ $ $ + + + + + + + + + ; + o ; > > 4 4 4 , > * ; ; ; ; , , > & $ > , , , , * * * , , , , , > , > > & & + & $ $ $ $ $ & $ + + + & & + $ + & ; ; $ & ; $ + + + + + + + + o o o $ o o . . o o o & 4 4 ; * ; , , , : p g.!.E.d.g.g.d.s.d.6.6.d.:.6.6.g.g.d.d.E.c.!.}.}.!.",
"    o ~ T.T.b.g.6.:.R :.W R -.W W W W K K K T R R d.E.T.H $ $ , , , 1 1 $ . . . . o o . . . o o o + o . o $ $ $ o o . . o + $ $ $ $ $ $ $ + . + = - + o * , , , * * * * * * * * ; ; + + + + * * & & & & & $ $ $ $ o o + + + * > , , , , , , , , , u u 4 4 , & + + + o $ $ o o o o o o + + + $ * * & & & + + & ; + + $ & & * ; , , > ; ; ; & $ * & * & $ $ $ $ + + o + + + + + + & + o ; > > , 4 4 , , * ; ; ; ; , , , & & > , , , > > * * * , 4 , , , , > ; & & $ + $ + $ $ & & + + + $ & & + + + & ; ; $ * & $ $ + & + + + + + o $ $ $ $ o o o o o o   o + > > , 1 , : $ p b.!.c.g.b.g.g.d.6.6.6.6.:.:.:.:.d.b.b.g.7.n.b.}.^.",
"    . ~ b.b.T.d.6.R W 6.6.W W R T R R T T K K K R R b.^.H $ $ * , , , 1 $ . . . o o o . o o o o o o o . o $ $ $ $ o o o o o $ $ & $ $ $ $ + o o + - + + * , , * * * * * * * * * ; & + . o + & $ $ & & & & $ $ $ $ $ o + + $ * ; , , , , , 4 , , 4 4 4 4 4 , & + + + + $ $ o o o o o $ o + $ $ $ $ $ $ $ + + & > & + & & & ; > , , , > > & & $ > > ; * $ & & & + + + + + + + + + + + o & > > , , , 4 , * > $ ; ; ; ; , & & 4 > , > * , , , , , , , , , > > ; ; & $ + + $ + + & & + $ $ $ $ $ + $ $ ; < ; $ $ $ $ $ + + + + + + + $ o o $ $ o o o + o X X o o 4 5 5 1 1 , $ a E.}.E.b.c.d.g.b.d.g.g.d.6.6.:.7.b.d.7.-.7.b.n.E.!.",
"    . ~ b.T.!.g.6.K R :.6.:.W T K T R W 6.T K J R :.g.+XK : $ * , 1 1 1 $ . . . o o . . . o o o o o . . o $ $ $ $ o o o o o $ $ & & $ $ $ + + + + + + $ * , , * * * * * * * * * ; $ + . . + & * & $ $ $ & $ $ $ $ $ + + + $ * ; , , , , 4 4 4 , 4 u 4 4 4 , & + + + & $ $ o o o o + $ o + $ $ $ $ $ $ + + + ; < ; + ; & * ; , , , , , > ; * & , > , * $ & & & + o + + o + + + + + + o & > > , , , 4 > * ; $ ; ; ; ; > $ & > > , ; * * , , , , , , , , > ; ; ; & + + $ $ + + & & + $ & & & & + $ $ ; , , $ $ $ $ $ $ & + + + + $ $ $ o $ o o o o o o X o o o 4 6 5 1 , : : c E.^.|.b.g.d.d.d.c.c.c.c.E.!.d.E.}.g.c.b.7.b.!.!.E.",
"    . ~ b.b.b.b.6.6.:.W :.W Y K K T W U W 6.g.6.6.!.!.^.K , * , , , 1 1 $ . . o o o . . . . o o o o o o o $ $ $ $ $ $ o o $ $ $ * * $ $ $ $ + + + - + $ $ , , * * * * * * * * * ; & + . . o * * $ & & $ & $ $ $ $ $ + + + o * ; , , , , , 4 4 4 u u 4 4 4 > & + + + & & $ o o o + $ & + + + $ $ $ & & + + + ; < ; + ; ; ; ; , 4 4 4 , , > ; & , 4 , ; * ; * & + + + + + + + + + + + o & > > , , , , > & > $ ; ; ; * ; $ & > > , ; * * * * * , , , , , ; > ; ; & + o $ $ + + ; & + + & & & & + $ $ ; , , $ $ * $ $ $ $ + o o o + $ $ o $ o o o o o o . . . o 4 5 4 , , $ $ z E.!.}.T.g.d.c.c.g.c.b.c.b.E.c.b.!.|.!.T.E.b.z.!.!.",
"    . ~ b.E.j.g.g.6.6.d.6.:.K K K K T K K Y 6.g.d.|.+X+XK , , , , 1 1 1 $ . . o o o o . . . o o o o o o o $ $ * $ $ $ o $ o $ $ * * $ $ $ $ $ & - = + $ $ , , * * * * * * * * * ; $ + . + + * $ $ $ $ $ $ $ $ $ $ $ $ + o o * ; , , , 4 4 4 4 4 u p 4 4 4 > & + + + & & $ o o + $ & & $ o o $ $ $ & & & & + ; < ; $ ; ; ; > , 4 4 4 4 , , ; & 4 4 4 , * ; ; & $ + + + + + + + + + + o & > > , , > > ; & > ; ; ; $ $ ; $ & * > , ; & * , * * , , , , , > > ; ; & + o $ & & + ; & + $ ; ; ; ; + $ $ ; , : $ $ * $ $ $ $ + o . . + $ $ o $ o o o o o o . . o o 5 6 4 , , , $ z E.+X!.E.c.7.c.d.7.b.c.d.7.c.b.E.7.b.b.T.E.b.n.!.E.",
"    . ! j.^.b.7.b.g.6.6.W W W J J U J K K K R -.6.7.b.@XY , , , 1 1 1 1 & . . . . . . . . . . . o o o . o $ $ $ $ $ o o . . & * * $ $ $ $ * & & - + + o o * , ; * * * & & * & ; ; $ + o o o $ * $ $ $ $ $ $ $ $ + + $ + + $ * > , 4 4 1 1 1 q 1 u p u 1 5 4 ; + & & + & + o + $ & & ; o o + o $ $ $ $ & + + & ; ; $ ; ; > > 4 4 4 4 4 , , > & 6 4 4 > ; ; ; < > & + + o o + $ & $ $ o ; > > > < , , , > > * & * * $ + + o > * , * $ $ : , , , , , , , , > ; & $ + + + + $ $ & ; + + + $ $ ; + + & ; ; , , * * * $ $ $ $ o o + & $ $ o . . . . o o o o o . o 5 5 , 1 , , , z T.@X[.c.>.7.d.7.d.g.7.7.c.c.c.c.7.c.c.n.c.7.E.!.E.",
"    . Q j.E.T.c.b.b.g.d.W E E U U U J U Y T R Y Y d.n.}.Y q 1 1 p e 1 4 & o . . . . . . . . . . . + + o o * * $ $ $ o o . . $ * * $ $ $ $ * & & - - + o o > > * & * ; & & & & ; ; + o o o . + & $ + $ $ $ $ $ $ + + $ + + $ ; , , 4 4 1 q q q q p p p 5 5 6 ; $ & & $ & + o o + $ & ; o + + + $ & & & & & + ; > > & ; > , , 4 4 4 4 4 , , ; & 5 4 4 < > > > > ; ; $ $ $ o $ $ ; & $ o > > < < < , 4 , , > * * * * & + + . > ; , * $ $ : : , , , , , , , ; ; & $ + + + + + $ & & + + + $ & & $ $ & ; > , , , * * $ $ $ $ o o + & & $ o . . . . o o o o o   o 5 p 1 5 1 , 1 B ^. X'.n.c.d.d.7.7.b.b.c.c.c.E.n.c.c.c.7.c.c.E.'.E.",
"    . Q Y.T.!.E.g.d.d.:.U W U U U K Z H H K J K Y 7.c.|.Y q e 5 p p p 5 & o . X X . . . . . . . . o o o o * * $ $ $ o o o o $ * & $ $ $ $ * & & - - + o $ > > * * * ; & & & & ; & + o X o . + & $ + $ $ $ $ $ $ + o + + $ & , 1 4 4 u q u e p p p p p p 6 6 ; $ ; & & & + o o + $ & ; o $ & & & ; ; ; & & & > , , & , , 4 4 6 6 4 5 4 , , ; $ 5 4 4 , > , , > > ; ; ; $ $ $ $ ; ; & o > < < < , 4 4 , , , * * ; > ; & & o < , , , $ $ * , , , , , , , , ; ; & $ + + + + + $ $ $ + + $ $ $ & + + & ; > , , ; ; & + + + + o o + & & $ o o o o . o . . o o   o 5 s p s p , , H ^.@X[.b.b.c.z.d.d.g.7.7.7.7.k.c.n.c.c.c.c.c.E.}.E.",
"    o ~ T.b.!.E.6.6.d.6.:.:.W W Y J Z H H K H K -.:.c.@X-.e p p l l p s & o . X X . . . . . . . . . . . o & & $ $ $ o + + o $ * & * * & & * & & - - + o $ > > * * * ; & & & & & & + o . . . + & $ + $ $ $ $ $ $ + o o + $ * 4 4 4 u p u p p p p p p p p 6 6 ; & ; ; & ; + o + $ & & ; + $ ; ; ; > > ; ; & ; < 4 4 ; , , 4 5 p 6 5 5 4 4 , > & 5 4 4 , < 4 4 4 , > ; ; $ $ $ ; ; ; ; o > 3 3 4 4 4 4 4 , , ; * > , > & & + < , , , * * * , , 1 , , , , , ; ; & $ + + + + $ $ $ $ + + $ $ $ $ $ + + ; , , > ; ; $ + + + + o o + & & $ o o o o . . . . o o   o 5 x l x s q 1 H T.[.'.c.z.z.z.c.T.b.7.7.-.7.c.n.c.n.E.c.b.c.E.}.E.",
"    o ~ T.T.E.b.6.g.g.6.s.6.W E Y U U K K Y J Z R :.!.|.-.a a z l z x x > . . . X . . . . . . . o . o . o $ $ $ $ o + + + o $ $ & & * * * * & & - - + + $ ; > ; * * * & & & & & $ + o X X X + $ + + $ $ $ $ $ $ + o o + & * 4 5 6 p p p p p p p p p p p 6 6 ; & ; ; & ; & + & & ; ; ; $ & ; ; > < < > ; ; ; 4 4 4 ; , 4 5 6 s s 6 5 5 4 , , ; p 6 5 , , 6 6 6 4 < ; & $ $ $ ; ; ; ; o > 3 < 6 6 4 4 4 , , ; * , , > ; ; + < , 4 , * * , , , , , , , 1 1 ; ; & $ + + + $ $ & & & $ + $ $ $ $ $ + + ; < , ; ; ; $ + o + + o o + $ & $ o o o . o o . o o o . o s x z z p p p H T.}.[.b.z.k.c.c.c.c.c.z.c.c.c.7.c.E.`.E.T.E.E.}.E.",
"    o ~ T.b.b.c.d.d.d.d.6.6.6.T Y K K H K T R Y Y -.n.@X:.a z b c v z x & .     . . . . . . . . . . . o + $ $ $ o o o + + + $ * * & $ $ * * * & - + + + $ ; ; * & & * * ; * & * & + o o X . + $ + + + $ $ $ & $ $ & + $ ; $ 5 p p s p p p p p z p p p p s 6 > + ; ; ; & & + & & & > > & ; > < > < < > > ; ; 6 6 5 > 4 6 6 s s s s p p 5 4 , ; s 6 5 4 4 5 5 5 6 4 > ; ; ; ; ; < ; > o 4 6 6 6 6 6 6 5 4 , , ; , , > ; ; + 3 4 4 , , , , 1 1 , 1 , , 1 , , < ; $ $ $ $ $ $ & & & $ + + $ $ $ $ + + & > * * * & $ + + + o X o + o $ $ o o . . o o o o o o . o s c v b z p 1 H (.|.[.E.!.b.c.E.b.c.E.n.E.c.c.v.c.7.c.E.E.E.}.}.E.",
"    + 6.T.T.c.g.d.g.6.d.s.6.E E W R T H K Y :.:.R -.E.}.>.a z H b b v x & .     . X . . . . . . . . o o + + $ $ o o o o + + $ * * & $ $ * & * & + o + + $ * ; * & & & & & & ; & & + o o X X o $ o o + + + + & & & ; ; ; , ; p p p s p p p p d z z p p s s s > $ > > > ; & $ ; ; ; > < & > , , , 4 4 > < , < 6 p 6 , 5 p p s s s s s s 6 5 , > s s s 5 6 6 5 5 5 4 < ; ; ; ; , , > > o 6 6 6 6 6 6 6 5 5 , , , , , < > ; + 4 4 4 , , 1 1 e e e 1 q e , , , ; & + $ $ o $ $ $ & & $ + $ $ $ $ $ + + $ & & & & & + + o + + o o + + $ $ o o . . . . . . o o . o l b b F b p p H |. X'.n.'.d.:.7.}.|.}.}.E.c.n.E.E.c.c.E.c.7.}.[.E.",
"    o ! g.g.g.7.d.b.6.:.:.:.E W W R K H K Y R d.-.:.}.@X5.a c J H b v x $ .     . .   . . . . . . . o o + + $ $ + + + + + + $ * * & $ $ * * & $ o o o o o * * & & & ; & & & ; & & + o o X X o + o o o + + + ; ; < 4 < < 4 > s s s s p p p p p z z z z s s s > $ > < < > ; & > > > , , ; , 6 5 4 6 5 4 4 4 , s s 6 4 6 s s x x x x s s s p , > s s s 6 6 s s 6 6 6 4 < > > , , 5 , , & 6 6 6 6 s s p p p 4 , , 4 4 4 3 > + 6 4 4 4 , 1 p p p p 1 e e 1 , , ; $ + $ $ $ $ $ $ * * $ $ $ $ $ $ + + + $ + + $ $ + + o o o o o o o o o $ o o . . . . . . o o o o x J J H b z p K (.|.E.z.b.7.d.-.7.E.E.E.c.7.7.9.c.E.E.E.E.E.E.}.E.",
"    + ~ g.g.d.:.d.g.g.s.6.W E W W W K K K K :.d.7.d.[.@X7.a b J J b b x & .     . . X . . . . . . . . o o + $ $ + + + + + + & * * * $ $ * * & + o . + o o * * & & * > ; & & * * & + o o X X . o o o o o + & > , 6 5 , , 6 > s s s s s p p p z z b b z d s s < & < , < > ; ; > > < 6 6 ; , 5 5 5 6 6 4 4 4 4 s s s 4 p s s x x x x x x s s , , x x s 5 6 l x l l s 6 6 , , , 1 5 4 4 & 6 l l l l s s p p 4 , , 4 5 5 4 > + 6 4 p 4 1 u p p p p e e 1 1 1 , ; $ & & $ $ $ $ * * * $ $ $ $ $ + o + + + o + + + + o . o o o = o + o o $ o o o o o . . . o o o o x J J J b b a K ^.|.'.c.z.b.7.:.c.^.E.E.v.E.c.v.E.E.E.c.c.!.E.E.E.",
"    o 6.T.c.c.d.d.d.d.g.g.W W ~ ~ 6.W :.E Y 6.d.n.c.}.4X7.z c J J H F c & .   . X . X . . . . . . . . . + $ $ $ $ + + + + o + $ * * $ $ & & $ + . o . . o $ & & & ; > ; * & * ; * & + + . . o o o o o + ; ; < 4 5 5 , , 5 , l p s s x d z p z b b c z z s s < & 3 3 4 4 , ; < < 3 6 4 ; 4 6 6 6 s s 5 6 6 6 s s p 4 s x x x c c x x x x s 4 > x x s 6 6 x x x x s 6 6 6 6 6 5 6 6 6 & s x l l l l s s 6 4 , 4 5 s p 4 > + 6 p u p 1 p p p p p p p 5 5 5 , ; & $ & & & & $ $ & & $ o + + + + + + o + + + o o + o o o o o o o o o o o o o o . . . . . . .   . v U U K J c z J E.@X^.7.d.|.@X@Xc.[.c.c.n.E.'.z.c.c.c.z.d.b.E.}.!.",
"    o 7.T.c.d.d.:.:.6.6.d.W T R T W W W 6.6.6.7.z.v.v.}.c.B b J J J F c $ . .   X . . . . . . . . . . . + $ $ $ $ + + + o o o $ $ $ $ $ $ & + o o o X X . $ $ & ; > , > * * * , * * $ & o . + + > > & & ; ; < 4 5 5 1 1 5 , l l s x z z z z b b c c z z s s < - < < 4 4 , ; > > 4 6 6 > 4 6 6 6 s s 5 5 6 5 l x p 4 s x x c c c x x c c x 5 , x x x s s x x x x s 6 6 6 6 6 6 6 6 6 + l x x l x l s s 6 4 , 4 p s s 5 < + 6 p p p 1 p p p p p s 6 6 5 6 , > & & & & & & $ $ & & $ o + + + + + + o + + + o o $ o o + o o o o o o . . o o o . . . . . . .   . v T U U K Z z J E.|.|.E.g.b.b.!.b.E.k.c.c.n.E.}.E.E.v.z.n.n.'.|.!.",
"    o g.E.n.c.:.R Y R K E E T R 6.6.W Y Y 6.d.7.9.k.k.'.7.z b J J K H c ; . .   X . . . . . . . . . . . + $ $ $ $ + + + o o o $ & & $ $ $ $ o o o o X X . & & & > , 4 , ; * , , ; * & & o . & ; > > ; & ; > , 6 5 5 5 5 p , x x x x z z z z z b b b b c x x < - < < 4 4 4 > , , 4 6 5 > 4 6 s s s s 6 6 6 6 x x p 4 s x x D D c x x D D x 6 , x x x s s x x x x s 6 5 6 6 6 6 6 6 6 + l x x x x x s s 6 4 4 p s s s 6 < ; 6 p p p p p z z p p s 6 6 5 6 4 > ; & $ $ & & * $ & & $ + + + + + + + + + + + o o $ o + o + o . o o o . . o . . . . . . . . X   . b E T Y K Z z K ^.+X^.d.6.7.d.7.7.c.7.7.k.z.E.E.z.E.E.n.n.'.'.@X^.",
"    o g.E.!.c.:.R Y Y K g.g.6.6.E.T.g.W K :.b.E.n.k.n.[.-.z b U K K J b ; . .     . . . . . . . o o . o o $ $ $ $ o + + o o o $ & $ $ $ $ $ o + o o . . o $ & ; > 4 4 4 , , , , , * * * o . + ; ; ; & & > < 4 6 5 5 5 p s , x v c v v b b b c c b b b b x x 3 - < 6 4 4 4 < 4 4 6 6 6 > 6 6 s s l s 6 6 6 6 x x p 4 s x x D F D x D F D D p 4 x x x s s x x x x s 6 5 6 6 6 6 6 6 6 + l x x x x x s s 6 4 4 s x x x s 4 ; 6 s p p p d z z z p s 6 6 5 6 4 < ; & $ $ & * ; & & & $ + + + + o + + o + + $ o o + o o o o o . . . o + + + o o . . . . . . .   . b E E T Y J z J E.^.!.d.7.5.7.d.b.c.7.7.k.z.c.k.c.c.E.n.m. X[.@X^.",
"    ; b.}.'.!.b.d.R d.d.j.T.6.7.g.g.b.6.Y *.d.n.E.k.}.[.7.B b U J K J F ; . .     . . . . . . . o o . o o $ $ $ $ o + + o o o $ $ $ $ $ $ $ o + o o . X o $ & ; > 4 6 4 , , , , , , > > o . + + ; ; & & > , 4 5 6 5 p s s , z c c c v b B b z c b b b b c x 3 ; < 6 4 4 4 , 4 6 6 6 6 < 6 6 s s l x 6 6 6 6 x x 6 4 s x c F F D c D F F D s 5 c c x x l x x x x s 6 5 s l s 6 6 l 6 + x c x x x x s s 6 , 4 s x x x s 6 ; 6 s p p p z z z p p s 6 6 5 6 4 < > ; & $ & * ; & & & $ + + + + o + + o + + $ + o + o + o o o X . . o + ; & + o . . . . . . .   . b E E E Y K c J T.b.b.d.d.:.5.7.d.c.k.k.E.E.E.c.9.c.z.n. X6X$X@X^.",
"    $ 6.E.n.'.!.c.c.g.d.b.g.-.-.g.d.g.7.:.>.d.n.n.k.z.[.>.B c b J T E F , . .     . . . . .   . . . . o + $ $ $ $ o o + o o o $ $ $ $ $ $ $ + + o o X   o & & > 4 5 6 4 1 , 4 4 4 , , > o o + + o o o ; 4 , 4 5 6 s p s p , v c b b F b D b b B B b b b c c 4 ; < 6 5 5 4 4 6 6 s s 6 , 6 s s s x l 6 6 6 s c x 6 4 s x D F J F x F F F F s 5 F D x x x D D x x s 5 4 s s 6 6 6 6 6 & x D c c x l s s 6 4 p s x x x l 6 ; 6 p p s s d z p p p s 6 6 6 4 < 3 ; ; & & & & & & & $ $ + + + + o . o + o o o + o . . . . o o o o . . + + + + o . . . .   . .   . b W W E E T H K !.^.g.E.d.Y :.6.d.d.7.k.c.E.c.c.v.E.'.6X6XkX@X@X^.",
"    & 6.}.'.!.}.!.d.c.b.b.j.5.-.7.d.b.d.:.>.b.'.E.n.'.6Xd.B z v J T E J , . .     X . . . . . . X . o o + $ $ $ o o . + o o o $ $ $ $ $ $ $ o o o o . . o * > , 6 6 p p 4 , , 4 4 4 4 > o + ; + o + & > , , 4 5 6 s s l l 1 c c b b F b H b b b b b b D D c 4 ; < 6 6 p 5 4 6 6 s s s , 5 s s s x x 6 6 6 s c x 6 4 s x D F J F c F J L L x 5 D D D D D D D c x s 5 6 6 l 6 s 6 s 6 & x F c c x l s s 5 5 s x x x x l 6 ; 6 s p s s d z a p p s 6 5 6 4 4 < ; & & & & & & & & & & $ + o + o o o o o o + + o . . . o o o o . . . . o o o o . . . .   .     o F W W W 6.R H K E.T.6.s.6.R R 6.7.d.c.c.[.E.c.z.`.'.[.$XkX3X X@X^.",
"    ; 6.E. X!.E.}.c.c.b.g.g.b.7.c.g.d.d.-.>.b.!.'.n.$X2X7.M Z Z U T W J , . .         . . . . . X . . o + $ $ $ o o . o o o o $ $ $ $ $ $ $ o . o o o . + > , 4 6 6 p p 4 , 1 4 , 4 4 , o & > - + & > , 4 4 6 6 s s l l l 1 c b b b F B B b b b b b H H D D 4 ; 6 6 6 p p 5 5 s s l s , 6 l s l x x s 6 6 s c c p 5 s x F J J J c J L T T D 6 F F F D D F F c x s 6 6 6 l l l l l 6 & x F c D c x s 6 5 5 x x x x x l 6 ; 6 s s s d d z p p p p 6 5 5 5 4 > & $ & $ $ $ $ & & & & $ o o o + o . . . o + + o . . o o . . . . . . . . . . o o o o o         . H 6.6.6.d.6.K K b.g.6.s.6.:.:.:.d.c.c.E.E.E.z.k.z.E.v.[.fX[.OX@X^.",
"    > 7.T.'.[.[.d.b.d.d.d.g.c.g.d.:.d.d.>.d.n.m.v.k.n.[.d.K Y b J W W J , . .         . . . . . . . . o + $ $ o o . . . o o o $ $ $ $ $ $ $ o . o o o . $ > , 6 6 6 p p 4 4 4 4 , 4 4 , + ; < > ; ; < 4 5 4 5 6 s x x x x 1 b F b b F H H b b b B B H H J D < ; 6 6 6 s p 5 6 s l x s < 6 l l l x x 6 s 6 s D c s 5 s x J J L J D L L T L x 6 F J F F F F F D x l 6 6 6 l l x x l 6 + x F D D c x s 6 6 5 x x x x x l 6 ; 6 s d d d d a p p p p 5 5 5 5 4 > $ $ $ $ $ $ $ $ $ $ $ + o o o + o . . . o $ + o o . o o . . . . . . . . . . o o o o X         o J s.6.6.g.:.H K g.d.W W W E E :.g.g.b.z.z.!.}.'.'.}.E.[.{.OX$X$X^.",
"    > g.E.!.E.c.:.:.:.b.c.g.T.b.d.-.7.k.>.d.E.m.z.x.K.6X>.K R Z J W W L 4 .         . . . . . . . . . o + + + o o . . + o o o + $ o o o $ + o o o o o X & < , 4 6 p p p 5 4 6 4 4 4 5 6 + ; < < < > 4 6 6 5 4 p s x v l v 1 F F b F F F D c c c b D H H F F 6 ; 6 6 s s p 6 p s x x l < 6 x x x x x s s 6 s D c s 5 s D J T L F c J T T T c 5 F F F D D F F F c s 5 6 h l l x x l 6 + D F D c c x s p 1 5 x z l s x s 5 ; s s x l x x p p p p 5 5 6 6 4 < ; & + & & + o o o $ $ $ + o o o o o . . . o + + + o . . . . . X X X X . . . . . . . . .         o L f.6.6.6.R K K f.s.W U E Y Y T 6.g.b.k.E.n.c.E.}.E.n.`.'.[.[.$X|.",
"    ; 6.E.!.b.d.>.*.*.g.7.d.E.c.c.7.7.c.7.>.E.m.m.z.=X6X7.K R J T 6.W T 4 .     . . . . . . . . . . . o + + + + o . o + + o o o o o o o + + o o + + + X + 3 4 4 p p s s 6 6 p 5 6 5 5 5 $ > 5 5 4 < 6 6 s p 4 p s x v l v 1 F b F F b F D c c D D D F D F F 6 > 6 6 s s s p p s x x x < 6 l x x x x s s 6 l D x s 5 6 F T T U F c U T E T c 6 F F F D D F J J D s 5 6 l l x l x l 6 + D F D c x p p p , 1 s l s s s p 5 ; p 6 s l l l l 5 1 < 6 6 6 < < > ; & + + + o o o o o o o o o o o o o o o o o o + + o . . . . . X X X X o o o o o . . .           o L 8.6.6.6.W K L f.f.W E R T Y Y -.5.-.7.n.E.z.c.E.'.n.`.n.}.[.|.!.",
"    , 6.T.'.n.!.n.d.:.7.5.7.E.T.c.7.7.c.c.>.E.[.x.K. X6X>.K K K T 6.5.W s .   . . . o o . . . . . . . . o + + + o . o + + o o o + o o + $ + + + + + + . + 3 4 4 5 s s s p 6 s 6 6 6 6 6 $ < 6 6 4 < 6 s s p p s x z c x c 1 b b F F b F F D D F F F F F D D 6 < l l x x d s s x x x x < 6 x x x c x l s s x F x l 5 s F U J J F b U T E T F s L J F F F J J J D x p 5 l v x x x x l + F F D c x s 1 1 , , 1 1 5 p p p 5 ; p 5 5 p l l s 5 < , ; < > ; ; & + + + + . . . . o o o $ $ + + o + . . . . o o o o . . . . . . X o o o . . . . . . . .           . L 8.6.6.6.:.T R Y.g.W E W R T R -.6.6.d.z.E.k.7.v.E.n.E.n.[. X@X}.",
"    > d.g.n.!.!.c.:.-.7.c.E.c.9.7.7.>.k.z.d.'.'.z.>.{.6X>.A K T W 6.W T p o . . . . o o . . . . . . . . o + + + o . o + + o o o + + + + $ + + + + & ; o & 3 4 5 5 s s s s 6 s 6 6 6 6 5 $ , s 6 4 , 6 s x s p s x c b c b 1 b b F F F F F D D F F J J F F F 6 < l x x D D s s x c c x 4 6 x x x D c l l s x F c 5 5 l F J b b b b U U E W F s T L F J J L L J F c x s v x c x x x l + F F F D s 5 , 5 1 , , ; , < 1 , , $ , ; ; , 1 5 < , ; ; ; < < < ; > ; & & ; $ + & > , , 4 4 4 , , , < & & & ; > ; ; & + + & & + + o o o o + + + o o o o . .         . J 8.6.6.6.:.R 6.T.j.6.T T U K Y R :.5.:.7.E.z.c.v.c.E.`.n. X$X2X!.",
"    & 6.b.z.b.b.d.:.R :.c.T.7.c.z.c.c.k.n.7.E.'.z.i.'.6X>.K R R W 6.W T p o . . . . + o . . . . . . . . o + + + o . o + + o o o + + + $ & + + + & > > o ; 4 4 5 s s s s s s s s s s 6 6 $ 4 s s 6 , s x x s s z c b F b b 1 b b b F F F F D D F F J J J J F 5 > l x c H H x x c D c x 6 6 x l x D D l x s x F c < < l v 5 < 1 v b J U E W F s L L F J L L T L J D x x x b b b x x l + F F F D s , 1 v l 1 ; $ ; > , ; ; ; ; $ ; , 5 p p 5 5 5 5 6 6 6 6 6 6 , < < ; & > 4 5 5 p p p p p p 5 , , 4 4 5 , 4 , < ; > < > $ o = - > < < < < < > ; & + o o o o $ J 6.6.6.6.:.R W g.6.W W W U K Y K R :.-.7.d.n.E.E.z.v.c.n.[. X[.^.",
"    $ 5.b.c.b.d.7.d.:.-.g.7.>.7.7.c.'.}.'.z.n.n.!.n.n.2X;.K -.E W 5.W W p o . . . . + . . . . . . . o . o o . . . . + + $ o o $ o + $ $ & & + + > > > . + 3 5 p s x x x s s s 6 s s s s + 5 6 6 6 , s x x x x x c F J H F , c b F F H F F F F F F F J F J J 6 6 x c H H H x x c D c x < 6 x l x D D x s s x F x 5 5 < o < c v < v F J E W F 5 J L F T L L R L L F D s v F b b D x x o F F D c s , 5 , p , ; ; $ ; 1 5 , 1 l 5 1 p p p p p 1 1 5 6 s s 4 5 4 , , , ; $ ; ; , , 1 u 4 , 4 4 4 4 , , , , , 5 5 , ; ; , , , + = > < > < < ; ; , ; ; $ ; o o o * K 8.6.d.d.Y Y T j.~ 6.W E K K Y R T -.:.7.n.E.E.v.v.E.v.`.}.'.[.!.",
"    & :.g.c.b.d.d.c.:.7.c.d.k.7.7.n.k.E.E.>.>.z.m.'.$X6X7.:.7.Y T 6.5.T p o . . . . + . . . . . . . o . o + o . . . + + + o o + o + $ $ & + + + > > 3 o & 4 5 p s x x x s s s 6 s s s s + 5 6 6 5 4 s x x x x x D F J J F , c b F F H J F F F F J J J J J J 5 5 D F J H H x x D D D x < 6 x l x F D x l l c F x 5 < $ . s T F ; < b U T W F s J T L T T T R L L F F x b I F F F D x o F D D s , p l , 1 5 , 1 , 1 p 5 , 1 p 1 1 p p p 1 1 1 1 5 6 p p 4 4 4 , , > $ $ ; ; , , , 4 4 , 4 4 4 , > * * ; < , 6 4 , , , , , + + ; > < , , , , , $ $ $ $ $ o o $ K 6.6.d.d.R R T j.6.W U E J Z Y R R :.d.d.n.E.n.z.n.E.n.v.'. X|.^.",
"    & 6.g.d.b.>.-.7.7.d.b.b.c.k.-.z.b.n.'.>.u.c.c.>.'.jXk.7.:.Y T 6.6.L p o   . . o + . . . . . . . o + + + + o o + + ; $ o . + + $ & $ & > & > > 3 3 o ; 6 5 p s x x x s s s s s s s s $ 6 6 s 6 , s c D c c D H H J J F , c b F F J J J J J J L J J L J J 5 6 D J P P H x x D F D x 3 s x x x F F x x x F L F 5 < o . l x 5 o , F U W ~ F s T T L T R R W T L F F x b U I F F F D o F D x 5 , c l 1 l 1 , 5 1 5 s p 5 1 1 , 1 1 1 p p 1 1 1 4 5 5 4 4 5 4 , , * $ $ ; , * , , , , , 4 4 > > * $ & * , 1 1 p , , 1 1 ; = ; > > ; 1 5 , , , $ $ $ $ $ o o $ K 6.6.:.:.*.:.T j.6.T E 6.Y K K K Y -.7.d.z.k.E.n.n.v.n.n.n. X2X^.",
"    $ W d.b.n.d.:.*.:.7.d.d.d.k.>.d.n.'.'.k.u.d.:.7.`.qXk.:.-.Y W g.6.R p $   . . o + . . . . . . . o + + & + + + + ; ; & . . $ $ $ ; $ & ; > > < < 3 o > 6 6 p s x x x s s x s s s l l $ 6 s s 6 > 6 c F D D D J H J J F , c b F F J J J J L L L L L L H J 5 6 F J H P H x x D F F x < s x D D F F x c x F L F 5 5 . . ; ; ; o < U U 6.~ J s T ! T R R R ! T T J F v F F F F F F D o F F c p , l 5 , p 1 , , ; , p p p 1 , , 1 , $ 1 p , , 1 1 4 4 , 4 p 4 , ; ; $ $ , , $ * * , , > , > ; > ; $ $ $ , , 1 5 , $ , 1 ; = $ ; ; ; 1 5 ; ; , $ $ $ $ $ o o $ K 6.d.:.:.R R R b.6.T U 6.E K T R R :.7.7.7.b.E.E.n.E.k.z.'.[.[.E.",
"    & 6.b.d.d.d.c.d.5.7.:.5.7.7.k.k.n. X XF.n.E.:.z.}.qXc.K J R :.7.6.E s +     . o o . . . . . . . o + ; ; ; + + + ; ; & o . & $ $ $ $ & ; > < < 3 4 o > 6 6 p s x x x s s x s s l l l $ 6 s 6 , ; < s c F F H J J J J F , c b F J J J J J L T L L J L K J 5 p D J H H H x x D F F D 3 l x F c F F c c D F T F 5 5 o . o o $ $ l U U 6.6.T s R ! W W T R ! T T J F x F F F F F F D o F J F D , ; , 5 5 , 1 < ; ; 5 5 6 , ; ; , * $ * , * * , 1 4 1 , 4 4 4 , , > ; ; , , $ $ * , , > > > > > > & + + ; ; , , $ $ ; , $ + o + $ $ , 5 $ ; > $ $ $ $ $ o o $ K s.d.:.:.*.R R T.6.W U W W R :.:.R R 7.d.k.z.'.E.v.n.7.z.'.'.}.E.",
"    > s.g.s.6.d.d.7.7.:.:.7.E.n.b.z.l. X2X[.l.z.>.n. XjXv.-.Y Y -.>.6.E s +   . . o o . . . . . . . . + ; ; ; + + + + & ; o o ; ; & + ; ; > > < , 6 6 + ; 6 6 s s x x x s s x s s l x l & 6 s 6 ; ; < < l b b H J J J J F , c b J J J J J J J U U U K J J F 1 p b H K H H x x D F D D < x D c b F c F b F F T b 5 5 5 $ . . o , K R W 6.g.T s R 5.Q W W ! ! T T J F x J J J T L F D . T T L J s $ & 4 5 4 4 5 ; . o $ > $ + + + o . o & $ $ * * * * , * > > > & > > > > 4 & $ & * & & & & & & & o o + ; > < < $ + > < + + + o $ ; 4 4 ; < < ; o + + + . . ; U s.d.:.s.6.:.Y E.g.W W s.s.W :.-.:.-.:.7.k.n.E.n.n.n.v.v.E.}.}.!.",
"    ; 6.6.6.d.d.d.:.-.-.:.c.d.E.'.E.'. X'.n.3.k.v.k.'.4Xv.-.7.-.*.c.g.~ x ;   . . o o . . . . . . o o ; > ; ; ; + + & ; ; o o ; ; ; ; > > > < 3 6 6 6 + > 6 p s s x x x x s x l s l x x & 6 6 ; = < x 6 < v F H J J J J F , v c F J F J J J J U T U U J J J 1 s H H J H H x x D F F D < x F b b F c F b J F E F l l v l , ; p b R W :.7.g.T s Q 5.Q ! ! ! ~ T T L F x J U T T T J D o T R T L x * . . o o $ ; + . + & > o o + . o + o , > o o $ . o $ o o . o . o o o + + + o o o o o o o o o o . . o . o . o o + < < + o + $ ; < 4 < ; 4 4 & . . . . . . ; F 6.s.:.s.6.R Y ^.E.6.W s.d.6.:.-.c.d.:.>.>.n.n.n.n.l.9.`.v.'.@XE.",
"    + T 6.6.6.:.6.:.7.:.-.c.n.b.k.v.'. X'.F.3.3.v.%.v. Xk.7.d.W Y 7.g.6.s >   . o o o . . . . . o o o ; < > > ; ; ; ; > ; o + ; ; - ; > < < < 3 4 6 6 + > 6 s s x x c x x x x x s x x x ; 6 4 o < 6 6 l , s F b J J U J b ; v b F J F H F J J J K U U K J J 1 s H J J J B s s D F F D < x F b b F b F b J F T F l l v v b F K J W :.6.g.g.T s Q 5.Q ! ! ! ! T T L F c F T T T T L F o T ! R L c s 5 4 ; $ + + . ; 6 s s ; < 3 < 3 4 4 s s , , ; ; ; > ; + o     X o o + + + o + & o o o o o   o o . . . . . . . + ; ; . . o + > , < ; & < > + . X . . . . + F 6.6.:.s.R Y Y ^.E.:.:.6.7.7.7.7.7.:.-.>.7.z.z.n.n.l.v.`.k.E.[.^.",
"    > 6.6.6.6.6.7.6.c.7.K 7.7.k.z.n.n.'.[.[.l.>.z.;.n.$Xc.7.7.W -.>.d.6.s >     . o o . . . . . o o + ; < > > > > > > < ; + + ; ; ; > < 3 6 6 6 6 6 6 + < 6 s s x x c c x x x x l x x x & 4 > . > < > < ; 5 F b J J U J b ; c b J J J F F F J J J U U U T J 1 s H H H J B s s D F F D < x F F F F b J F J J W F l l x b F T W U :.6.d.g.j.P d Q 6.6.~ ~ ~ ~ T T L J c F T T T T L F o T W R J D x c D 6 o + $ o 5 c x c 4 6 l l l s x D D s s s s 6 6 6 6 3 + + > - > 3 3 > 3 < 3 3 3 > > > & + o + & o . . . o . o $ . . o o ; > ; ; $ ; o o o . . . . . + F 6.:.:.:.K Y R }.!.d.g.7.7.7.7.-.;.-.:.:.c.k.z.'.n.k.z.n.k.E.[.|.",
"    > W :.:.6.:.:.7.d.c.7.7.7.c.c.n.}.[. X'.l.k.9.>.`.4Xv.7.:.5.-.7.c.6.x > . . o o o . . . o . o o & > < 3 < < < < > < ; . o > > < < , 6 4 < 4 6 4 6 o < 6 s s x c D D x x x x x x x x + 6 & . = o = < $ 1 b H K H J J b ; x b J K U J J U J J J U U U T K 1 p J J H Z z s p x D D D 6 x F F F F c J F J J W F l l v F F T W W 6.5.6.g.g.K p 5.5.~ ! ! ! ! T T T F c U T T T T T I o ! T T L F c D L J , & . & l F D F 4 x x x x D F J L D D c x x x x x S + > 6 < 6 6 6 6 6 h 6 6 6 6 4 4 < > + > 6 6 4 > ; * & $ $ $ o o o o . o . . o + + + + o . . o & U s.g.s.6.Y Y Y +X^.c.d.7.7.7.7.;.7.7.:.7.7.>.k.z.'.n.z.n.z.k.'.^.",
"    ; W :.s.6.R -.7.:.-.:.7.c.c.c.7.7.E.'.'.v.k.k.>.`.6Xv.-.7.6.-.7.b.g.s > . . o o o . . . o o + & & > 3 3 < < < < < < > o + > < < < 4 6 6 4 6 6 6 6 o < 6 s s x c D D x x x x x x x x + 5 < . X o ; ; ; s b H H J J J b ; x b J U T U U T U U K U U U T U 1 p J J H Z z s p x D D c 6 x F F F F c J J J J W F l l b F J E ~ 6.6.6.6.d.g.L p Q 5.Q ~ ~ ! ! ! T T F F T E T T T T L . ! W R T J L L T ! F 6 5 x F L F F 4 c F F F F F T R J J F c D F F x s + 3 6 6 6 6 h x x x x l 6 6 6 4 4 < + > s 6 5 4 , ; ; ; * & + o o o o o o . o + + + + o . . o ; J s.d.6.:.:.R Y :X|.7.Y -.7.c.7.7.;.-.:.7.>.>.7.n.n.n.n.E.k.v.[.}.",
"    < 6.6.6.d.7.6.6.7.-.-.d.c.7.7.-.%.7.`.`.k.>.k.k.n.4Xv.7.7.6.-.k.n.5.s > . . . o . . . . o + $ ; ; > < 4 < < < < < < > o + > > < < 4 6 6 4 6 6 6 6 o < 6 s x x c D D c x x x x c D c $ 6 s 4 = = = ; 5 v b H H J J J b ; v F J U T T T E T U U U T T T U 5 p J H H Z z s p x D c x 6 x F F F J b U K T J W F l v b J H T 6.6.d.6.:.d.g.P p Q Q Q ~ ~ ~ ! W E E T F T W E E E T T o ! ! W R L T T R ~ T L L T T T F F 6 F F F F L L ! R L J J H J J F D D & 4 6 S h S x D D D x x l 6 6 6 3 < + > s 5 6 5 4 , , , , ; $ o o + + $ + o + + ; ; ; - + o + ; J d.g.:.W :.R K |.T.-.-.7.5.c.c.k.7.7.:.>.7.-.>.z.k.k.n.k.z.[.2X}.",
"    < 6.6.d.d.7.7.g.d.-.5.7.c.7.v.7.-.@.-.9.;.%.>.k.n.@Xc.7.7.g.>.k.z.5.p , . . . . . . . . o o & ; ; > 4 4 < < < < 3 < < o + < < < < , 6 6 4 6 6 6 6 o < 6 s x x D D D D x x x x D F D ; s x x l 5 6 l b b b K K K J J b ; v F J T T E E W E T U T T T E U p p K H H Z z s p x D c x 6 D F F J J b U T T J W F l v b F F T 6.6.g.6.:.d.g.T p Q Q Q ~ ~ ~ W E E E T J E W W W W ! T o ! ! R R L R ! ~ 6.! T T W ! W L F 5 F L I F L T ! R L L L J J J J F D > 6 x l x x x F F D D x x x 6 6 4 < + > s 5 6 5 4 , , , , , & + $ $ $ $ + o o + + ; ; = + . + ; U g.g.:.W W :.Y ^.c.:.:.6.6.7.d.7.7.7.-.:.7.7.k.z.>.v.`.n.`. X@X}.",
"    < s.d.7.d.7.:.7.z.-.%.7.c.:.7.K %.k.@.M K -.-.7.v. Xn.-.-.d.d.>.d.7.p , . . . .   . . o . o $ & ; < 4 6 < < 3 < < < < + + < < < < 4 6 6 6 6 6 6 6 o < 6 l x x D F D c x c x c F F F ; s l c v x c c F F H K K K J J b ; v F J T T W W W W T U T T T E T 5 l K J H B z s s x D c x 6 D F F J J F T E W T W J v v b F b K ~ 6.g.6.W s.g.T p Q Q Q ~ ~ ~ W T E T L J W ~ ! ! ! ! T o ! W W T T ! 6.Q 6.~ W W T W W J F 6 F J J J T T ! R L L J H J J J F D > 6 x s l x D I L F D D x l 6 6 6 3 ; > 6 4 4 4 > , , ; ; > & + + + + + o . . . . o + .   . . & U g.g.:.R R R K ^.g.6.g.7.7.d.:.7.-.-.-.7.7.z.v.z.>.F. X'.F.'.[.!.",
"    > T.E.7.;.-.-.c.E.k.7.z.b.c.:.B n E.:.B z -.-.-.9.[.v.K -.b.E.;.c.6.s < . . . .   X + & + + & & ; > 4 4 , 4 4 , < < < o ; < 3 3 4 6 6 6 l l s 6 6 . 6 l x x D F F F x x D x c b F b ; s v c b b b b H J H K K J T T b ; c J T W W T T :.W R T T K R T T 5 s J J H b z s 6 x D c x 5 D F L L L F T ! R ! T J x v F c F U 6.6.s.~ W s.f.U s W ~ ! ! ! ! ! W E W T F ! f.~ ~ ~ ~ T o W W W E U W ~ ~ ~ ~ W T E E T F F 6 F J J J U T E J H F F F F F F F x < 6 x x x x D F L F D D x l s 6 6 3 > o . o o . . . . . . . . . . . .   X X X     . . . . . o & T b.T.T.g.T K W +XE.:.7.c.9.7.7.7.:.7.d.7.k.9.v.v.l.A.[.'.'.}.[.!.",
"    ; g.}.k.7.7.>.E.n.7.7.>.7.c.:.B a b.c.K z -.7.>.v.n.;.-.c.g.k.-.7.W s > .     .   . - ; + $ & ; > < 4 4 , , 4 4 < 3 3 o > 3 4 4 4 6 6 6 6 l s s 6 o 6 l x x D F F F x x c x v c F b ; l c b F H H H J H K K L K T T b ; c J T W W Y Y R R R R :.R R E T 5 s J J H b z s 6 x D c x 5 F F L L L F T ! W W L J z x F c J T ~ 6.~ T E s.f.U s W ~ ~ ! ! ! W W ! W T F E f.f.~ ~ ~ W o ! W W W J T W W W W T T W W E J F < F J J J U E E J b c c x D F F F x < s x x D D D F L F D D x l s 6 6 6 < + & & $ o o . . . . .   X X X . X   X o o o + + + + + ; < K g.T.j.6.6.W 6.+Xb.7.g.z.7.7.>.7.-.>.7.>.-.;.>.k.l.F.F.'.n.n.[.!.",
"    ; W c.n.7.k.-.-.7.7.7.7.-.7.:.K a 7.7.7.-.c.>.k.v.`.c.-.b.!.b.k.z.6.s > .           . . + ; > > > 4 4 4 , 4 4 , < < 3 o > 4 6 6 6 6 6 6 6 l s 6 6 o 6 l x x D F F F x x c c c F F F ; x b H J H H J K K K Y T T T T b ; c J T W T Y Y R R R R 6.:.:.W E 5 p U K H b z s s x D c c 6 F F L T L J T W R ! L J v x F F J U W W E J J ~ s.U s W ~ ~ ! W W W W ! W T J T ~ ~ ~ 6.6.! o ! W W T J T E W W W T W W W W J F < F J J U T E T F c v x x x D F F x < l D D D D F L L F F D l l l l 6 6 3 > 6 4 < ; & + + $ + o o + + + + + . . > ; ; ; ; < ; > < 6 T b.^.T.b.b.6.:.T.g.g.E.E.7.;.-.:.:.7.7.>.k.9.k.9.n.F.'.n.n.n.}.!.",
"    > 6.T.|.z.7.7.7.n.E.k.>.:.-.Y K w -.-.-.R k.>.;.c.}.9.;.c.d.-.k.c.5.s >             X   . ; < , , 4 6 4 , , 4 4 < < < o > 4 6 6 6 6 6 6 6 l s 6 6 o 6 l x x D F F F x x c c c b F F , v F J J H H H K T T T T T E T b ; c U W W E Y T R R W W 6.6.6.~ W s x T K H b z s s x D c c 6 F F L T T J T W R W J J c v F F J U W W W J F W s.U s ~ 6.~ ~ E E E W ! W L F T ! ~ ~ 6.8.! o ! W W T J J T T T W T W W W W U F < F J J K T W U c v c F D c F F F x , l D c D F F J L F F F x x x x l 6 4 < x s 6 4 , > ; ; ; > ; ; > < < < + + 6 < < < , , < < , 5 W T.E.g.W :.-.6.b.g.7.E.c.7.7.-.:.:.:.:.-.7.7.z.z.k.n.n.n.}.}.[.!.",
"    ; 6.T.|.E.c.7.k.k.'.'.c.7.-.:.-.B -.7.Y -.c.7.;.9.E.;.K %.-.Y %.k.6.x > o . .           + ; < 4 4 6 5 5 , , 4 4 , < < + 3 6 6 6 6 6 s s 6 l l 6 6 o 6 l x x D F F D x c D c b F F J , v J J J K K K K T E E R T T T F ; b U W W E T R R W W :.6.6.6.6.W p z T K H b z s 6 x D D D 6 F F L T L J T W ! T D L c x F J J J E W W T F T f.U l ! ~ ~ ~ ! ! E ! ! W T F T ~ ~ ~ 6.6.! o ! W W T J J K K U T T T E W W J F 5 J J J U T E J b c b F F D F I F c 4 x F D D F F F J F F F x x x x x l 6 < x x l s 6 4 < , 4 4 < 6 6 6 6 6 < ; 6 5 5 6 6 6 5 5 5 6 T T.E.d.6.g.-.:.j.b.:.7.c.;.-.-.-.Y -.-.5.-.7.>.>.z.E.'.K.}. X[.E.",
"    ; 6.T.'.c.k.k.7.k.z.z.z.b.c.7.c.K -.7.-.K -.k.9.`.[.;.-.7.E.'.k.:.6.s > o o o . X   X . & ; < , 4 6 5 5 , 4 4 4 , < < o 3 6 6 6 6 6 s 6 6 s l s 6 + s l l x x F F D x c D c F F H J , v U U J Y R Y Y E R E R E T T F ; b U W W W R R R :.6.6.6.d.6.6.W p z T K H b z s 6 x D D D 6 F F L T L J L W ! T c J c x F J J U W W W W J W f.U l ! ~ ~ ~ ~ ~ ! ! ! ! T F T ~ ~ ~ ~ ~ ! o ! W E K H H J K T T W W W W W J F 5 F J J U T E J F J J F F F F J F c 4 x F F D F F F F F F F b F F F x l 6 6 x x x l s 6 4 6 5 5 5 6 6 6 6 6 < ; 6 6 6 s s s 5 5 5 6 T j.E.g.6.g.W 6.g.d.-.7.c.>.;.-.Y -.:.-.-.-.-.:.>.k.v.'.}.F.'. X!.",
"    ; 6.T.E.z.c.E.k.k.c.E.c.7.7.7.c.c.7.d.:.K -.7.c.}.4X>.%.b.|.|.|.E.5.s ; + + $ + o . o + > < , , 4 5 6 6 5 4 4 4 , < < o 3 5 6 6 6 s s s 6 l l l 6 + l x l x x F F D x c D c H J J J , c U T Y R W R R Y R R R E T E F ; b T W ~ W R W W :.:.:.6.6.6.6.W p z T K J B z s 6 x D D D 6 F F L T L J L W W T x J c x F J U T W W ~ W U W s.J l ~ 6.~ ~ ~ 6.~ ~ ~ ! T F T ~ ~ ~ ~ ~ W o ! W E K F b J U E W W W W W W F b < F U U U T E U J U U J I F F J F D 4 x F F F F F L J F F F F F F F b v 5 5 b c x x x s 6 6 s s s l x x x s 4 > s s s s s s p p p p W b.T.b.6.d.Y W g.d.:.7.c.7.;.-.-.6.d.g.5.-.R :.7.c.z.n.F.F.F.}.d.",
"    * 6.b.n.z.z.E.E.z.z.n.c.-.7.c.-.7.d.7.7.Y -.>.n.E.$X;.>.d.!.@XE.c.6.s > ; ; ; ; - + - ; < , 4 4 4 5 6 6 6 5 6 6 4 < < o 3 6 x x l x x l 6 x x l 6 + l x x x x D F D x c D F J U U J , c T E E -.:.R R Y Y R R R E E H , F T ~ ~ W :.6.6.-.W :.6.d.s.6.6.p z T K J B z s 6 x c c D 6 F F L T J F L R ! R x J b z c F U T W W ~ ~ T W 6.J l ~ 6.~ ~ 8.8.8.~ ~ ! W F T ! ! ~ ~ ~ W o ! W E K F H U W ~ 6.6.6.~ W W F b < I U U T E W U U U J J F F F J F F 6 x F F F F F L L J F F F F F F b v 6 5 F c c D D x l s l s x x c c c x 6 , x x x s x x s s p s W b.g.T.j.j.R R d.7.-.:.9.7.7.-.-.-.5.5.-.-.-.7.7.9.7.z.n.F.'.'.b.",
"    * 6.c.n.d.n.E.E.n.E.k.z.7.-.-.7.:.>.:.7.>.-.-.%.c.$X7.7.7.!.@Xk.d.W x > > > ; ; ; + ; > < , 6 5 5 5 6 s 6 5 5 5 6 4 3 o 3 s x x x x x 6 6 l l l 6 + l x c x c D D D x D D b K T U U , b T W R :.:.R R Y Y Y R R T E H , H T ~ 6.6.d.j.g.5.R T :.6.d.6.6.p z T K J B z s 6 x D c D 6 F J L T L J L R W R s H b v c F J U W W ~ ~ W ~ 6.F l ~ 6.~ ~ 8.8.~ 6.6.~ ! F T ! ! ~ ~ ~ T o ! W W T J U W ~ 6.6.6.6.6.~ W F b < I U U T E W K J J F F F F F J F F 6 v F F F F L L L L F F F F F F b v 5 5 F D D F F D x x x x x x D D c x 5 , x x x x x x x s s s T j.T.!.6.g.6.:.g.-.Y -.7.7.7.-.-.:.6.T 6.7.5.5.7.k.7.z.n.}. X}.c.",
"    $ :.z.z.7.c.`.`.`.z.v.n.c.-.-.-.K -.-.7.z.7.@.;.v.@X-.-.c.`.'.n.c.6.s > > > > > > & & > 3 3 4 4 6 6 6 6 6 5 6 6 5 6 < . 6 l x x x x c l 6 6 l l 6 + l l x x D F F D x D F Z K R Y U , H T -.5.6.:.R R T T Y T R R R Z , J R :.:.6.g.j.g.6.W R R :.6.6.6.p b T T K B b p s x x c D p J L L R L L R 6.6.Q x J F c D J J T ! Q ~ Q R ! 8.J s 6.f.8.8.f.~ 6.~ ~ ~ E L T ~ ~ ~ ! ~ T & ! W E U J J E 6.s.6.6.6.6.~ W F v 6 F U U U E E J b J b b b c c F F b < F F F F J J L L L J J J J J J J D s s J F F F F D x x D x x D D D c x 6 6 x c c c c x s s s s W g.j.j.j.W R -.d.9.;.7.-.:.5.:.:.:.R R R -.-.-.7.7.c.E.n.[.F.`.b.",
"    ; :.d.z.z.z.n.n.z.v.c.v.c.>.-.%.K -.%.k.k.>.%.;.v.$X-.K >.n.k.n.d.E s > & > , 4 4 & & > 3 4 4 4 6 6 s s 6 6 6 6 6 6 < . 6 l x x x x c l 6 6 l s 6 + l l x x c D D x x F F K Y R T Y 1 H T -.6.6.-.R T T T Y T R R W H , K R :.6.6.g.b.g.6.R R R W 6.s.6.p b T T K B b p s c F F F s F J L P L P Q 8.6.Q d F D x D J J T Q ~ ~ Q R ! 6.J s 6.f.8.8.f.~ ~ 8.~ ~ E J T ! ~ ! ! ! T $ ! W E U J J E 6.s.6.6.6.6.W W F v 6 F J J K E E J b b b c c v v F F b < F J L J J J L L J J L L L L J J D s s J F F F F F D x x x x x x c c x 6 6 x x c c c x x x s s T g.T.Q.T.W :.:.g.7.;.7.>.-.5.-.:.5.:.R -.-.-.:.:.7.>.>.k.n.n.v.d.",
"    $ R d.k.z.c.n.n.'.k.v.v.>.>.-.K M >.-.z.k.;.%.-.c.4X-.-.9.z.E.'.c.W s & & > 4 4 6 > & > 3 4 4 6 6 6 s s s 6 5 5 6 4 3 o 6 x x x x x c l 6 6 6 6 3 + 6 x D D D D x x x F L Y -.:.R E 1 H R -.6.:.W R Y R R Y T R R W J , K W 6.6.d.g.g.6.:.W W W 6.6.s.6.p b T T K B b s s D J F F s F J H P L P Q 8.6.Q d D D x D J J T Q ~ ~ ~ W ! 6.J s 6.f.6.8.f.~ ~ 8.~ ~ T J T ! ! ! ! ! T $ W W E T J U W 6.6.6.6.6.6.W W F b 4 F F J U E E J b c v v v v v F F F 5 J T L J F J J J J J L L L L L L D s s J F F F F c x x l x x x x D D x 6 6 x c c D c x x x l s T j.g.g.s.R R 6.g.:.-.7.7.7.-.-.-.6.5.-.-.7.7.7.7.>.>.7.3.l.n.n.c.",
"    $ R >.z.n.k.7.k.'.v.n.v.7.7.7.-.K >.7.z.-.%.%.-.k.4X>.>.k.9.z.n.b.W x > & * , 4 6 > > 3 4 4 4 6 6 5 s s s 6 6 6 5 4 3 o 6 x x x x x c l 6 6 6 6 < + s x D F D c x x c F L R -.:.R E 1 H R 5.6.:.W R T R T Y T R R W K e K :.6.d.g.g.6.:.:.R R W 6.d.s.6.5 b T T K B b s p D J F F s F J P P L P Q 8.6.Q x D c x D J L T ~ ~ 6.~ W W 6.J s 6.f.8.f.f.~ ~ f.~ ~ T J T ! ! W W ! T o W W W T K T W 6.6.6.6.W ~ W E F b 4 F F J U T U b l l l x x x v F J F 5 U T L F F J J J L L L L T T T L D s s J F F F F F F x s s s x c c c x 6 6 x c c D c x c x x s E j.s.E.^.T.d.-.6.:.-.-.-.7.:.-.R R R -.:.7.d.b.c.7.7.9.k.k.n.n.d.",
"    ; :.k.k.n.d.;.k.n.F.}.l.k.>.>.-.-.7.Y -.%.-.%.;.v.hX-.-.z.E.n.n.7.6.s > & ; , 6 6 > > 4 4 6 4 6 6 5 s s 6 6 6 6 5 5 < o 6 l x x x x x x s 6 6 6 < + l x D D D D c c c F T R -.:.R R 1 H R 5.-.R R K Y Y Y Y T R E R H 1 Y :.6.d.g.d.6.W :.R W 6.6.g.s.~ p b T T J B z s s D F F D p F J L R R R 6.8.6.Q x D D x x J L T ~ ~ ~ ~ T ~ 6.J s 6.f.8.f.f.~ ~ 8.~ ~ T F T ! Q ! W W L + E W W E T T W 6.6.6.~ W W W E F x 6 F F J J U b p 1 1 1 s l l v F J F 5 J L F F F L J L L L J L T T T L D l s J F F F F D s 5 4 4 4 p x x x x 6 6 x c c D c x x x s s T j.E.b.E.^.g.-.7.-.:.:.-.-.-.-.-.-.-.:.7.d.n.z.7.9.7.9.k.k.k.z.7.",
"    $ 6.b.n.z.u.k.n.n.v.'.l.7.>.-.@.;.7.K 7.7.>.-.7.n.qX-.-.7.'.[.'.d.6.p & > > 4 5 6 < ; 3 < 4 4 4 6 6 s s 6 6 6 5 6 5 < + 6 l x x x x x s 6 6 6 6 ; + x x D F F D F D D F T -.:.:.:.E 1 Z R 5.-.Y K c K K Y T R R T T Z e U :.6.g.d.6.6.:.6.6.7.g.g.g.6.W 1 b U P H H c x s D F F D 6 F F P R R R 6.8.6.Q s c D x x F L L ! ! ~ ~ T ~ 6.J s 8.f.f.8.8.~ ~ ! ! ! T J T ! ! ! W E L + W W W E T T W 6.~ ~ W E W W T F x 6 F F J F b p , ; ; ; , 5 s x F J F 5 J J F D F L J L L J J L T T R T F x s J F F F D 6 > 4 6 p 4 4 s c D x 6 6 x c c c c c x x x s T b.d.-.7.5.-.7.7.-.-.-.Y -.-.-.-.-.-.%.-.7.n.k.9.k.9.k.k.9.k.k.:.",
"    ; 6.b.n.n.z.k.z.F.'.'.n.k.7.%.B A %.%.k.c.-.-.-.9.4X%.;.n.z.'.[.T.6.p ; > > 4 6 6 3 & > > > 3 4 6 6 6 s 6 6 6 6 6 6 3 + 6 l x x l s s 6 6 6 6 6 ; + l x D F F F F D F J T -.:.6.:.E 1 b T 5.-.Z p z K J K Y R R R T Z 1 U :.s.g.d.6.5.6.6.d.g.b.b.g.s.W , b K H b z z x x D F F D 6 F F J R R R 8.8.6.Q d x D s s F F J T T ! ~ T 6.6.J p 8.U.f.6.8.~ ~ ! ! ! T J T W ! E T T I o E W E T U U E W W W E E E W T F x 6 F J b v p $ ; p p 1 ; < s l F F F 5 F J F D J J J J J J L L T R W T F s 6 F F F F x ; 4 s s l s 6 p x x l 6 6 x c c c D D x x x s K T.g.:.K B K 7.5.:.R R Y -.-.-.-.-.>.>.k.7.>.7.9.k.v.k.z.3.3.9.:.",
"    , d.c.n.x.z.n.n.K.x.k.x.k.k.7.-.%.K K k.7.>.-.K 7.qX-.7.k.z.n.|.b.6.p & > 4 4 6 6 > & + & & > 4 4 6 6 6 6 5 6 6 s 6 < + 6 l x l 6 4 4 6 4 6 6 6 ; + x x F J L F F F F L ! :.6.7.6.W 1 B R -.K z p p Z b Z K T R R R Z 1 K :.d.g.d.d.d.6.6.6.d.g.g.g.f.W , b K b z p p x x D F F D 5 D D H P R R 6.8.6.Q s x D s s D F J J ! ! ! T 6.6.J s 8.g.f.~ ~ ~ ~ 8.6.~ T F T W ! T T L F o T E T U J J T W E T U K U T J F x 6 F F x p ; $ p x x v 5 , 5 p b F F 5 F F F D J J J F F J J J T T T T F s p J F F F 6 & 4 s x x 6 6 4 6 s l 6 6 x D D D D D c x x x T T.^.|.b.b.7.-.7.-.Y -.Y K K -.-.;.7.>.;.-.7.n.9.>.9.>.9.3.>.k.7.",
"    ; 6.b.z.m.m.z.k.x.l.F.3.7.>.-.>.7.-.A >.7.-.@.-.'.jX-.>.;.n.'.n.7.6.s & > 4 5 5 6 > & o o o > 4 < > 4 6 6 5 6 6 6 6 < . 6 s 6 6 < < , < > ; 6 6 ; + x D F L T F F F F T ! :.:.:.:.W 1 Z W P a z Z e c z b H K T R R Z 1 K :.d.g.d.6.d.6.6.g.d.6.s.d.f.W , x z p q , q x x D F F D 5 D D J P P P Q 8.6.Q s x c s s D F x p J R ! T 6.6.J p 8.f.8.~ ~ ! ! 6.6.~ T J T W W T T L F o T T T U J F J U J J H b b b F F x 6 F c l , o ; 1 5 5 l p ; , 5 b F F 5 F F F F J L J F F J F J L T T T D x s L F F D 4 + ; > 6 s ; , > 5 l s 6 6 x D D D D c c x x x T b.|.E.E.E.7.-.7.Y J R Y K -.-.-.;.7.>.k.k.k.k.;.;.>.>.9.3.k.z.7.",
"    , d.n.l.F.K.k.l.n.v.'.'.n.9.;.;.;.%.%.k.3.%.K %.n.hX;.-.>.}.v.k.7.T p & & 4 5 6 6 3 o . . o * 4 & + > 3 3 3 3 5 5 6 , . 6 p 6 > > > > < & o $ > + o x c F J U J b b J U R *.:.R R Y , z U U q B K : e p p p H T E T b , K -.7.g.7.7.7.:.:.:.7.6.d.d.6.R , p 4 1 p p $ 1 z c Z b b e b b F T L L Q 8.8.T p x c p 5 c c s , J L W W ~ 6.F s 8.8.8.~ ~ ! ! 8.8.~ T L T W T J J J D o T U U J D D D F b v x F G v G G D 3 D x x ; . o ; ; < < ; $ , p z b b p c b b b F F F F F F F I I I I I G x 6 I J F c 6 + + + + - . . . ; 5 p 5 1 z v b c c b c b v x K T.E.E.}.E.7.;.9.-.K K -.R R -.5.7.7.=.>.3.k.>.>.-.>.7.9.7.7.9.8.",
"    ; 7.z.F.F.k.9.k.n.k.v.v.c.k.-.%.k.;.=.3.k.=.A %.k.4XK ;.n.'.'.`.7.W 5 o & < 6 6 < > .     o * , o X o + & + > 3 6 6 4 o 4 4 > o & ; ; > ; . + > + o l D F J U J F b J U R :.R Y T K ; p U l : Z -.e 1 $ . ; s K U E b 1 K :.6.7.7.d.6.:.:.6.6.6.d.d.6.T ; 4 5 p p p ; , p z b F b 1 b z J L J F W 6.~ T 6 s x 5 , s p , ; J L T ! 6.6.J s f.8.f.f.6.~ ~ 8.6.~ E L T W T J J F D . T I F F D x x c v l x x F F F F x > D x x , o o + $ ; ; ; ; , 5 x F b 5 x x b J J J J F F F H H F J J F c s 5 J H b v x & . . .   X X . ; 5 5 5 1 z x c c c c c c x s K b.E.@XE.E.-.-.c.9.-.Y -.:.-.-.:.7.>.x.n.l.3.;.>.-.>.7.9.7.c.9.5.",
"    ; d.'.n.l.l.v.v.n.k.n.c.9.;.%.9.'.n.%.;.k.k.} %.E.6X;.9.n.k.l.2X}.-.6 + & < , 4 > o       + ; > o   . o o . & 3 6 6 4 + > ; .   o o & > + + < 3 - o h D F F F F c v b J U K b b b b $ 1 F , $ z H e p H , ; , 5 l J b , K W 6.6.6.6.6.W :.6.:.:.6.6.~ R ; 4 s x x s 4 $ ; s x F b , z c F J J L R W R J , s p 5 , , , $ , H J J ! 6.~ F s f.f.f.f.~ ! ~ 8.8.~ T T E W T L I G G X I b F F D x x c b v b x v x F F x ; x x x 6 ; . + ; < < , < , 5 x c c , s x H H T P L L K J K H H H H Z z p p K Z c c z p $ . . . X X + < 6 5 4 , x x c c x c c c x l T b.^.@X@X}.7.-.7.-.@.K Y -.-.-.7.-.@.%.k.3.k.;.>.;.>.>.9.9.9.9.5.",
"    , c.'.n.l.F.n.n.n.c.k.9.9.;.%.k.'.n.3.3.k.x.=.>.'.qX-.@.>.9.v.E.c.5.s + & + o + o     . + < > > +           & 4 6 6 < . + .     + + < > X - 6 3 - X 6 S D x x x l 6 x c b x v x s p $ $ 1 $ $ p D 5 4 s & ; 4 o $ 1 l ; b K W 6.R W E Y W W J J U E T L & 4 s x x s 4 $ $ 5 x D x < x c D J J H b b H b , p p , ; , ; $ p K J F Q 6.Q F s f.f.g.f.~ ~ ~ 6.~ ! T L T T L I I G G O I F F F D x x c l 1 1 p 1 p c c x ; x x l l 6 > ; < 3 6 4 < 4 6 x x x < 6 x D L R Q Q R L L J H H b b b z p e J b c c x x 5 $ o $ + + > 6 6 6 3 4 x x x s 6 s x x l s K T.}.}.}.}.-.-.7.-.@.%.Y R R Y -.%.V N k.n.3.>.>.;.>.>.9.>.7.9.5.",
"    , c.K.F.n.l.k.n.n.9.v.7.>.7.>.v.[.k.k.;.x.l.3.v.}.qX5.-.7.k.n.n.c.6.5 o o .   X X     + > < < < ; X   .   . & 4 4 4 < + o     . = > 6 - o o > - o   > 6 6 4 < < 5 ; ; , , 5 v x , 5 ; o $ $ $ z H p , $ . o > .   $ , ; z z Y :.Y U Z b J K l p p v D c + , s x x 6 > $ + 5 x x l > x D c H H z p p b c p l p , $ , z p K T J F Q 8.W J s f.f.f.f.8.~ ~ 6.~ ! T F T J F F F G S O I F F F D x x p p l Y Y p : p l x ; p l s s l 6 > < > < < < 4 6 x l l > 6 x F I T ! ! T T F F F F F F F x 6 6 F D D G x S 6 3 - > < > < 4 3 4 3 4 x l 6 6 6 6 6 6 s 6 K E.E.^.!.c.-.-.7.;.7.>.-.-.-.7.z.c.3.k.n.k.l.3.>.;.;.>.>.>.>.9.7.",
"    ; c.'.`.F.k.k.v.9.k.v.0.>.>.>.k.F.k.k.] 3.k.l.v.[.qX-.-.k.n.n.E.z.R p o . .   . . X . ; , , ; ; $   . . o $ , 4 , , > ; + o o $ < < < + - > < ; o   . o ; o o , H p : $ $ , p p : , $ a K J a p q 1 5 p ; $ ; ; o ; : : l z Z K K Z Z Z b z e , $ : $ * * 4 s s s 4 * ; , 5 x x p ; x b b z z p p 1 z z p z c p , , c b Y H H x L ~ T F s g.f.U.U.f.6.~ ~ ~ E L F L J F D h x 6   I F F x x x z 1 K -.%.Y K B z p p ; , 5 s 5 5 , , ; ; ; ; > , 5 s x l ; s x G F I T I F F F F G G G D G D 6 3 G S S 6 6 6 6 6 6 6 ; ; ; ; ; , > , 5 5 5 5 6 4 < < 5 s K b.E.b.7.:.g.7.b.9.v.9.-.-.7.7.7.v.'.F.n.l.k.>.;.;.;.;.;.9.>.z.7.",
"    , b.'.n.n.k.>.9.>.9.v.9.@.%.>.k.F.n.k.N } 3.3.9.v.$X>.c.E. X4X[.c.5.5 o o + o . . . o ; , 1 , * o . $ > 4 , , , , , 5 5 5 5 5 5 5 5 , > < 6 5 , ; ; ; o $ , c K R K z z z z p e q w K -.-.K K Z z B z z a z H b e p a z z B z w w z B Z z w e q * $ $ , a z p p e 1 1 e e q e p p , p c c p p p b a z z z c c Z c , e z K Z J x D T T F s f.U.U.f.6.~ ~ ~ W T J F F F D x s 5 , o z c x x x s 5 p Y n n @.K A K w , $ $ $ , , $ $ , $ $ $ $ ; , 1 p s p $ 5 l l l v b v x v v l x x x h h l 6 > 6 6 6 3 3 3 < ; & & * * : $ $ $ ; 1 p p s p p p 1 , 1 p b b.g.:.Y 7.5.:.!.v.>.9.-.-.-.>.%.;.v.F.n.n.l.;.;.&.;.3.3.l.9.7.:.",
"    , d.n.n.n.v.v.>.>.;.v.7.-.;.k.v.`.n.;.%.l.A.3.;.v.$XK -.:.c.E.|.E.W p o & 6 < ; ; $ ; , : 1 , * . $ 4 5 4 , , 1 p p p p p 1 5 p p p p p p p p 1 1 p l l z B K Z B M %.%.%.R R Y M M @.%.%.@.%.%.A n z z z c Z c z a z n a M A M B Z B B B B B B B B z a z a z z a w a w q q q q e w a a z q , p p q p a a z p z K z : e B Z T F c F F D s f.U.U.f.~ ~ ! ! T F F F F F x , p d.d.9 a s s l 6 4 1 -.V n ] %.V f n n Z p c B Z K Z z z z a a a a z z z z z e z z z z z z z a a p p p z z l p z z p z c c z z M M M M V i e a w p w * , c Z Z Z Z Z B c a w Y ^.:X|.E.b.R -.b.|.>.%.%.-.-.>.>.3.3.3.l.9.9.v.9.;.>.3.;.k.>.7.5.",
"    ; d.}.n.v.k.9.9.;.7.;.>.7.;.9.>.k.n.3.>.i.F.0.9.[.qX7.g.c.!.[.[.b.5.5 o & 6 6 , 1 1 p 1 q p p p 1 6 5 5 4 , , 1 p 4 q p p p p p z a p e e e p p p p p z B B Z A %.A A ] @.K M A Y A ] @.@.m g M M n r r a z B a q 9 r z a a a a f M Z K K K K K K B B B M Z B M B z Z M M M M M M M A A Z q e z p q q p a a p e z Y a q c Z K F D c c c s 8.f.U.f.~ ~ ! E T F D D D s > b 5.-.%.m % 4 4 6 3 o $ B f m ] ] @.%.%.n B c Y Y K >.-.K K K K K K K A Z Z B B z Z B A K K K K K @.K A V K %.} K A } A A %.&.A ]  . . . . .f w f n B a % q z B B B M M Z B a w Z g.^.!.^.R B :.d.9.@.%.;.-.;.;.>.9.9.3.x.3.9.3.9.9.3.>.;.k.9.k.7.",
"    : c.K.[.n.v.9.;.>.7.7.7.>.-.>.7.9.k.3.%.&.l.3.x.].6X>.>.K 7.v.[.E.P 6 + & 5 1 1 1 1 1 p 1 1 1 1 , < < , < , , 1 1 , ; , , 1 1 1 , , , , , e l z z z p z M Z Z Z K Y R K K Z M A Y Y A A n a a z z z z z z w q e e e e e : e e z M K K Z V m V A Z B n M M Z Z M M A B V V V m n n M V V Z w a A M B V A V B p e z M Y a B B K b v l z x s 6.8.g.f.f.~ W T I b v v s $ $ Y >.%.%.@.$ + $ % 9 q % a r *.N A A m =.A a M M A %.=.A m A ] A A A @.K B Z B f M Z V m V V V V A V A A ` N =. .] &.] ] `  ...[ ' [  ...,.[ l e a M Z n * 1 l z B Z B B H z p p U j.s.j.s.R R R g.7.;.K :.-.-.-.%.;.i.>.x.;.3.;.;.=.;.;.3.l.3.k.d.",
"    : d.n.v.k.7.-.-.-.-.9.7.5.-.;.;.>.>.=.A &.l.l.F.OXfX9.k.K %.v.9.E.H 4 o + p u p p p p p p p p p p 6 l l s p p z z z l p p p p p p p p p a z c b c B Z Z M M B z z z B z z z z z n n M Y Y A B v c Z c z z l p a z z B M Z Y -.*.-.;.>.3.;.@.%.;.;.%.-.%.Y %.-.-.-.K Z %.%.@.%.@.A V V V Z p a K A Z A ;.;.K c z z z Z B z K Y b z v x x s 6.f.f.f.6.~ T T J e p z x z a %.%.] A A a + : @.`.v.-.a K %.A @.@.A A A a M n V m M f f n V A A K K B B B B B M B M M A A A Z V B B n m m ] } } ] m N ] ] ] ] [  .&.[ [ ] : % a Z K B * , p a a B B B B d p x U j.j.b.g.d.d.7.b.k.;.%.:.-.-.7.;.=.>.=.>.%.;.i.;.k.3.l.x.l.l.v.c.",
"    : d.m.n.k.;.%.-.-.@.;.7.-.K %.-.@.;.;.A =.l.3.x. XkX%.%.K K ;.9.E.T x o & s a z a p p a p p z d x s x x x z z z B B z l z c B Z Z Z Z Z K K K K Y Y K K A Y K Z Z A K K Y Y Y A A K K K K A B c Z K K K Y K K Y %.%.-.-.-.;.>.-.%.=.;.;.=.A A A A A V M n M Z K K B B n n n M A K M n n z e w B M a a M A Z c z c p z K B B R b z c z x s ~ 8.f.6.~ W T J v c -.7.7.>.A A n A V Z a > -.G.a.l.9.e B n Z @.K K Z K f n n M n f n V n B B Z B B B K B B a d B B B J B B M B B B n M A ] ] ] A n n ] ] ]  .&.] &.&.@.V e : n K K B , 1 l z z n M B B z p z K g.d.d.b.d.7.7.b.k.%.%.-.Y :.>.;.3.l.>.k.3.l.i.3.k.l.l.a.3.x.n.v.",
"    * 7.n.n.k.%.@.;.>.-.;.7.-.K K %.K >.;.A %.3.&.3.'.kX@.Z V A @.V 7.T l o $ p a z p p p p p p p p p 5 p p p a a d B z p p p z z B Z Z B B B B B A K K B B A K A A A A A M A A Y Y A K %.A M n z z c B K J Z Z Z K K K K K K %.%.%.%.] ] ] A V N m A A M n n M M B B n a a a f n M A n a r , , e z z a r a z z z a B p B Z B z J z z c b c p ! 6.~ ~ ~ W U F p K -.K A %.] ] 0 7 # e % R n.2.M.p.=.9 w V Z @.Z V V @.] ] m A A A %.%.A V B V M B Z K K B B n B B Z Z M B n M K M V A &.&.} ] ] A m ] } &.&.&.&.3.3.&.] a q M K V B % , z B M A K K M z z z K |.kXNX4XcX6X;.E.7.%.Y Y J K -.3.3.i.3.k.3.3.3.k.3.k.3.l.3.x.n.z.",
"    , d.n.l.>.;.%.;.%.%.-.K K K K K -.>.Y M A ;.1.l.F.3Xn.@X|.|.[.$XE.T 4 . o p p p p p p p p p p 1 1 4 p p p a a a f a a e q q a a B B B n B Z Z Z Z B A A M M M n M M M n M M Y %.Y %.} V V V M M M n Z Z B z z M V A K @.A A @.] ] } } A A V V V N m n n n M B n B B B B B B n n A M B n , 1 p z z a p z z z z p c a K B B B z z z c H D x W ~ ! W W T J v * a a @.V A ] ) g ;.@.q % P @.| 2...] w 7 g @.] ] m N ;.N ) ]  .1.1.3.&.[ ] ) ] ] N m V ] V m m m m m m m m m m ] V N ]  . .] ] ] ` m ] | ..[ [  .,.,.[ ] w : f B i u $ , z n n M A Z M z z z K 4XqXVXjX@X}.7.v.7.Y Y K B Z %.v.A.l.3.3.3.;.3.k.i.&.l.A.l.C.n.z.",
"    , 7.n.l.i.>.>.>.%.%.A -.-.%.-.-.>.-.V n A 3.3.a.].6X;.n.`.@X6X4X}.H 4 . o p p p p 1 1 p p p 1 1 , , 4 p p p a a a e e e q w a a a f a B M B B B B B B Z A A A A A z e e z A K K K %.A ] ] A V M M V A n n n B B B B K @.A V V V N N N A M n K } ] ] n f n a a n B Z H B B M n n n n B B e e e l l e , e p z z z z B Z B z z a a z B J x s T W W W W T J x , @ % q r w f ] v.k.c.P @ $ w ` | 1.F.%.i t N N m t } x.N `  .1.M.S.P.a.,. .[ _ m _  . .[ ] _ ] [ [ [ ] [ [ ] ) ] [ [ | ..| [ .. .' [ 1.....| ..,.,...[ ] w % q a q $ @ , x B z r n B Z B z v K @X@XhX XE.E.;.v.>.Y Z Z B B %.k.A.3.3.3.3.;.=.l.3.3.a.F.L.A.F.n.",
"    , 7.n.z.i.>.>.;.;.@.%.>.;.%.-.7.-.A A A -.l.x.x.].fX;.;.7.E.[.v.E.B 5   o p p p p p p p p p 1 , 1 4 * $ , p a a a q e p a z B z B B B f B B n f f f n B V V V M z % : $ , M A A A %.A ] ] } ] A V V V n B B B B V B A @.A n n M N N A V z q M >.} ] V n n n n f B M B B B B z B z z B z q e p z p p e e p z z z c c B B z a p p z J B z p T T T W W T J x s * @ @ . @ : f Z -.P u .   * V 3.>.w B V #.1. .k ` } } j *.>. . .C.C.,. .[ &.) k ] ] ) ] [ &.&.3.a.3.3.3.3.1.3.&.)  . . .&.&.&.[ ]  .,. .[ ] [ [ [ [ [ ] , @ $ : $ o o < x l p , e a z z s l J |.}.}.E.E.c.@.c.:.Y K J B Z >.v.l.3.l.l.3.3.3.l.n.A.F.L..XG.F.`.",
"    , 7.z.k.z.>.>.7.k.7.>.%.%.%.%.;.>.%.-.%.7.v.F.F.F.fX;.9.k.c.E.`.E.H >   o p p p p p p p p p , * , < . . o , p p a p p l l z c c a a a a n z z z z B B B M A M n , $ , > ; z N N N A A A A N A A A ] A A V Z K V Z V K K V n n V } ] A n : $ $ M =.] Y V M M M f M B Z A B B a a a a z a e w q a p p a p z c z z c c Z B a a e q a J b c p L L K T W T T D s 5 * .     . p z a z u       . @ @ 5 R @.S.1.m 1.} 3.k.a B Y A A -.-.A A A K n e w 9 q r z B z B A A Y %.-.-.K M r n a a B B M n n M n n n a n B B B B z p e p p 6 6 6 6 l l s , 1 4 p 6 6 x K |.E.}.E.z.k.K c.:.Y K K Z B ;.3.4.3.x.A.A.9.A.].{.].G.G..XXX].n.",
"    , 5.k.k.x.i.>.>.z.z.k.%.3.;.=.%.;.>.;.@.>.l.F.{.'.6X%.9.v.k.9.E.E.b &   o p p p p p p p p p 1 , ; + . . o ; p p p e p l l z z p e p p z z z z z B B Z Z A K M K p o + o 3 M A N N A } A A A N m A A A V B Z K B Z A K A K A A %.*.] A B , $ $ r =.&.-.K K K K B M a B a a B z p p p a a p e q a a a a a z H z z B c Z B z a a w a z B b u J K J K T T T F 6 6 3 + O     o $ p W , o O   o & + . s A ' ) ] @.;.B p . .   . . . o . . o o .     . .         . .   o o o o .   . . . .   . .               . o + + + o o o . . o o o o . o + o o o o o + 6 J +X!.}.T.c.d.A z.:.Y Z K J Z ;.;.3.4.l.x.G.F.].].G.F.L.G.L..X.Xn.",
"    , -.9.k.n.k.=.;.n.'.%.=.}.>.;.;.=.>.3.] %.k.l.F. X3X%.;.7.7.7.>.c.p ; . o u d d p p p u q p 1 ; $ $ . . $ , w a a w e p z z p p p p a a n a f a a n M A } } A A M , . o p A V V A A %.%.A A A A A A V n M V A A V A %.%.] A M ] ;.=.%.A r 9 r M ] A M n M M n M A B a z B B n r a n n z p 1 , p a p p a z B z a z z c B z z a a a z J z , H K J J F T J x 6 6 6 > + X X       .   + + o . . .   . p -.H z K , o .       . . . . . . .   . . . . .             . o . .   . . + o .               . .       . . .         . . .   X         . . .     o x R }.E.}.^.E.c.A n.d.Y Z K Z Y d.k.>.3.i.l.l.i.F.G.F.].].A.G.].K.v.",
"    , -.k.3.=.;.=.>.'.3.%.%.l.n.'.%.%.;.=.%.=.l.l.l.[.6X%.-.c.7.%.-.7.s > . + p d a p p u 1 1 1 , ; ; , ; , , e p w w q 1 e p p p p p p p n n a w i i a n M A A N M M n p a B M n M M V V A A A V M M M M M V K A V n m A A A A A ] =.%.%.A f w M A A A V n n M M M V V M M M M n a n M Z n p , 1 p p p a d B B c a a z z z z z z a a z J H 1 H J F F I L J l s s 6 6 3 - ; +         3 4 & > > > &   . > 6 6 4           3 > > * & & & * 3 4 4 6 4 4 6 3 3   > > < 6 4 4 4 , 5 6 6 4 > > 3 > & o . > & & $ + o $ o . o . . o o o . . X X . . . o o   o + x K @Xb.!.E.E.c.K E.d.E Z K K -.d.>.=.&.=.i.l.A.G.G.G.G.G.A.G.L.K.`.",
"    , :.k.3.3.;.] ;.n.%.3.=.;.=.n.[.n.k.%.=.3.n.k.i.'.jX>.c.E.7.K 7.b.s &   o 5 p u p p 4 1 , > > > , 4 4 4 4 1 e e e p p 1 p p p p 5 p p a a a a a a a a B M n n z z B B B b B z n M B B M Z Z A M M M M Z A A B M V A A V A K K Y %.%.K K M r M A M A Z M n M Z B n B A Z B B B z B B K B p 1 p p p p a d c z z a z z z z z z z z z B J b $ F J F L L F F l x x l l 6 < < < - + X   6 s 4 6 s 6 6 &     . .     . o + + x x s p 6 6 s x D c c c c c D F S o S s x c F F F F F F F F D x x x l 4 ; s s 6 5 5 4 4 , ; < < < 4 4 , ; . o - + + + + & + + ; x K @XT.}.E.E.c.K E.d.E U U K R >.>.i.>.3.l.A.G.A.A.G.L.L.G.A.L.{.'.",
"    , -.k.k.n.=.%.3.k.3.v.;.*.%.=.3.2X2X;.] 3.n.k.x.'.jX;.k.v.-.%.b.^.l +   X 4 4 4 4 4 4 > > > > < 3 4 6 5 5 5 4 4 4 4 5 4 5 p p 5 4 5 p p a a a d a a z z z l l l z z d d d a a z c z B c B B z z z z z B B B B B z B B B B Z J Z A Z Z K B z B Z B B z B c c B z a z Z b z z z a z z c c p 1 p z p p p a d z z z z z z z z z z B B B b 1 $ F J F L J F F x D F c x 6 6 6 6 < 6 6 . s x 6 6 6 5 6 3 o & 4 , > 4 6 6 x + F F D c x c x D L L J J J J F F x o D F F J T T T L T R T T T L J F F s , F c c c c x x s p s 6 6 s s p 5 . < 6 6 6 < 6 6 6 6 6 x Y @X@X@Xc.c.E.-.E.d.E Y K K -.>.>.k.i.i.x.x.l.l.l.G.G.A.A.A.F.].n.",
"    ; -.>.>.l.k.=.>.;.k.;.%.] =.3.%.n.}.k.=.>.F.x.]. X6X;.7.7.%.%.7.j.l o     o . o & + o o o o o o o + + o o $ & * * * $ $ & & $ $ & & & * * $ * , , * , , ; ; ; , , * * * * * : , 1 , , $ , 1 , , 1 1 1 1 u p 1 , q q e q q e e e p e e p p 1 q p p q 1 1 p p p p u p p q 1 q e 1 p p p a p 1 p p 1 q p a d p a z z c B B z a z B J b p $ * J F F F F F x s x F J F x 6 l h 6 x l + x D x 4 4 6 s 4 & 6 x x x x F D F + F F F D D F c c L R T U T T T L D + x F J T W T T L R W W W W T T J F l 5 T F F F F c x p s x c x x x s s o 6 x c l s l x x x l x K |.@X|.E.}.E.K E.d.E M B K -.7.9.l.l.i.l.x.x.A.F.G.A.C.G.l.l.F.n.",
"    ; >.k.k.3.l.>.>.A ] l.;.%.;.;.A ] @.l.=.k.n.n.n.'.6X%.>.7.>.Y :.g.5 o       . .   . .     . . . .   . o . . . . . o . . . . . . o o o $ . o o $ o . $ $ o o o $ $ @ @ @ @ @ . o $ $ o $ $ $ o . o $ $ o o o o @ $ $ $ $ $ $ $ $ $ $ $ $ $ $ $ $ $ $ $ $ $ $ $ $ $ $ $ $ $ $ $ $ $ @ . $ $ $ , , 1 q p d a a p a z z b z z a z c Z p $ $ , F J F F F F D s D L F F x x b x v c F + x D l 6 3 3 s 6 4 x x x c J L F F > G J F J D H v 5 x F J K T W T T x o F J T E W E W 6.W W Q R W W T J L c 5 W K J J H b c z 1 s x c D b s s > 6 G F c x c F c x x c K +XE.E.b.z.c.K E.c.R Z Z K -.>.l.x.i.=.i.F.x.l.F.G.G.G.G.L.a.F.n.",
"    , >.k.n.k.k.;.%.%.n.'.3.>.;.;.3.'.n.=.%.;.l.x.k.n.6XA %.-.>.K :.b.s +     & * , < < < 4 , , 4 4 , , < 1 5 4 4 4 4 u p 5 4 4 5 p 5 p p p p p p p p p p p p p p p p p p p a p p z z z z z p z z z z z z z z z z z z z z z z z z z z z a a z a z a p a p p p p z p p p p p p p e q q q , , 1 $ . $ * p a a d a a a z z z z z z a z p $ o , , F F F F F F D s ; l J F c c F F F F F $ c D D 6 o . & x 6 l b b H R R J F > F F T J J F , $ ; , z K T W W T c + c J T W W W W 6.W T W R W W L L T c 5 ~ T T U K K H p $ 1 s x c b x s < 6 F F F c F H F c c D K }.b.@X@Xc.7.K E.d.Y Z B K -.7.l.k.1.3.l.F.F.A.G.A.a.A.G.=XL.].'.",
"    , 7.k.l.k.k.3.k.3.k.[.[.l.;.>.=.3. Xk.;.=.3.i.x.'.2X%.k.n.E.;.7.T.x +   . * 4 4 , , 4 p 4 4 u u u 1 1 e p p p p p p p p p p p p p p p p p p p p p a p p a a a a a a p a a p p p a a z a p p a a a a z a a a a a a z z z B c z B B z z z z z B z a z z a p p a p z z a a z z z a a z w : , $ $ , , p a a d z z z z z a z c z p $ . . $ > > F F F L F F D 6   o l T F b F J J F F ; c D x 4   . o D s x c b J W W J D > F J T T U , . ; , ; , c Y K W T c $ x K T E W -.6.6.R T W E R E U T T b s 6.W K K T K p ; $ $ , s D D x s , 6 F F H b b H b b z c K }.c.}.!.c.c.K E.d.R Z Z K 7.v.v.3.3.i.a.l.x.G.L.A.A.G.]..X.XOX[.",
"    1 7.k.k.k.k.%.3.;.;.;.k.l.;. XOXn.F.] >.3.i.3.l.'.2XA 7.k.E.n.9.b.H o . . & , 4 , 5 p p p p p p p e e p p p p a a a p p p a p p p p p a z z d a a z a a a f B B z a a a z B z z c z z B B c z z c z z z z c z n B B B M B B B Z Z M M M Z Z B z n a c z a a p q w z B n n M M n a a e % , : , * @ 1 p a a a a a z z a p p , $ o o $ $ , > F F F L F F c > . $ 6 F F b F J J F b ; c D x 4   o & x x x H H T ~ Q J D > F T F K l o $ 1 , 1 p p c J T T c $ x J Y Y R :.6.-.R R W T K T T T T b s 6.R K K K p , 1 p , > , d c s s , 6 F F H b b H b b z z K !.}.4X@Xb.E.-.E.c.-.Z B K >.z.k.i.x.l.l.l.l.A.G.G.G.L.XXOX=XOX'.",
"    1 7.k.;.n.k.;.n.>.%.;.n.n.i.n.'. XF.=.;.l.n.x.k.n.2X;.c.7.c.}.z.7.J $ .   . o o o ; 6 5 5 5 p 4 $ $ , u p p p p p , $ $ , p p p p p p a d d , , s x p p p d z z q p p a z z z v v 5 1 l c z z z z , , p z v z z B B J b p p B J J c B Z K Z p l v l x p p p p 1 , a b c Z b c Z e * $ $ , $ , $ . 1 p p p p p d c z p , , , @ @ $ , s p , F F F L F F D 3 o ; 6 F F D F J J F F , c c D 4   o ; x x x B K T 6.Q L D > I T F b $ o 5 x l p l 1 1 J J T c $ x K Y T R 6.-.:.R W T T L P R T P x p 6.E U K v , 1 s z p , * 4 s s s , 6 F J J D F H F D c c J }.[.}.E.z.z.-.!.z.-.K Z Y :.>.i.l.l.3.3.l.l.G.G.G.L.XX.X.X.X].`.",
"    , 7.k.k.l.9.>.7.-.%.;.k.l.=.=.i.A.F.&.=.3.x.x.x.F. X%.>.k.c.}.E.:.K > .           o 3 6 6 6 > o   . . $ , p 4 p 4 o   . . $ < , , , 5 p p , o   o < 6 > o & , , o $ $ $ * $ $ ; ; . . $ l z p l 1 . o ; 5 s 5 p c D s ; . $ , p d 1 c J s ; o $ > < > > > 4 * * , p 4 x J F 5 , o o $ ; , ; , * o 5 s x 4 > > > > , $ $ , u $ @ $ p c z , b F F F F F D 3 o > 6 F F D F L J F F , c c D 6   . ; x s x B K T 6.6.T F & G J F x o $ p F 6.b 1 1 , c J L F $ x K Y T T W R -.R W T L P L R P L x p 6.W U J 5 1 x x J D , ; ; 4 6 s 5 6 F F J D D F F F D c K E.E.`.}.E.c.K !.c.-.K Z Y >.k.x.A.x.l.k.x.l.A.L.L.L.oXoXoX.XOX'.",
"    , 7.k.n.k.>.>.%.-.K >.k.3.3.&.} } 3.3.3.&.i.x.F. X3X&.9.n.9.n.n.d.K > o             > 4 6 3 o   . o .   o 4 4 5 4 .   .     . . $ ; , 4 4 $ o     + 4 & . . . o . . . . . o . . .     o p p p 1 o o $ $ , ; ; p d 1 o . & o . @ $ @ $ , . . . . . o + o . . $ , p p * o $ o . o o ; $ ; 5 , 4 , $ 4 , s , . .   o 4 $ $ 1 z 1 $ $ z K b , b F F F F F x ; o < l F F D F L J F F , c D F 6 . o 5 c s c Z K T 6.6.T D + F F F v $ $ l s s p , , , v U K F $ s H K Y T R Y R R W K J L J R P L x p 6.W T b ; $ p x s 6 ; & $ & 4 6 5 s F F J F D F F F D D Y E.n.n.`.v.k.K '.E.>.K Z -.k.n.K.G.l.k.l.x.x.F.].G.A..XP.-X-X.X X",
"    , 7.k.n.x.7.>.;.>.V %.=.%.=.&.=.3.=.] =.&.3.l.x.K.3X%.k.7.;.7.7.d.U ; o             + < 6 > .   o o .   . $ * $ .         . . $ , > * * & $ +       . o .     . $ * * $ $ $ o o .   . ; , p p , . $ $ ; , $ , x ; . . o . . o $ @ . $ , 1 , o o o $ > $ . o , 4 p , $ $ $ . o $ ; ; ; ; 4 , 5 p > , . o .     . $ 6 o o $ l p 1 p Z K c , b F F F F F x + . 6 x F F D J L J F D > c c F x , s F c s c J K Y 6.6.L D + F F J J , . 1 ; ; , , o $ v F J D $ p b K T W W H K Y K H F J L R L L c p 6.E U b , . ; , ; 6 & & & o & 4 4 p J F J F D F F F F F K !.[.|.[.v.7.K }.|.z.%.Y 7.n.n.F.].G.F.F.F.F.]..XG.G.XX.XdXL..X X",
"    , 7.k.k.z.k.-.%.>.%.%.>.l.3.3.n.F.F.%.;.3.3.3.l.'.2X%.%.-.-.>.-.6.Y > +               + + .     & & .     .                 o ; > & & * $ ; X       o o . . + ; s x x p 4 , ; + + - 6 6 , , 1 , ; $ 5 1 $ o ; o . . + - ; ; > , , , p b H F , $ $ ; < ; . o , 5 s $ . $ $ o ; ; ; , , $ $ , s x , x > o .     o ; < $ ; , z z z b Z H z , b F F J F J x $ + 6 x D F D F L J F c > c c J J F T J s z F K Y Y 6.6.T F > I J F J x $ ; ; $ ; ; $ e J J J D $ 6 z Z T 6.W K T R Y K H K W W K L b p 6.W U H z ; o $ > $ * * . . , 6 4 6 F J J D D J F F F F K !.}.[.`.E.n.K }.!.9.-.%.7.v.n.G.L.A.n.A.L..XOX.XL.L.oX*XdXsXL.l.",
"    1 k.v.k.k.k.-.9.>.>.%.*.3.;.].].{.F.;.;.i.3.3.x.'.2X%.v.n.-.%.>.d.T ; + o                   . + > > o .     . . . .           + > ; > & + > + X . . o & & > 6 x D D D x s p < ; + > s 6 4 , ; , $ o 5 1 o . o . . . - ; 6 6 s s s d H K K K b p 1 < ; ; . & ; 5 4 o $ o $ ; , ; , , , $ $ > , , , c 5 5 6   o - < < ; 5 ; T H B H H b p p H J H J F F x 5 s x l F D D F J F F D ; F F H K U J H p p H Y -.R 6.~ W F + I J J U J p $ $ $ $ , p b U U L F $ x b H Y W :.Y :.W R Y K K W T K K B p 6.:.Y Z H 5 o     . $ $ . * p p 4 p J F F D D F J J F D K !.@X$X X`.E.K }.n.>.-.@.7.v.F.A.G.A.A.A.L.F.L..X].XX*X*XsX*XXX'.",
"    5 k.v.k.k.k.-.7.7.>.>.;.=.;.k.l.n.3.=.=.i.i.&.3.F.2X@.k.E.c.;.'.c.R ; + o o                 + > < 4 &     o & ; & + X   o o . o > 3 3 ; + < - X = > , 5 6 6 x x D J J D x p 5 ; .   + 3 * $ $ $ , . $ ; $ o o o & + + - 6 x x H H B H R W W K z s s < ; X + ; 4 5 > $ o $ , 1 , , , , $ , 4 , , > s 4 s D . > 4 4 6 , s , J K J K J H l 5 F J J D D J c x x D x F D c F J F F D > F H K T W T J z v K R :.*.6.~ E F & I U J T T F , o o $ p b U U T T J * x H Y R R R Y W W T K K K R W K K B p 6.6.R K J F ;     . . $ ; 5 x s 4 p J F J F F J J F D D Y E.n.v.v.7.n.%.}.n.9.-.%.7.v.A.F.L.].].A.F.C.].OX].].oXoXfXL.l.$X",
"    1 7.k.k.3.k.-.-.>.-.;.>.%.=.3.k.=.;.%.;.l.i.&.l.'.2X] 7.n.v.;.k.b.:.< + + + .           o + > 3 < 3 > o + ; > < > > X X - > + o . + > - o o X o o > 6 s s l D D F J D D x x s 4 > +     . $ o o p ; ; , , , ; , 6 6 ; ; s x H H K J K R -.-.T b z l 6 < . > 6 6 s s 4 $ $ , 1 5 5 , , ; ; > 4 ; o 6 6 x F o > > 4 s s s p B R P K K K z p F J J D J L J F D F F F F c D J F F D ; F H Y W :.W U c H T :.d.6.6.~ W F ; T T J U E U F x 5 p J W W E W W J & s b K T R Y T 6.6.-.Y Y Y R -.T Y B p 7.5.-.K b b 6 + . o , 4 p x D x p s L J J F F L J F D D Y b.[.$X[.}.z.A }.n.k.;.;.7.v.F.G..X.X.XF.C.G.].oX.XoXaXsXsX2.l.'.",
"    1 7.k.i.k.9.;.;.;.%.*.=.] =.&.3.n.k.&.=.3.3.=.F.].2X@.9.E.E.>.u.c.6., - + - + o . . o o + & > 3 < 3 3 > 3 3 3 < < > O X 6 6 3 > o   o o X   o 6 > 3 l x x x D D J D b c x x s 6 6 3 + + , p 1 ; ; ; 1 5 s p s x s x < > s c H K K P P -.6.-.R H b c x 6 o 6 x l x l s , $ , , 5 p , ; ; ; , s 6 > x x D D & > , 4 p p p q q K T K T T z p J U J H H K T T J J L F F D F F F F D > F H R :.W W T b K R :.d.d.6.6.W F ; I J J T W E T U b J T W 6.W W W J ; x H Y R Y K Y :.R T T T R R W R T B p 7.5.5.K H b 5 < < < 4 p x J P c p s R T L J F L L J F D Y c.[.@XE.v.v.Y }.v.9.-.;.9.n.]..XoX.XG.A.{..XoXoX-XoXaXaXdXfXfX X",
"    1 7.k.k.k.k.;.>.>.%.;.;.%.%.;.k.k.3.%.&.3.3.3.F.[.3X%.v.F.v.k.x.z.6., ; + ; ; ; & + & > > > > < < < > < < 4 4 3 3 3 + o 6 6 6 6 3 + o o o - < x < 6 x x c c D D H b x x z c x s 6 6 + 6 s s p 5 1 5 6 s x z z b x D 5 , x D H P P K R -.5.-.R K J b G x + l F F c x x 5 ; , ; , 5 , $ $ * $ , 4 , J D D D & , 4 s p , 1 , , K P T T R x p J J J H K J T T K J T J F F F F F F D & D K W 6.:.W E b K W :.d.c.6.6.W J ; I J J W 6.W W U J K T W 6.:.W W J ; x F K R R Y W 6.R T W T R R T R T B p 6.:.:.Y K H l 6 s s p s H T L D p s R T T K H J J J F F Y n.[.@X`.`.n.A }.'.v.%.-.9.v.`.].XX].G.F.]..X]..X.XoXsXdXgXgXdX X",
"    1 :.k.9.>.>.%.A -.-.7.7.%.=.;.=.=.;.=.=.;.=.3.k.'.3X] 3.k.F.'.3.k.6., * > > > > > ; > > > > > < < < < 4 , , 4 6 4 < + o 6 6 6 6 s 6 4 6 6 l l x < 6 D x b D H H Z b b b v v x x x S + s x z z s s 6 s D D H B B D D 6 4 x D J H P -.R R 7.:.-.Y K Z F x + x J F D D D s ; , ; ; , , o $ * $ , , 4 J F D D $ p s l x 1 e $ d W K T R T x p H J J K T U Y R K Y :.J b b F b F F D o D K :.:.6.6.R c T :.:.d.b.6.s.W J & F K Y W 6.W R Y K T R -.6.:.:.W K ; s b K R R T W :.T T -.R -.T R R R b p 6.:.-.K K H z x c p a z H T T D s x R T T K H J K H Z Z K E. X$Xn.n.z.K [. Xn.;.%.9.v.`.L.].{.A.L.].L.].XX.XoXsX.XoXdX-X'.",
"    1 :.7.k.k.;.n f @.-.>.-.=.=.3.=.;.=.%.%.%.&.;.3.F.2XA k.l.{.{.k.k.*.4 * > > > > > > > > > > > > < 3 4 4 4 , 4 6 4 , = + 6 l l x x l s x x x x x 3 6 F F b H H H H H H H b c c c D x > x z c b c x s x D D H B H D b 4 , x D J J K -.-.:.d.7.:.R K J F x & c J J F F D s , s , ; ; $ $ $ $ & 5 4 4 F F F J ; l x c b , $ q K W T W W W z s J J K Y W T T R K R 6.J b b c x D F D + F K W W 6.:.T c R 6.>.c.c.:.6.W J & T T T 6.s.6.R Y K R :.R 6.6.T T J ; x F Y :.-.T R W Y Y R R W R :.:.:.Z p 7.7.:.Y Y K b b H b c B H T T F s x W T T K J J J H Z Z Y n.v.k.9.>.k.%.|.{.n.;.%.9.v.`.].].K.A.].L.A.L.XXXXoXsXoXoXoX.X{.",
"    u b.n.k.z.%.9 a %.%.;.%.%.=.;.;.k.k.%.A =.=.;.F.OX2XA k.l.OX[.3.n.:.4 ; > > > 4 3 3 3 > > > > > < 3 4 4 4 , 4 6 4 , ; + 6 l x x x l s x F D x x 4 6 F F b H K K K H H H b b b F x x + x z z B b z s x x D H B B D b 4 , x D J J K -.-.5.d.7.:.R K K F F & c J J J J F s ; 5 1 , ; $ $ ; ; , p , , F F F L , x v F J b b J -.W R -.-.W c p J J K R :.R T Y Y T W K F b x x F F D o D K W 6.6.W T b R 5.d.c.d.:.6.W J ; T E Y :.d.6.R T Y :.6.-.6.6.T T K ; z H Y W W R R R Y Y R R R T R W -.b p 6.:.:.-.-.R K K K F J K K R T H x x W R R K J K K H Z Z Y n.n.v.`.n.v.%.[.'.l.;.=.9.v.A.{..X{.OX].A.G.G.XXXXsXdX-X.XXXOX{.",
"  . , :.z.k.n.n.>.] >.%.7.-.%.;.=.=.3.l.=.] ;.3.;.l.'.OX] 9.F.[.[.l.c.7.p ; > > , 4 4 4 3 > > > > > < < 3 4 , , 4 6 4 < - + 6 l x x D x x c F F F D 4 s F F D H K K K K K H b J J F x x + x z z B B v x x D D H J J H D p 4 x D J J P :.W 5.7.5.:.W Y K L F ; D J F J J H l ; , , , 5 5 ; ; ; 4 s , 4 D D F J , x c H K K K K W R R -.-.-.b p K J U R :.T E Y R 6.d.J F F c c F F D o D K 6.g.6.:.-.H :.6.d.d.d.d.j.6.J > E E K R 6.W T T T 6.7.:.7.6.R W T , c J Y T R R R T Y Y R W :.T Y R W Z p 7.:.:.-.-.R T P K H J K K -.W H x x W W R K J K K H H H Y E.[.'.[.E.v.%.}.n.z.;.;.3.v.`.F.A.].OXL.C.G.A.].XXoX-X.XP.XX.X{.",
"    u 7.z.k.3.9.[.'.9.&.;.;.%.@.%.;.3.;.@.@.;.k.;.3.l. X@.l.F.'.n. X'.d.1 ; > > , 4 3 3 > > > > > > > 4 4 4 4 4 4 6 6 6 ; - h x x D D c x D D D D F , x F F F H K U K T K H H K U J F x + x z c B z z c x c F H H J H D 4 4 D J J H H T -.6.5.6.6.W T K L F > c J K L J H p , , ; , l l , , ; 5 p 4 4 x D F F , x b F K K T R W 5.R R W W z p F U T R R Y R R W :.6.U F F c c F F D o x K d.j.g.6.R H :.:.d.d.d.g.T.6.E ; ~ T K Y :.:.R Y 5.g.5.6.:.W :.6.T ; c K R R T R W :.Y Y R W W R T -.-.H p 5.:.-.-.-.-.R K P B K R K -.-.J z z W R R T U Y Y J H H -.n.E.'.n.v.v.@.'.n.l.=.;.>.F.`.x.l.].OXL.L..XL.L.XX-XXX.X.X].-X{.",
"    p 7.k.x.3.3.k.k.3.&.>.;.=.;.;.;.3.3.&.] =.l.3.3.F. X%.9.v.'.x.K.n.7.1 ; > < , 4 3 4 < > > > > > > , 4 6 4 4 4 6 6 6 ; ; l x x F F D D F F F J F , x F F H H K K J J K J H J J J F x $ x z B M n z b c c F H H J H D 5 4 D J J H H H T -.-.-.6.W W T L F > D J H H J H p , 5 1 s s 1 ; ; $ , s p , x D F F , l b F J H T W -.5.R T W T z s F U T Y Y Y R T W :.W U F F c F F D D o D H 6.j.g.6.:.K :.6.-.d.E.b.T.6.W < ~ -.K K R -.R 5.g.d.d.:.Y T W 6.T ; c J T W E R W :.R Y R R R T R R R H p 7.-.-.-.-.-.R P P b Y -.Y -.-.K b z W T T E E T Y K H H -.E.$X$XF.`.`.K E.n.'.>.;.9.v.F.G.L.L.oXG.A.L.oX].XXOXXX.XoX.X-XOX",
"    p 7.k.x.i.;.3.;.3.;.;.>.9.3.3.3.3.;.;.@.=.3.=.=.F. X@.;.k.`.l.F.b.7.p ; > , 4 , 4 4 3 > > > > > > > , 4 6 , 4 6 6 6 > ; l x D F F F D F J J J F , x J L J J J J H H K K J J J J F c $ z c B A Y M b c D F F H J J D p 5 D H J H H F K R W T T T W T T F > D L P H J H l , s s l 1 ; ; ; & & 5 p , x D F F , s c H H H K W 5.5.R T W R p p F U T K K T R R :.W W U F F b F F D D o c Z 6.6.6.W :.Y 6.g.>.d.|.g.g.6.~ 4 f.6.R K -.:.R g.c.g.d.R Z E :.W T ; c J Y W W R R R T Y R R R R :.-.-.H p 5.>.-.-.5.5.5.-.R H Y :.%.-.-.J B z R T Y Y Y U Y K H Z Y E.'.`.`.v.k.K !.K.'.;.%.9.F.F.F.L..XoX.XL.L.L.G.].{.]..XoX.XoXOX",
"    p d.k.i.i.3.3.;.;.3.,.3.9.3.n.3.=.&.=.%.=.3.&.&.k.'.] k.'.{.l.'.E.g.p > > , 4 , 3 4 4 < > > 3 3 > < , , , 4 6 5 6 6 > ; x D x F F D D F J J J D , x L L K K J H H H J J J K K J F c ; z B B %.;.Z b c F F F F H H D 4 4 c F J H H H J T T L T T W W T F , D L L H H J x , s p 5 ; ; ; ; & $ > , * x D F F , p v J H H K W -.5.R T W T p p F T W Y K R W W 6.W W T J F b F F D c . x Z R :.:.:.6.T g.E.z.7.b.6.6.6.~ 6 Y.6.-.R R R Y 7.c.7.-.Y K R 6.W K ; c K Y R W R R T Y Y T R R R -.:.:.H p :.-.-.K -.5.5.-.-.J %.-.%.-.-.J c z W R K Y R Y U K K H -.n.'.2X X`.k.K !.n.n.%.%.9.v.x.G.G..X.XoX.XL.].G.K.L.L.G.-X.XG.].",
"    p k.k.k.l.x.l.3.=.=.&.%.;.;.3.3.k.;.;.&.3.l.;.;.3.'.A k.F.{.n.'.'.g.p > < , , , 3 4 4 4 , , 3 3 < < , , , 6 5 5 5 5 < ; l c x D F D x F J K J F , z K T K L K Z H J H H H K K J c x $ v B Z %.-.M c c F F F H H H b 4 4 x D J H H H F J K H L K T R T F , D T L L H H z 1 p 1 , 1 1 , ; ; ; , , $ x D F F , p v J H H K R -.-.Y K T T l z J E :.Y Y R W :.6.:.W E J F c F F F D . s c K T :.6.W Y b.b.n.b.c.:.6.6.6.6 ~.j.7.-.K K R -.g.7.Y R Y R :.W K ; c K Y R -.W W T E T T T Y U T W W H p 5.-.-.K -.7.5.R R J -.>.%.-.-.Z z z 6.5.R R R K K K K Z K '.[.3X[.'.v.A !.z.k.%.;.>.v.v.].{.G.XXoXXX.X]..XOX].].L.=XXX].F.",
"    a k.i.l.v.l.k.k.;.=.=.%.,.3.3.l.3.3.F.l.3.x.9.3.F.OX%.n.F.OX6X`.v.7.p ; < 4 , , 3 3 4 4 4 4 3 > > < < , , 4 6 6 6 6 > ; x D x D F F c b H H H H , z K K K K K B b F Z b H Z Z Z c x + c Z K K K B c v v b Z B B Z b 1 q z b H H J F F H H H H J K T T F , F K K K K J z p p 1 , 1 , ; ; ; ; 5 5 , v c F b , p v H b H K Y -.:.R T W W x z T :.Y K -.-.-.6.W W W T J b c c F F D . x x K T W 6.R Y b.b.[.[.z.:.d.7.6.p (.E.g.7.R T R T 6.W K R T 6.6.6.R , b J R R -.-.g.W E T Y E E E E E R J p W :.-.-.-.7.7.-.-.J ;.;.@.-.-.B z z W 5.-.-.R K K K J H Y E.[. Xv.9.9.%.{.n.k.%.3.3.l.`.].{.{.XXsX.X.X.XXXXX].XXOXXXL.OX{.",
"    p k.3.l.l.k.9.3.=.%.%.;.3.3.3.3.&.&.l.3.3.v.9.l.F.{.%.l.'. X6XF.7.5.p > < , , , 3 4 4 4 4 4 4 3 3 < , , 4 6 6 6 6 6 > ; x D D D F D c H H H H H , z K K K K K b v b H H H K Z Z b c $ b Z Z B Z J Z v v b J J J F b 1 1 b b B B F F H H H c c H T W U b ; F K K K K J z p p p 4 5 1 , ; ; ; , l v b c F F , p v J Z J K T :.:.R T W W s x :.g.7.-.-.-.-.-.R R -.T J b c c F F x . x x J K T E E Y b.E. X[.b.:.6.6.6.p ).E.c.d.-.Y K K W T K T T 6.6.6.W 1 b K -.R -.7.b.W U E R W W R E E R H e W W R -.7.5.7.5.:.J ;.-.K -.R H z z Q 7.5.-.R R K K H H -.n.K.F.l.v.0.-.'.'.n.=.9.l.l.v.'.'.F.XXoXoX.XG..X.X].OX.XXX].{.[.",
"    p k.3.k.l.9.3.k.3.&.@.=.;.3.3.&.&.,.3.&.#.=.F.v.'.OX%.F.].2X2Xn.E.7.p > > , , 4 4 4 4 6 4 4 4 4 4 4 , , 4 5 6 6 6 6 > ; x D D D F D x b H H H H , z K K K T K b c b H H J K K K F F $ b B B B Z B b v v b J J H b b 1 1 b H H H b c c b H B z z J W T b $ F K K K K J z p p p p s p , ; $ ; , p 5 c v c c , p v H J K K R 6.:.R E ~ Q x z :.g.7.;.;.>.-.-.R -.5.R J b c c F D x . x z D J T T Y Y 7.E.|.'.b.:.6.d.6.p _.E.c.7.-.T K K T T T T T -.-.5.W 1 b J -.R -.g.6.R T R W :.6.-.R W R Z e W W Y -.7.5.7.7.-.J >.-.K -.R B d z 6.7.7.-.Y R T K K H -.n.'.].F.`.`.;. X{.F.;.3.l.x.x.F.F.l.C.L.L.A.C.G.G.]..X].L.L.].'.",
"    a k.3.k.k.k.k.3.9.;.3.v.&.&.&.&.l.l.3.] ] &.F.l.n.2X%.l.`.[.{.v.z.7.p > > , , 6 4 4 4 6 6 4 4 4 4 , 4 4 6 6 6 6 6 6 > > x D D F F D x c H J J H , z K Y K T K H b b b b H K Y K H c $ b Z B B c c c c c b Z Z Z Z b 1 1 z b b b b b H H H B b b K E U c $ b K K J K H z p p p p p p , ; ; 1 5 p ; x v b c , p z H J K K R 6.6.-.R 6.~ c c R d.7.7.9.7.-.-.-.5.5.R J b c c c D x . x d J T J c l w z :.b.!.!.d.6.j.g.s _.E.d.5.-.-.K K T T T Y W 6.~ -.R , b K R -.5.5.6.R R W R :.-.R R -.R Z e W :.Y -.7.-.-.5.R J >.-.K -.R B d d 6.7.7.-.K T K K J J R n.'.F.A.0.v.;.=X{.K.3.l.x.n.A.C.A.L.G..XL.F.C.F.A.L.L.G.G.L..X'.",
"  . z k.i.3.k.3.3.3.3.;.=.k.3.3.&.&.l.x.&.] &.&.l.n.n.[.%.k.F.'.'.z.7.-.p , , , , 4 6 6 6 6 p 6 3 3 6 6 5 5 6 6 s s 6 6 < > x c D F F D x v H H H F , z K Y T T K K H H Z B K Y -.T L F $ H Z Z Z Z Z B c Z K K H Z H z , 1 z c b b b c z p p , 1 b b U J c $ b K K K K H z u p 1 , 5 1 , , ; 5 p v ; x c b c , p z b H Z Z Y :.:.-.R W ~ z b R 7.c.7.c.7.-.-.-.5.W P J b c b D F x o x z J J l , 1 e w e Y T.E.6.W 6.g.s ~.b.7.:.-.-.K K T L T K T :.W W T , b K R -.-.-.6.-.-.R -.5.:.Y Y R R b e :.R K K 5.-.-.-.K K -.-.K R P B p d 5.:.-.K K K K H J H R n.x.x.v.v.E.;. XK.=XF.l.A.F.G.].G.F.A.G.l.l.l.l.G.L.K.L.XXG.G.[.",
"  . z z.i.k.k.3.3.3.=.%.;.3.0.4.3.3.x.3.,.] &.;.l.l.l.[.A 3.v.F.F.9.>.R 1 > , , , 4 6 6 6 6 6 6 6 6 6 5 5 6 6 s s s s 6 4 > x c c F F F x z Z H H H , z K U T T K J J H H H K Y -.R R J * H J Z Z Z B b c J K K K H B z , 1 x b b b v p l Z R 7.B e v J J c $ b K J K K H z 1 p p p 1 , , , ; ; s b , x c b c , p l b Z Z Z K R -.-.W W W x v T :.d.7.9.7.-.-.-.5.R J F b c c F F x o x x D x ; 5 K d.7.B q W b.6.6.6.6.5 T.c.:.-.:.R K K R R T T R -.5.W T , c J R :.-.R -.-.-.K -.-.-.K Y R R c 1 W R Y R -.-.-.R K K -.R K R R B q a W -.-.Y K K K H H D K n.F.L.].v.0.-.{.K.].F.l.F.F.F.G.G.G.3.l.l.x.a.3.l.L.L.K..XL.A.`.",
"  . z k.i.k.k.3.9.9.;.=.;.3.&.&.&.3.l.x.3.&.3.A.k.k.'.$X] 3.l.v.x.3.>.Y p > , , , 5 6 6 6 6 6 6 6 6 6 6 6 6 s s s s s s 4 > x D c F F F x z H K K H , z K U T T K J H H Z H K -.-.-.R J * J J A Z b b B B K R Y K H B z , 1 c b b b v 1 p Z z Y z : v v b v $ b K K K K H z 1 p p p , $ , 1 , $ 5 b , l v c v , 1 l b b Z Z K Y Y -.:.W W x c E :.:.:.:.-.W T T W T F F c x b F F x + x z x , ; F J Z Y Y , z 8.W ~ W ~ 5 g.g.-.-.6.K H K W W W W W -.6.-.T , z K R 5.5.-.-.-.-.-.-.;.;.-.-.-.R c 1 W :.-.-.-.-.-.R K H R K Z K R B 1 p R Y Y -.R K H H D b K n.'.L.F.v.>.-.&XF.G.l.l.F.G.A.C.C.G.a.G.a.A.A.1.3.A.A.x..X.Xx.l.",
"  . z z.k.v.k.3.k.3.=.&.%.=.&.&.&.&.3.x.3.&.3.x.9.n.2X XA ;.v.v.9.;.-.K u ; , , 1 5 4 6 6 6 6 6 6 6 6 6 s s s s s s s s < > x x c F F F D x H K K H , z K Y T T K J J H F b K -.-.-.T H * J K A Z b B B B K R T J H B z , q c b b b v , , p a e e , z v c v $ x K K K K H d q p p l 1 $ , , , $ ; 5 , l c b v , 1 p c b b b J K K Y W W W x v E R R R Y Y K H K T T F b c c F F F D + x z z ; ; b z z B a $ 4 W ~ W T W 6 f.6.R R R J H K W R W W W W W W T , c K R -.-.-.-.-.-.-.5.5.;.-.5.:.W v , W 6.-.5.7.-.-.-.K Z Y K J Y T H 1 p K K K Y R K J B b b K n.K.K.F.v.0.-. X3X3Xa.a.l.L.L.G.C.l.i.A.=.3.a.3.l.A.A.K.L.G.F.v.",
"  . z k.i.l.k.k.k.3.=.@.&.] ] ] #.] &.3.&.&.i.A.l.n.OX2X] 3.l.k.;.>.d.R 4 ; , , 6 5 4 5 6 6 6 6 6 6 s s s s s s s s s s < > x c D F F F D b H K K H , z K Y T T K J J J H b J K -.R T H * H K A Z Z Z Z J K R T J H B z , 1 c b b b z p , e , , : , l v v z $ z H H J J B d u p p p p , , , , , ; , p x c b c , 1 p v b c b J K J Y R T W x x K R Y R Y U K H J U J F F b F F F F c + x x x , o > 1 p e % . x T W J J T < ~ :.R Y K J H K T T T E T K T W T , b K R Y R -.7.5.-.-.5.;.-.-.5.5.-.z , W -.-.-.5.-.-.5.Y Z U K J K Y H u p H Z B K R K B b b D R z.l.x.n.9.9.;. X3XOXa.1.G.G.L.L.F.L.x.l.3.3.x.i.a.x.A.A.G.A.l.z.",
"  . B z.x.l.l.a.3.3.&.] #.#.%.@.%.@.&.=.;.=.=.a.l.A.].OX%.3.k.z.d.:.6.W 4 > , 4 < 6 4 4 4 4 6 p s s s s s s s s s s s 6 < ; x c D D F D D b H H K H , b K T U U K J b J H Z K Y Z K T F , H K Z Z Z J J H K Y K J B B c , 1 z b H B b p , 5 l 5 , 1 v v z s $ b H H H J H x 1 5 p p x p 1 , , 5 , 1 s v b b v , 1 s b v z b J H J K T T E p x T R T L L L H J J J J D c c b F F b c o v x x 4 . . o $ $ o o p J J F J F 6 ~ Q K K K H b K Y Y Y R Y Y T W T , D K R R R 7.7.-.-.-.-.-.-.-.:.5.-.c p 5.-.-.-.;.;.-.:.Y b J b b b F F 4 6 F b b b J b v v c c K c.'.F.v.;.9.;.[.K.G.C.3.l.G.L.G.l.x.k.l.3.3.3.k.l.l.l.l.A.l.i.7.",
"  . b k.x.a.a.4.a.a.,.#.&.&.&.@.%.%.&.&.=.&.} &.3.x.].OX] =.9.v.k.*.R T 4 > > 4 3 < > ; > 4 6 6 s s s s 6 p s s s s s 6 < ; x c D D D D x b H J J H , b K T U U K J b H H J R R K J K H , K K Z Z J J J K K K K J Z b z , 1 z b H B c z , ; , ; , s c x x s $ c H H H J H z 1 5 1 p p 5 , , 1 5 ; 1 5 v b b v , 1 s b b b b H K K K T W E p x T R P H P L H D D D J D c c b F H F b $ c D c s & . . . . . $ z b b J T F 4 ! T K K K H K K Y Y Y R Y T R W P , b K R R R 7.7.-.-.-.7.;.-.-.7.5.-.c p 5.-.-.-.;.7.-.-.J c F b b b D c , 4 D c c c F v l x x x A c.`.F.F.,.;.%.[.{.].G.a.A.G.G.l.l.x.n.3.3.3.l.l.x.l.3.l.A.l.>.-.",
"  . c k.l.3.a.4.a.l.3.&.&.&.@.] @.%.%.] ] &.%.] 3.x.].{.] =.>.v.c.Y Y K 4 * < < ; + o o & > , 6 6 6 s p 6 6 p p s s s s > ; x x D D D x x b B H H H , b K T U U J b b Z H J R -.Y K T J , H K Z Z J J Z K R Y K K H b z , 1 z b H b c c z 1 , , p v b v x s $ v H H H H J z 1 p e 1 1 , , , , ; $ 1 , v b b v , 1 p b b B b H K R T T E E p z T R P J P L D D D D J D c c b F J J F $ b D D x 4 $ o . . o 1 b b b U T F 6 ! T K K K K K J K U Y R Y R W W K , x K R -.-.7.7.-.-.-.;.>.-.-.7.5.-.z u 5.5.5.-.7.9.7.-.H v F b b b b D , 4 D c v c F p s p s l Z k.n.n.`.0.9.&.'.].G.a.3.A.L.l.a.l.x.k.=.i.i.3.i.l.k.3.a.a.l.k.>.",
"  . c k.l.a.a.a.a.l.3.&.&.;.%.A @.@.] N A ] ] ] 3.l.{.OX] =.>.k.c.Y Y K 4 * > > + . o + ; > < 4 6 6 6 p 5 5 6 6 6 p s s > ; l x c x D x x b b H H H , b K T U U J b c H K K R -.Y Y K H , H J B Z K H b J Y R Y K H b a , e c b H b b b b c c b H b z z x p o z H H H H J z e p p p , $ $ $ ; ; $ x 5 v b b v , , 5 z b B H J K R T U T T s x T R P P P K D D D D J D c c b F J J F $ b F F D s ; o . . ; l b b b J J F < E T K H Z H H H K U U R Y R :.R K , z K K -.-.7.7.-.-.-.-.-.-.7.5.5.-.z u -.5.-.-.7.7.-.R Z v b b b c c c > 4 c c v F F s s p p p A c.n.F.{.v.;.%.{.F.l.l.x.a.l.l.x.C.x.;.;.i.i.3.3.k.k.i.a.3.3.3.7.",
"  . z k.3.l.a.a.4.4.3.;.&.;.&.@.%.] ] A ] ] ] ] &.3.n.].] ;.9.k.d.Z T T 4 * > & .   o ; > < < 6 6 6 s 5 4 5 6 6 p p 6 6 > ; l x x x c c x c b J K H , b K T U U J b b H K K R Y Y Y T D , H K Z Z K J z B K Y Y J B b a , 1 z b Z H b b b b b b H b z z l p o z H H H H J z q q p p q * $ , , , 5 z s x v b z ; , 1 z b b B J K T T K U T p x T T T L L H H J D H J H b F F J J J F $ b F J F x 6 4 , , p z b b c F F x < E T K b b H Z Z J U U Y R R :.W K , z K Y R -.7.7.-.-.-.-.-.-.-.7.5.-.d u -.-.-.K -.-.R Y b v b b b b c c , , c F c F b s 5 5 p p A z.n.[.{.v.;.&.'.F.a.a.l.3.l.G.G.A.&.] =.=.;.3.3.3.i.3.1.&.3.3.>.",
"  . B k.3.l.l.l.a.3.3.3.,.3.&.@.&.] ] A A ] ] ] &.3.x.].] >.k.9.-.K Y T 4 & & +     + > > < < < 6 6 6 6 5 4 5 6 p s 6 6 < ; l x c c c D x c Z H K H , F K T U U J b b H K T W Y K Y T c , H K Z Z K K c J J K K J b b z , 1 z b Z Z b b H H b H K b c z l 5 o z H H J H B z q q p u u , : , , , 5 p , l v b v ; 5 1 v b b b J K P T K T W l x T K P L L L J J D J L J b J J J U J F $ b F J F x x x s s x z H b b F F x < E T Z v c H Z b H K U Y R R R W Y , z J T R -.7.5.-.-.K %.-.-.-.5.-.-.a u 5.R R K -.-.K K v v v v v c c c , , c c c c c s , , 5 p A c.`.{.F.v.9.9.[.F.G.a.l.a.l.l.A.G.&.;.3.=.&.3.3.;.i.i.1.&.3.3.>.",
"  . B v.l.a.4.3.1.3.4.,.3.3.;.@.&.@.] N N } } ] ]  .l.].] >.9.9.-.-.R R 4 & & o     X ; ; > ; - < 6 6 6 5 5 5 5 6 p p 5 > ; s x x c c D x b Z H H B : H K T U U J b b J K R R Y Y R R b , H J Z J K K c J K K K Z b b d , 1 z b F F b H K H H H K b z z s 5 o z H H H H H z u q p q q , * * 1 ; 1 p , x c b c , 5 5 v b b b J K T T T T E l x T K P L R P L D D L P J b J J K T J H $ b F J F D x x x x c c H J J J F x < T K b c b Z H H H K U Y Y R R W P , z H K Y -.7.-.7.-.-.-.-.-.-.-.-.-.a u 5.Y Y K R R K J l l v x v v c c , , x c c c b x , ; 5 l M c.n.`.9.l.v.k.[.].G.l.A.l.a.3.l.a.&.3.k.&.=.=.=.=.3.3.3.&.3.;.>.",
"  . B v.x.l.3.&.&.l.l.&.;.;.@.] ] @.] A A } ] ] ` ] l.{.A %.;.k.>.*.Y Y 4 & & o       X . . o + < 6 6 5 5 5 p 6 6 6 6 5 > ; l x c x x c x b Z H H b $ H K T J J H b b J U Y K Y -.6.R b , H Z A Y T K z Z K K K B b b d , 1 z b H H H J K H H J K B z a s 5 . z b b H H H z q , p a a , % % , $ 1 s 5 v c b x , 5 5 z c b b H K T R T U K l x T K P R R R L H D J L H c J J K T U J ; F J J J F D c c x D b H J J J F l < T H c c c v Z J J K Y Y Y R W W T , z H K K R -.-.5.-.-.-.-.-.-.-.-.-.a , P K K K R P K b l l l l l v z x , , x z v v c c 5 1 s x M k.9.9.3.9.v.3.'.F.1.a.A.l.3.a.a. .&.=.3.=.=.=.%.=.3.3.,.&.1.;.-.",
"  . B v.x.a.4.3.a.x.3.&.&.&.A ] ] ] ] m A ] ] N ] &.k.'.] 3.n.`.c.:.R Y 4 * > +             X ; 3 6 6 6 5 5 5 5 5 6 5 4 < ; s x c c c D x b H H H b $ H K K J J J b b b K K K K -.:.T x , H Z K R R H p z Z Z Z B b c d , 1 z b Z H H K K K K H K B z p s 5 . z b b b b c a q q a a a u u , , ; , 5 p x v c p ; 5 1 z z z z H K P R R E T p z T K T R Q R K J D D J D z F F J T U J ; H F J J F F F F D F H H J J J F l < T H v c z p v Z H K Y Y K Y R W T 1 z K K J -.5.-.5.-.-.-.-.%.-.-.R R d u P K K K Y K H b s l x x l v x x ; > x c c x v c s p x x Z d.k.l.9.9.>.=.'.A.3.3.A.x.3.&.=.3.&.&.3.=.=.=.} ;.3.3.&.1.3.;.-.",
"  . B k.l.l.l.3.l.A.0.&.&.&.] ] ] ] %.} ] N m N ] =.l.F.] 3.v.'.'.>.K T 5 & & $ .         . o ; , 6 5 4 5 5 5 p p p u p > ; l v v v v l l x z b b z * B K K T K J H H H K K K K T T T s * c B K Z U b 1 l c b v z D D s * u z B H H K T R T K J K Z z c l < X 6 D B a b s q q e a a a e q p q * 1 p p a b b z $ 5 < l l x z b H K K T T T a d P T K T W K H b z z b b z b H K K K H , H L L L J J H L L J H H J J J F x 3 L H v z p p p z b K Y K K K R R T 1 x J J B -.-.5.7.-.Y R R R Y Y T T p 4 T K K K U K J F x s x x x x s s ; ; x x x z z z z p z z H 7.k.b.7.7.%.-.K.OXL.3.A.x.1.3.=.x.i.=.&.&.%.] ] *.=.%.%.=.&.&.@.",
"  . B k.l.l.3.3.3.l.3.,.&.&.] %.} A A } ] A A A } &.l.].] 3.v.'.`.>.K E 5 & ; & . . . . . . + ; , 4 4 , 4 4 4 5 p p p p > ; 6 l v h > > < 1 5 p x z $ b K K P K K H H H K K H Z B H L 4 * b b Z J F l , p v z x x x D s * u x B H J K T T K K J K B z c l < o 6 d B f p s q * q f f a p q p e : 1 p p p c b z $ 5 > 5 p z z x H K K T T T p p K T T R R K Z b c b b b z b H K K K J , H P L L H J H K H H H H J J F F x 3 L H z z e 1 1 p c K K K K Y T W R u x K K K -.-.-.7.-.Y Y R R Y Y T T s 4 T K J J K H H b x x x s s s s s ; > x x x z z z d p z x c 5.d.>.a B K %.n.L.A.A.A.a.3.3.} 3.a.3.3.=.} } %.%.=.*.*.=.&.&.A ",
"  . B k.l.x.x.3.,.3.,.,.3.&.%.%.] A A ] ] ] %.] %.&.3.F.A &.;.v.n.k.R K p & > & o . . o . . + ; > < < < < < < 4 4 5 5 5 > ; 5 5 5 < o ; 1 , > , p p $ z H K K K H H H H H H H b z b J * * x p e 1 v b ; l v z p a c x p * 4 x b H J K Y K K K K K B z z 1 ; . , q 7 7 q 4 q % q f a a a e 1 1 , p p p p c b z $ < ; > s z x p p b H K T T z p K L P T T K H b b b D b z b H K K K J , H J P P H J H J H H H H J J F F x 3 L H v c p p p z z Z K K K U T W T 1 z K K P -.5.;.7.5.R Y Y Y Y Y T U s , K J H J K H b c s s x x x x s s ; ; x x x z p a d p z z H 7.d.;.a B 5.-.n.F.a.A.G.A.a.3.=.i.i.3.1.3.1.&.%.=.%.%.*.] ] &.%.",
"  . Z k.x.l.x.x.l.x.3.&.&.#.%.%.] ] ] %.%.} } } 3.3.l.F.] &.&.l.v.>.K K s & > ; $ o o + o o $ ; ; ; ; ; > > > > < < , 6 ; ; < 5 < > o ; 5 < ; $ , 5 $ z J K K K H H b b b b F c a d b * , b z , $ > b 1 v l p p a z l 6 ; < c D H J K K K K K Y J b z z e ; . a K &.] % , p , e B a a z p p , 1 p p 1 p b b a $ < ; ; x c z p u p B J T T z a K P K K K K H b H H H F z b H K K L K 1 D J J H H H J J J H H H H J F F x 3 L H b b z z c b z b Z J K U Y T Y u c T R K -.;.-.5.-.Y Y Y Y Y Y U U s , K J H K K b b z s s x x x s s s > > x b z a p p p d b z H 7.7.>.A -.7.;.F..XG.A.G.a.i.3.=.i.3.3.,.&.&.&.&.%.%.] A A %.&.%.",
"  . B k.x.l.3.l.A.A.F.&.N ] &.&.&.} %.&.&.%.%.} 3.l.n.K.] ;.3.n.n.-.Z E s & > ; $ o + & o o & & ; ; ; - - - - - ; ; < < ; ; < < > ; ; > < < o . ; , $ z H K H H H B c b b b b z a p p $ , b b , $ $ x 5 l p p q e a l 6 = > x F H J K K K K K T H b x z q $ $ P 3.,.,.n , p q e a a a a p p e , , $ $ $ p b p $ > ; , b z b b 1 p b H K T z p T T T K J K H b H H H H z H J K K T K 1 D J J J L P J J J J H H H H F F l 3 T K Z Z c z b c z c b Z K K K T P u b W 6.R -.-.-.-.R K Y Y Y Y U T T s , K J H L K b v z l s s x x x s s > ; x x x z p p p d z a c 7.>.>.%.-.7.7.'.=X.XG.G.a.3.3.&.3.3.3.3.,.=.3.;.=.&.%.N A =.&.%.",
"  . B k.l.l.3.4.D.A.F.C.] ] 3.&.&.} =.=.&.&.&.} =.k.F.[.@.9.v.n.n.-.z T p > > ; $ o o $ o o & + o + o o o + + + + ; > ; o o ; ; ; ; ; ; > > o o ; , $ p b b b b z v z z z z z p p p , @ , z z 1 . $ , < 5 , B A w q e p = > x F H J Z M Z K K Y B c c d 1 $ . B @.[ #.a , p p p a a a p 1 1 1 $ 1 1 $ $ e z q $ o > s b p b b 1 1 b H H K p p T R K H H K H b H J H H z H J J K K K 1 b J J K P P J J H H D b b F F D s 3 T J Z Z c z c z z z c Z K K K T T 4 c W 5.R -.-.-.-.W K K K Y U K U K s 6 T K K K H b v v l s s s s s s p ; * x z z z d p d d z p c 5.-.;.%.5.5.%.'..XL.G.G.4.1.1.&.x.l.l.a.3.3.3.3.=.=.%.N ] &.&.;.",
"  . Z k.l.l.l.x.C.0.l.F.3.] 3.;.&.&.=.;.&.3.&.&.3.k.A. X%.k.F.F.n.>.B T p > > ; o o . . . $ < $ . . . . . o o o & > > & o . o o + ; ; ; ; o o o ; , $ ; p p z z p a p p a a p 1 p 1 * . , p 1 $ $ J ; < ; ; : K ;.A z , $ > l D b K B n B B Z K c c d p , o o f #.[ ] a > p p p p e p , 1 , $ $ 1 , $ p p b p $ < c v p p b b 1 1 b H Z H p p T T Y K K K H B H K H H z b H H K K J , z J H L L L J J J J b b c D F D s 3 T K Z b b c b B z z c Z K K K T T u x W 6.R -.-.-.5.W K Y Y K J H J K s 5 T K K J H b c v p s 6 p s s s 6 > & x z z z p p z p p p d 5.-.;.%.-.%.%.[.oXP.C.C.4.a.1. .G.A.C.4.,.&.3.3.&.;.=.=.;.&.&.>.",
"  . B 3.l.0.3.3.l.3.F.x.x.l.l.0.3.3.l.3.&.3.&.&.i.l.F.[.%.3.v.n.k.-.Z E 6 > & & o . . . . o , ; o o o o o o . $ * * * $ o     . o o $ $ o . . o $ $ o o ; 5 p p z p $ $ * $ $ : p p $ . . $ , $ $ R , ; . o $ 9 g #.N % . o > 6 s z z r e w p a , u & & & O . % t ) ] q + p z a % % % : , , , , p p p z p p 1 $ s v ; 1 p b p q p H K J K p p Y T T T T K K J K K H b z b H J K L K , z J H L H J H H J J H b D H H D s 3 T K Z b b c b b c c Z K Y Y R E T 1 b W W T W -.-.-.R J U Y K J J K K p 5 T K J H H b v x p 5 5 6 p s p 6 > & s z a p p p z p a a c 7.;.>.>.7.5.-.'.OX.XG.C.C.a.1.[ 4.l.4.3.,.&.3.3.&.;.=.;.=.=.3.9.",
"  . Z 3.3.0.x.4.l.l.].x.A.A.D.x.3.3.l.l.3.4.3.=.3.l.].{.%.3.k.v.k.>.Z T 6 > & & & & $ & o ; 4 > > > ; ; > > ; , , , , , > ; ; > , < , < < > < < > ; ; ; 1 p p b x p 1 , @ . p Z b p 4 $ $ , p p 1 s s 6 > ; $ r ] _ ) t q o ; + ; , Y Y e : p c d d $ $ O O + $ m [ g $ + , p q $ w z p ; ; , , p p p p z z v J c x < ; p z 1 p p b K H H p p K T T T R T T T K K Z c z F K K K K J , z H H L H J J H J J H b D H J D s 3 T K b c b b b c c Z K K U Y R W W p F W W T -.-.-.:.W J U Y K K K K U s 5 K K H b B b c x s 5 6 p p s 6 5 > & s z p p p p z z z z c 7.-.-.>.-.-.-.'.-XdX.XC.].].].C.3.a.4.l.4.3.3.3.3.3.3.3.%.;.x.v.",
"  . B z.3.x.A.l.4.F.].l.0.A.C.G.l.3.1.a.a.A.a.1.1.l.K.{.%.i.l.n.z.-.Z K p > > 4 1 p 1 1 1 1 4 4 1 1 1 , 4 4 u p p u u q p e e p a a p p l p a z a a z B M M m A A V M V z e z M n n n n A A A V n @.&.]  .,.2.,...[ [ N V M a n A V &.3.m 0 m } @.m w w i f g @.<.<.#.$.g , $ % $ q a i r a w 7 e p 4 $ p z M -.K B B a B B B K a a z c b s 5 T T U T -.6.W T T K H b s b H Z J K J , D D H H K H b b H H H b b F F c 6 4 T H z c J Z Z B B J K K Y Y -.R R p v T -.-.-.:.-.5.-.K Y T T T Y K K z 5 K K J H B b b l p 1 5 6 s p 5 , > & s l l s s p z b B z c 5.-.>.>.@.A %.`.OX.XG.A.F.G.x.,.3.3.l.4.3.3.3.l.&.&.a.1.1.].x.3.",
"  . B k.3.x.F.l.,.l.0.].F.G.L.A.3.4.x.G.A.a.3.a.3.x.'. X%.i.x.n.z.k.K T p > 4 p q p u q p u 1 1 1 , , 1 4 4 u u p u u u 1 p p a a a p p p a a a a a a n n n f n n n n M V n z n M M n n V A ] V g V ] [ [ ..2.2.1.&.&.m m m A %.] #.&.[ &.&.`  .&.] t m ] ] ] @.@.&.&.<.0.Z i e 7 w V @.A V K i q 4 4 o , z Z K B z B B K K B B B a a v c 5 < J K K T :.5.-.T T T H b s c Z Z Z H J * x b B H H H b b H H H Z Z F F c 6 , L H c B Z B K K K Y K Y %.-.-.R R 5 v T -.-.-.5.-.-.-.K T W R W T K K z p K K J H H b b z p 1 5 6 6 6 4 , > & s p p p p s z H K z z 5.-.7.;.@.@.&.[.3XG.L.F.C.C.3.,.4.3.0.3.3.3.l.3.&.3.l.1.&.a.=.%.",
"  o B 3.3.x.A.C.3.F.x.F.].F.A.l.3.a.l.G.3.&.1.3.a.A.L.].] =.;.3.9.z.K T 5 * 4 p p p p p p p 1 1 1 1 , 1 5 5 1 1 1 1 1 1 , 1 p p p p p p p a a a a a w w r a a r r r r a z a n n z r r a V A A A n V ] [ <.1.1.1.,.] ] m N A A A ] V ] m ] =.} } ] ] V N n m N m m j j ] &.,.&.&.] ] &.&.] ] K a u * 4 * , p z w Z Z a z Z Z p B -.B a p x 1 < b J K T W -.W R R T K H x b K J Z H H * x b D H H b b b H H H Z Z J F b 6 , L H c c B B K R R W Y Y -.-.-.R R 1 v Y -.R R -.-.-.R K R W W W R K K z 5 K K H H H b b z p 5 4 5 5 5 4 , ; $ s p s p 5 p b T R B z 5.-.7.-.%.@.&.`.OXG.l.l.4.4.&.3.0.,.&.3.,.,.l.l.4.4.4.A.]  .3.%.",
"  . B k.3.C.l.4.3.C.G.D.].C.A.A.3.3.l.l.1.=.3.3.a.l.A.x.m ] %.;.>.7.K K 6 > , p p p p s p p q 1 1 1 1 < 1 < , , , 1 1 1 , , 1 q p p a a z z z a a a w w r a z a e w w a M M M n z z z z M M V A V V V [ 4.4.2.,.&.] ] ] ] A M n m g m m } =.&.] N ] ] N j j m m k m m j } [ ..<...,.,...| ' %.e q q e , : 9 r 9 n Y r z A A r M %.%.z a z 1 ; c F K K T R R R R R L J c H K K J H J * x b D H b b b b b H J Z H J H F 6 , J H b z c Z Y Y R R Y Y -.-.:.-.R 1 l K R K K R -.R -.K T W W -.R K K z p K H H H H b b z p 1 4 4 4 4 , > ; $ s s s p 5 p b T R B z 5.-.-.%.@.@.] n.L.L.a.l.a.4.3.l.l.3.&.&.,.3.x.l.l.l.l.3. .] 3.n.",
"  . B l.a.4.D.F.l.4.F.F.F.3.a.A.l.a.3.i.3.3.3.3.3.i.K.K.N =.;.;.;.-.J J 5 > , p p p 1 p p 1 1 1 1 1 1 < < , , 1 1 1 e p 1 , 1 q a a d z z B z a a a a a a n z z z z a a M V V n z M M z a f n V V n m [ ,.[ [ ) ) ) N m j w 0 0 0 t 0 t k N m m m _ _ ) / ` '  .1...1.2.,.M.e.2...2.2.......3.t &.3.&.N m m ] m t A 0 w A ] n ] n A n z z e ; c F K K K T T T T T K H x H K K J J J * s b b b b z b b b H J Z H J F D 6 < J H c z z J Y K K T Y Y Y -.:.R R 1 l U R K K R T R W K K W W W T K K z p K J H H H b b z p 4 4 5 4 , , > ; $ s s s p 5 p H T R B a -.R K A A ] ] n.L.A.G.C.l.4.4.4.3.3.] N ] 3.4.3.3.3.3.1.1.3.L.n.",
"  . Z z.A.x.x.C.l.l.l.0.l.3.1.a.a.a.l.3.i.a.a.3.1.i.K.].A ;.3.;.%.Y K H 4 > , p p p p p p p p p p p p p p p p p p p p p p p p a d f B z z B B B n n M V A A K A Z Z A A %.%.@.A A A A A t n V ] %.] [ 3.G.G.4.4.l.3.3.3.3.i.l.a.a.p.a.a.C.L.G.A.A.L.P..XH.Z.H.oX.X.XoXP.2.S.S.M.o.o.2.N.Z.2.2.8 2.e.e.q.N.M.N.2.4.C.,.4.M.4.) y 0 A %.A z w , F F K J K T T Y T K H H c H K K K K H & s D b b b z b z B H Z Z Z F F c 6 < J H c c z B K K J K Y K Y -.-.-.R 5 v U Y K K Y Y T R K Z R W T K T T z p L J H H K H b z p p 6 5 5 4 4 > & o p s s p 5 p K T -.H z R K Y K A A %.`..XL.l.A.,.3.l.4.3.&.] ] &.3.3.3.3.l.a.3.1.l.F.n.",
"  . J n.G.x.3.3.3.4.l.C.l.4.&.3.1.3.a.a.3.a.a.a.&.l.l.{.A ;.k.;.%.-.K H 4 * , p p p p p p p p p p p p p p p z z z B z z z z z n B V Z B B A A K @.@.%.%.=.&.;.;.%.%.A %.=.%.%.=.=.;.=.] ] ] %.&.&.,.,.2.2.2.2.2.4.<.,.1.3.3.=.,.,.,... ...1.......X.q.Z.q.q.q.N.S.S.e.{ _ ,.,.,...' { o.M.N.Z.y o.q.q.+.q.q.N.N.2.S.2.Z.S.N.Z.' 7 9 %.%.Y z , F F L H J L L K L J H F c H K K K K J & s b b H B b b z H H K K H F F c 6 < J H B J B Z K K Z K Y Y Y -.-.Y Y 1 l J U K H K Y Y Y H b T W T K K K z 1 K H H H K J H v p p 6 5 5 4 4 , ; $ s s p p p z Y R -.H d T K R K M A %.'.{.oXG.A.1.,.3.3.,.&.&.&.&.&.3.3.,.l.C.C.3.l.A.k.",
"  . K l.l.C.F.l.l.D.x.C.F.F.A.l.a.,.1.1.1.1.1.1. .1.x.F.A *.;.;.-.>.-.H 4 * , p p p p p p p p p p p p e p a a a a n n a z n f n m m V V B V A @.] ] ] ` ]  .] %.%.] m n t n m j ] &.] `  . . .[ ] ....2.q...' ..2.2.,.,.a.1.1...1.2.2.2.2.2.q.q.q.q.+.q.q.N.q.e.2.2.2.<.[ &.=.&.,.[ ..' ....a.y ,.e.Z.{ ' o.2.M.o.N.../ ..e.M.q.N 9 } A %.K q b F J H H K K K K H b F c H K K J H H & s b H K H H B b H K K K J F F b 6 < F Z Z K J K Y K J K Y Y -.-.-.Y Y 1 l F J H b K U U U Z c T W T T K K x 1 K H H K T K H b z p 6 5 5 4 4 , ; $ s s s s l b T R -.J p T T Y B M V A n.].L.G.a.3.3.3.4.&.] ] &.&.&.3.3.&.3.l.l.3.a.l.k.",
"  . J l.x.0.l.0.0.l.4.l.G.F.A.a.l.1.1.1.1.&.3.3.&.=.l.l.m %.;.;.-.>.-.H 4 * , p p p p p p p p p p p p w a a a a a f B n n n g m m m m m m N ] ] ] _ ` ]  . .[ ] ] ] ] j t j n t `  . ... ...,.<...| ' o.o.{ ..2.2.$.$...[ [ [ ..2.q.o.2.o.X.o.N.B.B.+.q.N.S.M.2... .[ &.#.M A %.N m ,.,...$.;.0 &.<.M./ _ $.&.,.| ../ ` | a.X.X.} n *.M ] A z z F F b H K K J J H b b v b H Z Z H H & x b B H K H H b H K K K J J H c 6 > F Z B K J K R Y J K Y Y %.-.R Y Y 1 s F J b b J K K U H b K R T L K K z 1 K K H K T H b b z p 6 5 5 4 4 , ; $ s p x z v b K T -.K p T K J z M M A n.G.a.4.G.l.3.3.3.] ] ] &.&.&.,.3.&.3.a.p.A.G.x.k.",
"  . K n.x.z.l.3.3.l.3.4.G.C.a.a.a.3.1.3.3.1.3.3.&.&.3.3.m &.;.;.%.@.Y J , & , p u p u p p p p p p p p 1 p p a a a f g g f f f g g g g m m m ] ] _ ) ] &.[ _ _ ) N N r r z z n &.m ] | ....o.2.2.2...{ o.2.2.2.2.,.,.<.[ [  .[ 2.e.e.2.o.o.2.o.2.Z.q.N.N.B.Z./ [ &.#.] ] #.` / ..o.o.w.iXB.B.l.0 ,.2.e.y ] #.[ &.N N N ` } &.1.1.} ] 1.&.] n B l J D F J J J L J D c x v b H K J H F ; x D F J J H H J K K J J J J H c s > F Z Z J K K R K K K K K Y -.-.R T 1 s b H B b J K K T J b Y T T K K K z 1 K K H H K H c z p p p 1 4 5 4 4 > & s s x b H H K W W K p Y K J J B A V n.].A.4.a.a.4.3.&.] ] &.&.&.] ,.3.&.3.3.G.].L.A.k.",
"  . J k.x.z.;.;.3.l.l.,.C.C.C.a.a.a.a.3.1.3.i.3.&.3.x.x.m ] =.3.=.@.A b , $ * u u u q q u p p p p e , $ ; , p a a f f f a a a n f f f g n m N ] ] ) ] [ #.[ [ ] m r ; 1 p p q V m ` ' 1.o.........| ..,...[ [ [ [ [ &.[ ] [ [ o.2.M.2.o.,. .m k  .M.N.H.H.o.' ,.,.@.] @.] | o.q.B.B.B.iXiXB.x.0 ..2.4.t f g g M n r n n N &.3.] ]  .4.<.m r e p v b D J L J J D c c x l b H H H H F ; x D F J J J H H J K J J J J H c p > F Z H J K K P Y K K K Y Y R -.R T 4 s b H J H J K H K J b Y T T K K K z e K J Z b H Z z p p p p q 1 4 4 4 ; & s a x H H H H R W K p Y Y K K K K K '.L.A.A.a.1.3.&.&.%.] &.&.&.3.3.4.3.3.3.A.L.G.x.9.",
"  . B 9.x.>.%.;.3.3.C.,.1.<.4.4.a.a.3.3.&.3.a.3.&.3.x.x.m ] &.;.=.%.A c , $ * u e q q q q u p u q 1 $ X . o ; e p a a a a z z z n n a a a n M N N N N ` ] ] ] ] M e ; 5 s 4 & w N A } a.2.2.4.&.[  . .[ ] ] ] ] ] ] } ] ` )  ...2.M.2.2. .t 9 9 t ) M.H.I.....] 3.&.] V #.2.2.Z.B.w.B.B.B.B.D.w ..2.<.0 i f m A r 9 r M m &.3.m A ] ,.[ k j 1 p z D D F J J D x x c x l b H J H H F ; x D D F F F b b B Z J F F F H c p > F H H J J J K K K K K Y Y Y R R T 1 s b B J J H J J K J b Y Y T U U K z e Y K H Z Z b z p p p p p 1 1 4 4 ; & s z x D H H H T W T z Y Y K K B K -.K.A.a.G.3.1.3.&.&.} ] &.&.&.,.l.l.3.3.1.i.l.C.l.>.",
"  . z =.&.>.] ] &.3.3.3.3.4.4.l.C.a.3.4.3.1.1.3.,.&.3.l.N &.3.3.=.%.Y c , $ * u u e q q q q u u u , $ X . o o 1 p a a a r z z z z z z z r j n n m m m m N ` ] A M z ; ; ; $ $ z V N ] ,.1.4.3.] ] ] ] ] ] ] V N ) A ] ] N `  ...<.M.q.o.[ 9 * * 9 0 q.q.M.[ y t g m &.&.4.,.' w.H.w.B.w.O.w.0.8 o.2.4.0 a a n -.w 9 r n n A ] m m N [ ,.] A l 1 s x D F F F c x x x x l b Z J H H F & x c c c c b c c B Z J b b F F c p > F H H H Z Z K K K K K Y R Y K P K 4 s c z B J B H J P H b U K U Y Y K z e Y K Z b b b z a p p p p 4 1 4 4 ; & s z b D Z B b Y W T z Y Y K J B A K l.A.C.a.1.3.3.3.] ] ] &.&.&.&.3.&.&.3.1.=.1.C.x.>.",
"  . B >.&.3.;.] &.3.&.3.4.C.3.l.3.1.3.a.C.&.&.3.,.&.,.l.m &.3.l.&.%.%.b 5 & , p u u q q q q e u p q $ . . $ * p a a i a r n n n n n n n n f n n m m m m ` ) ` ` N M r $ . @ u %.] ' ..' | 2..._ [ ] [  .[ &.N m m N ` m m _ ..,.o.2.2.{ o.@.q p 9 k N.V.M...k ) C.,.<.<.$.q.o.{ V.O.w.O.B.B.0.8 ,.2.4.9 : w z M K 9 a f V @.@.) n t &.4.] M l > x D c F F F F x x x s l b Z J H F F & x c c c c x e , e c b b v b F c s > F J H Z Z Z K R Y K K K R R K K K 1 s b b H K J H H T J b K K K U T K z e T Y J H H b z p e p p p 5 4 4 4 > & s z b D H b c J K K a K K K B B V n k.G.L.C.4.,.1.&.] ] ] &.&.#.&.3.&.3.3.&. .1.4.3.>.",
"  . B >.&.;.3.3.l.x.l.3.3.3.a.1.&.3.3.a.4.,.3.3.4.<.3.3.m &.3.x.3.%.K c , $ * u u u e q q q q q q q q q * 7 w i i f f f t f g g g m m g g g g g g g g m ) ) ) ` ` k N n w 7 n ] ) ' ..{ { X.' | | ' ` ) '  .[ k ) ) g y ) ) _ ' ' { { ( { &.V B t ' +.B.N.X./ ' o.' o.{ +.q.+.{ O.O.O.w.B.w.0.0 ,.2.[ 9 p z z n K a f i g ] ] ] f n &.,.N n $ ; s x c D F J F x x x x z Z Z B B H F & l x x D s 1 z c p e l b b J b x s ; F b b b Z Z K Y K J K K Y Y R R K 5 5 b B J K J J K T J B K K K Y K K z 1 U K K K K J b p p p a p 5 1 , 5 > > s z z b H Z z J K J a K K K K K Z n k.F.A.C.a.,.&.&.&.&.&.3.&.&.&.3.3.3.4.3.1.1.4.3.3.",
"  o B ;.&.=.3.3.k.l.3.&.3.a.l.=.&.3.1.3.1. .1.4.4.4.l.4.) 3.0.x.v.>.K z , o * u q q q q q q , , 1 , 1 i q q i i i i f f f f g g g g g g g g g g g g g g g ) ) ` / k ` ` m N V ) k ` ....' ' ` ' ' / / k ` _ ) k g y g g y g ) _ _ ' ' / _ [ ] ) k ' o.+.X.{ / ' ' ' ^ { o.o.{ { { { { +.O.w.9.0  .[ ] w p z z B K n r f g m V ) w t #.[ ] z o < x x c D F F D D c c x z Z J J B H F & l x x s ; b K T K , 1 l c b c x s ; D c b b b b K J Z H K K Y Y R P K 5 5 b B J J J J H K J B K K K Y K K z 1 K K K K K K H b z z z p p 4 4 4 > & s z z b H Z c J H H a K K K Z K A A k.l.a.1.4.3.&.&.&.&.&.3.3.3.3.3.&.&.3.1.=.1.3.&.;.",
"  o B ;.1.&.3.,.,.l.l.&.3.1.i.=.&.1.&.3.4.<.3.4.0.0.4.l.) 3.3.3.;.;.%.z , $ * u q q , 1 1 1 1 1 , , 1 u q q u a p a a a a a z z z f f f f d a a f n n n V V V V V m V n n n n V M m A ] N N M M n t n n M M w w w w n n w w f m g m g m ] ] N N y m ] [ [ _ m A ] m t ] [ [ ` [ _ [ [ ,.<.4.-.9 ] ] &.a z z n A A r 9 n f m N m 0 9 t [ ] e o 6 x D c c D D c x c x s z Z J J H H F & x x p * , H p , p p ; p c v x p s ; c v c b b b K H B H K K K K K P K 5 5 b B H J J H J K H b J K K U K K l 1 K K K K U U K Z c c z p p 5 4 4 > & s z b b H b z H H H z K B K K K V m k.A.G.4.1.l.&.] ] &.&.3.3.&.&.&.&.&.3.&. .1.3.;.;.",
"  . J >.&.3.3.,.3.3.&.} 1.=.1.=.} &.&.4.4.<.<.4.C.D.C.G.] 3.3.3.&.;.-.c , o . $ @ @ $ $ $ $ $ o o o + $ $ $ $ $ ; ; ; ; ; > , , , 1 1 1 1 , , , , , , , q q u u u u q q , : , 4 5 1 q q q , , < , , e e e e 1 , , , , , : : : , 9 e q 5 p i w t w w a a f i a a p , q q 9 : : 9 9 q q e r i p : j m m a p p M M r r r %.N ] m ] A t m #.m % $ 6 s D c c D D D x x c z v H J J B H F & l x 5 $ o 1 1 q e , o , z x v x s ; F b v v b Z J H b H K K K K K K J 1 5 b B Z J J H H J H c H K K T K K l 1 K K K K Y T K b z b a p p 1 4 4 > & s z b b H b p Z H H a K -.;.7.-.K m l.A.G.4.a.a.&.&.&.&.&.3.&.] &.&.&.&.3.1. .1.,.3.;.",
"  . J ;.,.3.&.&.;.&.@.] &.&.&.1.,.1.<.4.<.<.<.2.C.C.G.]._ 4.l.3.;.3.-.c , . . . @ . . o o o . . . . . . . $ . . . o $ o . o o o $ $ $ $ $ $ $ $ $ $ $ $ $ @ @ $ @ @ @ @ @ @ @ . . o . . @ . . . $ . @ $ @ o . . . . . . $ . @ $ $ % $ $ $ % # # # % % % # % % % % $ % % # # % % $ $ $ @ $ $ $ $ q 9 9 a e a t n r r M %.V m m [ k m ] M % $ ; 5 s x x c b D b c x c b c J K J H H F $ x x s & . o $ , , o . 1 v v c x s ; F Z v v b H J J b B K K K K K K K 5 5 c b b H J H B H H b H J K U K K p 1 K K K K Y U J c z b s p 5 4 , 4 ; & p z c D H D s b c c a -.>.7.9.>.;.] A.F.C.1.4.4.3.3.3.&.] &.] ] 3.;.#.&.3.1.1.1. .&.;.",
"  . J ;.&.;.&.#.@.@.] ] ] #.&.&.&.3.4.<.<.<.<.2.H.G.C.G._ 4.4.3.&.3.;.b , $ * * * , ; ; , , , , ; ; ; , * , , q , , , , 1 4 1 q q e w w a w w r r r w r i w w i w a w w w w w e e e r w r w w r r r r a a a a a a p a a a f i i t t t f g n g n f g n n k m m m V m m m m g y g B a p p p s , ; * $ $ q r V j n w a B B n f ]  .' [ m % $ + ; 5 x x z b b b b b z c z z J J J H H F $ x x l , . . o + . . $ p v v c x s ; F H z c Z J K K Z B J K K K K K J 5 5 c b b Z H H B H F b F H K K K K p 1 Y K K K K K Z z l v s s p 5 4 4 ; & p z b H H b p x x c a >.>.9.9.;.3.] F.G.A.4.4.a.3.1.3.&.&.&.&.] &.&.] &.3.3.3.3.&.%.%.",
"  . J >.&.;.&.] ] ] ] ) ) #.#.[ [ <.4.4.4.C.2.2.Z.P.C.G._ 3.3.,.&.;.;.z , & 4 5 u 4 , 1 1 q q 1 1 1 5 p 5 p p a p p a a r a r w r t t g m m m g g n j j N m m m m N N m m N ] k m N A ] ] ] ] ` ] ) N N ) N N m m j m m m V ) ) y t t y m ) ) ) m k y ) _ ' [ ' [ [ ..' [ { o... .n a a a d 5 $ $ * d p q n V V w B z K B q V ] V 0 $ $ $ = ; 6 x z z b b b b b b c z z J J J J H Z $ z x x s & o . . . + 1 l l x c x s ; F J B B J J K K Z Z J K K K K K J 5 5 c b c b H H H H Z b H H K K K J p 1 K Y K K K K H v l l x s s 6 4 4 ; & 6 s D J D x s d d c n >.>.7.9.;.3.] A.G.A.a.3.1.&.&.&.3.3.3.3.] ] ] &.3.l.l.3.1.&.&.%.",
"  . J >.&.@.#.] ] @.] ] ] #.#.[ [ ,.&.,.4.C.C.4.2.Z.G.].] ,.3.3.&.&.-.z > o 3 s s 4 4 p u q q u u 5 5 s s p p a a i f i t t t t n k t t y ^ g g m m m k g ^ ) m m m ) m y y y k k k m N ] ] ) k ) ) ) m ) ) _ ) ^ ^ k g g m ) [ y t m ) ) ) ) ) k y y ) ` ' ' ' ' { { ' { O.q...| 0 @ @ . @ $ * ; * , * q r M n M A p b u $ * % @ $ ; $ > + ; 5 x z z b b b H b b z z B K K J H H F $ z D x x 5 > $ o $ 4 l l l v c x s > J K H H J J K J B c Z Z K K K K H , 6 c c z b D H H b b b H H J K J J p , K K K K K K H v l v x s s 6 4 4 ; & 6 d D D D x p d d c B 7.>.9.z.3.=.] F.L.A.4.3.,. .1.3.3.i.C.3.&.,.;.3.l.l.A.l.3.3.3.*.",
"  . J >.,.#.@.] ) ] V ] @.@.[ [ &.3.,.,.4.4.C.4.2.4.G.].) &.3.3.&.&.;.z , o & 4 * & , u u q u u u , $ ; 4 1 1 p a f g f f a w f n n t t n ) g t t t N m w y m N m 0 0 t m g 0 k ` ] g 0 0 g &. .t t V m m ] [ _ ^ / ) ) ] V r w w n m y y m ) N 7 7 t g m k ' ' ' ..y ' 4.o.+.o. .# . . o & , ; , $ . @ b w a z a % @ , 4 & . > $ ; < > 3 + > p l z z b b b H b z z z z J J J H H F $ x x c c s s s p p x l l v c c c l > J K J J K J K J c z c b Z J K K H , 6 c x z c b B b z z b B H H K H H p , H H H H H H b l s x x s s 5 , 4 ; & p x c b D x p x d x B >.;.k.l.=.=.] ].G.C.4.1.&.1.3.=.=.&.a.3.&.&.3.3.A.a.a.3.a.x.3.;.",
"  . K 9.,.#.@.@.] V V ] ] @.&.&.&.3.,.,.4.4.4.<.<.4.C.C.) &.;.3.3.3.;.b < o . .     . $ 4 u u u , .     o o $ q a a B w $ $ @ $ p a q a a B B % @ $ % % w i z z : . . . $ % q V M q . . . . w ;.n % @ . @ u B g t m g n q . . $ $ , c 9 : n B q @ $ p * $ $ % 7 t t 0 m %.[ 1.%.q .   X 3 6 , 1 , $ . . s p z p $ . $ , $ . + & > > < 6 3 - > s x z z v c b b c z z z B J J J H H H $ x x x x x s x x s x l x v c b v x ; T K K K J K Y J c z z c Z Z H K J 6 6 c b z z x z b z z b b H H K K H p , b c c H H b c p p l s s 5 5 , , ; $ 5 s c c x d s d d s f >.>.7.k.] =.%.F.G.A.4.,.&.&.&.&.%. .&.3.l.#.@.&.4.x.,.4.l.l.3.;.",
"  o K >.3.;.#.#.@.] ] @.] @.]  .] &.1.1.1.l.3.....4.C.L.N &.;.;.&.;.-.z ; o           . 1 u 4 , o     X + + . $ p z B ,         . . * D 4 $ 4 > +     . 4 s 6 .     .       o 5 $     O . . @ V A p   . .   . , a B 1 .     O - > & ; $ $ , $ .   . + .     . @ r @.V 9 : 9 z $   o O O 3 6 < 1 4 > $   . $ $ . . $ p p $ . & 3 < < 4 6 6 > > s x z b b c b b c z z z B J K J H H H $ c x x x x z x x s x l v v b F c x ; T R T K K H K Z c z z c Z Z B J H , 6 z z z z z z z z z z z b H K K H p $ z z c H H b b p p p s 6 4 , , > > $ 5 d c D x s p s d s n >.-.;.;.] ;.%.F..X.Xa.,.&.&.&.&.=.&. .&.3.&.&.&.3.3.1.4.a.a.3.;.",
"  o J %.3.,.@.#.] V ] @.] ] ] ` ]  .&.[ [ ,.[ [ [ 4.l.L.V =.3.=.&.;.-.z ; X             o , , * . X - + +       . * , .         . & > p & . * 6 3 X     . o     + & + + .           O O   . q ] %.K o     + & 1 , , .   X O - 3 6 p p < $ $ $ o + & & + O   . e A m >.B @ .     X X + o 6 5 1 5 5 4 3 & .     . . , z p q * $ , , , , s s > > l v z b b c b b c b b z z Z K K H H H ; c x x x c x x x d x z v b F F c x ; ! W R K J H J b b z l b K Z B H b , , x z z z z z z z z z z c b H H b p $ p z z c c b c p 5 p s 6 4 , > > ; o 5 s x x z s p p s s M 7.-.>.;.] ;.] F.L.G.C.,.&.1.1.&.&. . .&.&.] #.&.&.1.1.3.l.3.&.;.",
"  o K ;.3.3.&.#.@.] ] ] ] #.] ` ] } &.&.[ [ [ ,.,.<.l.L.V =.;.%.%.&.%.z ; o   X           o o & X X 3 2 +           . .   . . o * , , , $ o & 6 > X     o o o > 4 5 6 5 ; . . . .     O . u @.,.t 9 :   + 2 x x o .       - 3 6 p a z p p p p 5 4 3 5 3 -   : ] &.] 3.n @   X   X + ; $ e e 1 5 5 6 4 > o   o o . , z a a q * u e , 1 s s > , x v c B b c B b c b b c z Z K K K H H * c D c c x z x x s x z v b H J c x ; W R K Z H K J B Z b l b K Z B B b , < x z b x z z z z z c z z z b b b p $ p z z p z z z p 1 1 5 5 4 4 , > * o 4 s d s s s u p s s M 9.-.9.>.A %.] A.F.C.A.4.&.&.&.&.] ]  .&.&.] ] &.&.&.,.3.a.1.&.%.",
"  . K ;.,.,.;.#.] ] ] ] ] &.] ` ]  .&.] ] [  .&.[ #.l.F.] &.&.] &.;.-.z ; - + + o .           .     - 3 +         + + ; . . . o * , , 1 , o & < - .   . ; > 4 5 s s p p 5 ; $ o o $ & . $ H K g 9 9 z . . o > &   . . .   3 6 s z z B M c v c x s p p s < . w K t 0 f w @ X   + ; & ; ; e w p 5 6 6 4 4 ; + $ ; o , a r f a , a a e p x p , , x x c B b b B B b b b c c H K K K H H , b D D x x s s x s x v v b H H c x > W T H c Z K K Z Z b z b K Z B F c , 6 x x b b x x c c z z d d x b x x u * l p p 1 p l p p 1 , , , 1 1 , , ; o , p p p p p 4 p p p B 7.%.3.3.V @.] A.F.C.C.3.&.&.&.&.] ] ] ] %.] ] ] &.&.&.3.3.&.&.;.",
"  . A &. .&.,.#.] ] ] #.#.&.] ] ] ]  .[  . .&.&.] [ C.F.) ] ] ] &.>.-.c , > > > & $ .               . ; +     . + > > ; o . + + + < 4 > ; . + ; + + . + , 6 6 s s s s s s 4 > * * * * o . > * , s 1 p ; . + + o + + + ; X 6 6 s c v Z K Z Z Z v s s x l 6 . $ d B K R ,     . > < $ ; ; 4 p p s s s 6 5 5 , & , $ , e w f a a B b p p z z , 4 s x b b b b b b b b b z b H K J H K H * D D D c x x x x x c v v b J F c x , T K B b b K K H Z b c H K F H D c < 4 x D D D D c x d z z x d x x d d , * p 1 ; ; 5 s p 5 1 , 1 q q q q 1 , o > q 1 1 q p 1 q e q z 3.&.1.3.A R %.G.G.C.4.3.&.,.&.%.} ] ] ] ] ] A N &.&.&.3.3.3.;.;.",
"  . B V _ &.,.&.#.&.#.] #.&. .}  .] ] ] &. .,.3.&.&.l.l.N ] ] ] %.-.Y b , > < > ; ; +         . o + + ; & o o + > 4 < < + o < < . + & ; ; + . . + ; + ; 6 6 6 s s s s x s 6 4 > > > > o       . , p x $ . ; < < 3 6 > < o 6 6 s c c K Y K K J c z x x s < ; . @ a B p o X   + 6 4 $ ; ; 4 s s s s s s s s 5 ; 5 , , q p a a a z z z z c z , u d c b b b b b b b b b z c H H H H K H * D D D D x x c D D D c v b J J c x , T K H B b H H H H H H H K H F F c > < s x D D c c c c x x x x d s s s , * 4 1 ; ; , 1 5 1 1 5 p p p p p 1 , o ; , , , , 1 1 , , q z 9.3.3.;.K Y A l.A.4.a.C.3.3.&.&.&.%.%.] ] %.] ] &.=.=.3.,.3.3.;.",
"  . B ] ] &.,.&.,.3.&.#.&.,.&. .&.&.&.&.&.[ ,.1.,.,.3.3.V V A A A %.K b > 4 4 , , > ; + . o . + ; ; > > < > > ; 4 6 6 6 + ; 6 6 < ; o . .     . < 4 & < s 6 s s s s s s s 6 4 < 6 4 4 + . .     . * > . * , , 6 5 5 , 4 o 6 6 l v c K Y K Z K b b b c l 6 = . $ @ $ . ; > + ; s 6 $ > > 4 s s s s s s x x p > 6 1 ; 1 p u q a b z p z z z , u d c D b b b b c c b c z c Z H H H K H * D D D D c D D D F F b c b J J F c > J H Z H b Z Z H H H H b b F b F c > < x c b x x c c x x x x x s s s s 4 ; , 1 , ; , , 1 1 1 p p p p p u , ; $ > , , $ $ : , , , q B k.l.4.3.%.-.@.A.a.4.a.A.a.3.3.&.] ] ] ] ] &.&.&.3.3.3.3.3.3.3.>.",
"  o K ;.&.&.,.&.3.0.3.&.,.3.1.,.,.&.3.3.,. .,.1.1.1.k.l.m M A K A -.Y b , , 4 , , ; > < & & $ & > > < , 4 4 , < 6 6 6 5 - < h 6 6 6 < ; o o ; < 6 6 ; 4 s s s s s s s s s 6 5 < 6 6 6 ; + - + . o o o > 4 5 5 p p 5 1 5 + 6 l x v B Y Y Z Z K H b b b x 6 = $ p p , 5 s 6 , , s p $ > > 5 s s s x s s x x s > 6 < ; $ $ $ 1 z z z p c z z , u d c D b b b b z c b x z z Z H H H K H * D D D D D D D D F F b c b J J F c > F F b H b b b b b b b c b H b D c < 4 x c c x x x d d d d x x z s s s , * * $ $ $ $ $ ; ; , p p p p p q , $ o > , $ $ $ $ $ , q p M v.l.p.3.%.:.%.A.C.C.4.L.C.3.3.&.#.] ] ] #.=.&.&.1.=.1.3.3.3.,.&.",
"  . Z ;.3.,.&.,.3.l.3.,.&.3.&.&. .1.a.,.4.3.<.a.4.3.i.9.M M A A K -.-.B , , 4 4 1 , ; > ; $ $ ; , , , 4 4 4 4 4 5 6 6 6 ; 3 h l 6 6 6 , 4 6 5 6 p 5 $ 5 s s s s s s s s s p 6 6 6 6 6 - - ; ; ; < 4 * 5 4 p p p p p p 5 $ 6 x x b Z Y R A Z K Z Z H b l 6 ; + l l s s x x s 4 s 6 & ; > p s s s s s s x x s > , , < < > 5 p x z z z c c z , p x c b b H B b z a z z z z b H b H K J * D D c c c D D D D D b c b F J c x > F H b b z B b H B z z c c b D F c 4 , x d d x x x d s d s s x x s 6 6 , o * . $ $ $ $ $ $ $ p p q p u , * $ o ; $ $ $ $ $ $ * 1 1 M v.a.4.i.>.k.%.C.G.A.a.G.4.,.,.3.4.&.] ] &.&.3.3.&.1.&.3.3.&.&.%.",
"  . K ,.3.3.&.&.,.4.3.&.&.3.4.&. .,.4.<.4.4.<.a.S.4.3.=.V A B B K -.K B , , 4 4 1 , , , ; ; ; ; , , 4 5 5 5 5 4 5 6 p 6 ; < l l s s l 5 6 s s s s 6 $ 5 s s s s s s s s s s s 6 6 6 6 ; < < 6 < 4 4 4 p p p p p p p p 1 $ s x z c Z Y -.A Z K Z Z H b l 5 ; $ l x p p z z s u s p * ; > p s s s s s s x x s , 5 5 6 6 6 5 s z z z p z c z , p x c c b H B b z a z z z z b Z b H K J * D c x x x c D D D c c b b F H b x , F F z z x z b b b z p z z b b D x , > s d d d z d s p p p s s s s p 6 , o ; $ , , , , , : * , 1 , , q 1 , $ o $ $ $ $ $ $ $ $ * , B v.l.4.l.>.7.@.C.P.S.4.C.4.4.4.3.3.&.#.&.3.&.,.&.] &.=.3.3.&.&.@.",
"  . Z 3.3.3.,.,.&.1.3.1.1.3.C.,.&.,.1.<.4.4.2.4.S..Xx.0.] %.M B %.;.K B , , 4 4 4 1 , , , , , , , , 5 6 5 5 5 4 5 p p p ; 6 l x l x x s s x s x s p $ 5 s s s s s s s p s s s s 6 6 6 ; < 6 5 4 5 4 , p p p p p p p p 1 $ s x z B Z %.-.A A K K Z Z b z p ; ; l v z z b x d u s u $ ; > 6 s s s s s s s s p , p p 6 6 6 6 p z c d p z z z , p x c b b H H b z p z z z z c b H J J J * D D c x x c c D D D v v b J J D x , D b z z p z z z z p p p z v b c x < ; s s d d s s p p p p 6 6 6 s 6 5 > $ , 1 q p u 1 1 1 1 1 , , , , p p 1 > < 1 1 1 1 $ $ $ $ , M v.A.C.l.7.>.] C.S.C.4.C.a.4.4.4.3.,.&.&.l.3.1.&.] &.3.3.&.,.&.%.",
"  . Z ,.,.&.&.1.1.,.3.1.3.3.1.,.,.,.1.<.<.2.4.e.H.oXdXl.] @.K @.;.9.-.B , , 4 4 , 1 1 , , , , , , 1 p p p p p 5 p p p p ; 6 x x x x D s s x x x s p $ 5 s s s s s s s p 6 s s s p s s ; , 5 6 4 5 1 , p p p p s s p p 1 $ s v z B Z -.%.A A K K Z Z M z p ; ; l v z z b z d u p u $ ; > 6 s s s x s s s s p 4 p p p 6 6 6 s d d d p z z z , p x D b b H H b z p p z p p z b F J J J * D D c x x c c x x s p l c F H c x > c z p z p z z z p p p p p l z x 6 > ; p s s s p p u 4 u 5 4 4 4 5 6 , ; $ 5 1 q u u u q u p p , * , , q p , , < 1 1 1 1 $ $ $ $ , M 9.C.C.,.-.-.@.C.M.e.e.4.a.0.l.4.,.3.3.&.x.l.4.3.&.&.,.&.,.3.3.;.",
"  . K 3.3.&. .&.&.&.1.1.3.3.3.a.3.,.1.2.<.4.e.2..XoX.X.X] @.-.;.;.9.-.B , , 4 4 4 1 , , ; , 1 1 , 1 p p p p p u p p s p > 6 x c x x c s s z x x x p $ 5 s s s s s s s s s s s s s s s ; , p p 4 p p 1 s p s s s s p p 1 $ s v v B Z -.%.K A K Y K Z b z s ; ; l v z z z d d u p 4 $ * > s s s s x s p s s p 1 p p p s s p s d d p p p z z , u z D b b H H b z s d d p p z c Z J K J * D c v x x x x s 6 , ; p b b c c x ; x p p z s z z p p p 5 1 5 5 p s 5 ; & 4 p p p 4 , , , , , ; ; ; < < > & & 5 1 p p p p u u p p , $ : , , , , , , , , 1 , $ $ . $ , Z l.C.4.&.=.>.%.C.Z.C.e.2.4.4.a.4.3.4.3.,.C.l.3.1.1.,.1.1.1.3.3.;.",
"  . K 3.1.,.3.3.&.&.&.&.3.&.3.a.3.,.,.2.2.M.Z.M.Z..XG.C.N ] %.;.=.>.-.B 1 > < , , 4 3 > > , , , , , u p p p p u p p p p ; 5 v v b b b p l z z x x 5 + 5 l l p p s s s p s d s s p s 5 ; , 5 5 1 p p u s d s s s p p p 4 $ s x v B J -.%.A K K K J Z b l h ; = l v l v c z p 1 p , $ $ , p l p p z p p p p p , p p p s p s s d d p p p z z , 1 z b b D D D c x d d d s x v c M K K K * D v v v v 5 6 6 G D 5 p c c c s p ; x s p p p p x 6 5 6 , > , , , , 4 * $ 4 1 1 , * $ * $ $ $ ; $ ; ; ; & & > 4 6 5 p p q u p s s 1 : : , ; , 1 1 , , , , ; $ . . $ , M k.C.0.&.=.;.@.C.G.C.4.<.4.4.4.4.4.3.&.a.a.3.1.1.1.1.1. .1.&.1.%.",
"  . -.v.3.&.&.3.&.&.,.,.3.3.3.3.3.3.[ ,.4.e.e.2.e.G..X3.] ] A ;.;.=.%.Z , > > < , , 3 > > , , , , , p p s p p u p p p p ; 5 v v b b b p x z v x x 5 o 5 l l p s s s s p s d s p s l p ; , 5 5 1 p p u s s s s s s s p 5 $ s x c B J -.Y A K K K K Z b x h = = l v z v c z s 1 s , $ ; , p s p p a p p p p 4 , p p p s p s s d d p p p z z , 4 z b b D D D D c x d s s x v c Z K K J * c v x l v l , 6 6 5 1 , x c z s s $ x p p 5 5 1 p p 1 q 1 1 , 1 e e e , $ p p q q , , q q q 1 , , , , , * * , 1 1 e q q q q q u 5 1 : , , : : 1 e , $ $ : : $ $ * : , z i.3.3.3.} =.=.l.G.4.4.<.4.1.4.4.4.,.[ 1.3.a.3.1. .1.1. .4.1.=.=.",
"  . K 3.1.1.,.,.&.1.3.&.3.,.;.3.3.3.&.<.4.e.4.4.M.M.C.,.` A A %.=.=.%.Z , ; ; ; ; ; > > ; > ; , , , u p s s p u p p p p ; 5 v v b b b x v v c x s 5 o 5 l l p s s s s p s d s x s l p ; , 5 5 1 p p u d d s s s s s p 5 $ s v c B J -.Y K K K K K Z v v h = ; l v l z z a p 1 s , $ ; , p s p p p p p p p 1 , p p p s s p s d d p p p z a , p z x x x D D D c x d s s z v Z Z K K J & x v v c l : $ 1 1 e p , , 1 , , 5 $ l s 5 4 1 , w Z a r a a a z z z a a p z B B K M f V m g n z B B z B z u u B n n f t w a a a p q : , p q q p p , q q p a a p a a p z ;.&.&.3.%.%.&.l.F.&.1.l.4.1.,.,.&.&.[ <.3.a.a.a.2.a.2.1.1.1.3.*.",
"  . B &.,.3.,.1.,.3.3.,.,.&.&.3.3.3.&.,.,.<.4.2.M.M.4.&.m ] ] ] %.;.%.B , ; ; ; ; & & & $ * * ; , , u p s s p u u p s p ; 5 v v b b b z v c c x s 5 o 5 l l p s s p p p s d s p s l p ; > 1 5 1 p p u s s s s s s s p 5 $ l c b B Z -.Y K K K K K B z c l = ; l z l p a p 5 , p , o $ , p s p p z p p p p 1 * p p p s p s d d d p p p s p 1 p z z x x c D D x d s s s x v Z Z Z K J $ x z c p e z M n n r p 1 $ $ $ $ p $ p p , : : % 9 A n w r r a a a w w a a a a e M m g ] ] g y M M V f n Z f f V ] &.&.] m m V z e q * q B B a z a , e e w r r r r r w n ;.&.3.3.%.%.=.D.C.&.3.4.3.&.&.,.&.,.<.e.4.4.M.C.M.S.M.4.1.1.a.>.",
"  . B 3.1.3.&.&.&.&.1.3.4.1.&.&.3.3.,.4.4.1.1.2.2.M.C.3.m ] A ] %.;.Y B , ; ; $ $ ; & & & ; ; , , , p p p s s p s p s s = 5 x z b b b x x v v x x 6 o 5 6 l s s s s s p p s d x s p p > , 5 p p s p u s s d d d d s p 5 $ l v c B J -.Y K A K K J c z x l o ; v v p z p p p 1 1 ; o $ , p s p p z z p a p 1 * p 6 p p s p d d d p p p d p 1 1 z z z x x x x x s s s s x c Z K K K K $ x z p , z M z e r e , p , p c a z , e p p 1 : % a m t 0 0 r z n M n a a r a i w m ] m [ [ [ t n V n f w w V V g m [ ) k t N M r , , * q a a i a w $ q 9 r r a e 9 9 9 z >.,.3.3.@.%.;.0.G.3.3.3. . .1.3.1.,.<.<.$.4.C.S.S.M.M.C.p.3.3.i.",
"  . f @.,.a.4.<.1.4.4.4.a.4.3.,.3.4.3.4.2.,.,.,.2.4.].3.N ] ] ] %.;.%.c 1 ; ; $ $ $ & & & > ; , , 1 p p p s s s s p s s = 5 x z b b b z z v z x x 6 o 5 s l p s s s s p p d s x l l s ; , 5 p p p p u s s x z x z d p u $ s x c B J -.Y Y K J K Z b z z 5 = ; v c z p q q p 1 1 ; o $ , p p p p z z p z p 1 * p u u s s p d d d p p p d p , 1 z z z d d d x z s s s s v c Z K Y Y K * x z e e Y z e r j j z z z J K z a , a p z z a 9 n ] t t n r r z M M a 9 r n i n A m t [ ,. .y t n w w w f A f w t y t m ` N M a : : $ , a a a a , $ q 9 r r r 9 9 9 9 z >.;.,.3.@.K ;.3.F.a.4.1. .[ 1.3.1.4.<.<.e.e.Z.Z.M.M.A.1.1.1.1.=.",
"  $ -.3.1.a.4.4.4.4.4.4.4.4.C.4.4.4.4.4.2.2.2...1.4.3.1.` #.] ] @.;.-.z 1 * ; + o o o o $ ; ; , , 1 p p s s s s p p p s ; 5 x z b b b z z v z x x 5 o 5 s l s s s s s p p d d x p l p ; , 5 p p s p u s s d d d d s p u $ s x v B Z -.Y %.K Z J Z c z z 5 ; ; p p p , * * 1 1 , ; $ $ , p s p p z z z z p 1 * p u u s s d d d d p p p z p , , z z z d s s s d d s d x c c Z K Y R U * x x p , c p r r n n z w a z z a p : a a p w a q a M n M M r w B B B w 9 a n r f V t t %.&.] m r f n a 9 n B % 7 M n V ] V w a a , ; ; , a a a a , > w w a w w q 9 w e a >.;.3.9.%.M @.;.F.3.3.4.&.[ 1.4.a.4.<.,.4.C.G.G.,.4.2. .a.x.1.>.",
"  $ 7.v.4.a.a.4.4.4.4.4.C.G.C.e.e.M.N.S.M.p.M.2.a.4.L.&.N &.&.&.@.;.-.B 1 * ; + o . .   . & ; , , 1 p s s s s s s p s s > s v z c c b z c v z x x 5 o 5 h l s s s s s p s x x x l l l , , p p p s p u s s s s s s s p p * s x v B B -.K K A Z Z B c z z p ; ; p , z p * % , 1 , ; $ $ , s p p z x z d z p 1 , p u u p d d d d d p p p p p , 1 z z z s s s s d d d x x c c Z Y Y Y K * x x v ; $ e e e z n w : e a B a a % 9 q q q : $ $ q z z a q p B c p q w p n w w n f 9 n M M n 9 e B a % a u % , a z n n w a Z z * > ; , p i p a 1 > e q q q e q q q q a >.>.3.v.;.A @.;.].<.<.a.<.,.4.C.C.4.,._ [ a.4.C.a.L.S.p.p.a.a.k.",
"  $ 9.F.C.M.S.C.4.4.a.a.C.S.e.e.e.Z.M.S.aXS.M.1.1.a.A.3.k ] &.&.%.;.-.Z , * ; + . .     . > > , , 1 p s s s s s s p s s > 6 v z z z B z c v z x x 4 o 5 l l s s s s s p s x x z x s l , , p p 5 s s u s s s s s s s p p $ s x z c B Y K K Z Z Z B c z z p ; ; 1 $ B K p q , 1 , ; $ $ , s p z z c z p z p 1 , p u u p d d d d d p p p p p , 1 z z z d s s d d d d x x b c Z Y Y Y T , D x b s $ o : q a Z q % % % a w a % q : : $ $ $ . $ * $ $ $ $ , * $ : * , 9 9 r r 9 : q 9 w q : , q p , q p u * , e q , : z z p , ; ; $ q q q p 1 ; : $ $ * , , q , , a 9.;.;.9.;.%.;.3..X4.<.4.4.,.<.C.4.<.3.1.,.a.a.1.C.4.C.C.3.3.a.i.",
"  $ >.F.C.4.M.Z.M.2.4.e.4.e.e.Z.M.C.G.4.S.H.H.2...2.a.p.m ] ] =.=.%.%.B , * ; $ .       . & > , , 4 p p a a p p p p p p ; l v z B B B z z c v v s 4 o 6 s l p a z z z p p s z z a z a , 1 p p p p p p p s s s s p s p 4 $ s x v c B J H H b b Z Z c z z 5 $ , < ; $ b b 1 1 , , ; o $ 5 p a a a z z p s s , > 5 5 1 p p a a d a p s p l p , , x x x z a p d s d z z z b b Z K K R T , D H H H p $ . $ $ 1 & . @ @ $ @ $ > s , $ @ $ $ @ o o . o o . . . . . . $ $ $ $ $ @ $ $ $ $ $ . o o o o o & & o o $ $ $ $ : 1 1 , $ $ * q e * , * $ $ $ $ $ $ $ * * , a 7.%.&.;.>.@.>.3..XC.4.1.a.4.4.0.4.l.3.1.&.&.] &.a.p.1.1.a.1.3.&.",
"  * 7.C.e.2.e.M.M.M.e.M.e.M.C.M.M.C.M.2.S.S.C.S.,.1.a.1.m ] ] =.=.%.%.B , ; ; $ .       o & > , , 4 p p a a a p p p p x ; l v c Z B Z z x c z z s 4 o 6 s s p p z z z p p s z z a z a , , p p p p p u p s d s s p s p 4 * s x v z B Z Z Z b b Z Z c z z 5 $ , 1 , $ , , , 1 , > ; o $ 5 p a a a z z p s s , > 5 5 p p a a d z d a s p l p , , v x x z z s z z z z z a p c Z K K R T , D H L J b z 1 , p p * $ , q q 1 1 $ 4 * * , , * $ $ * * $ $ o o $ o $ . o $ $ . . @ $ $ $ $ . o o o o o o o o o o $ $ $ o $ $ $ $ o $ , q u q , $ $ $ $ $ $ $ $ * $ $ a >.%.&.%.;.@.>.3.XXC.4.1.4.4.4.4.4.C.p.C.a.1.1.l.A.a.p.G.3.a.3.3.",
"  $ 7.F.M.4.M.M.C.C.e.M.M.C.M.M.M.Z.S.4.4.M.G.C.a.4.P.C.m ] ] =.;.=.%.B 1 > > ; o . . o $ * , , 4 4 p p a a a p p s z z ; l v c Z Z Z z x z z z s 4 o s s s p p z z p p p p z z a z s , 1 p p p p p 4 p d d d s s s p 4 ; l v v c B B Z Z c c Z b c z l 5 $ , 5 1 , , $ , 1 , ; ; o $ 1 p p p a z z p p s , > 5 p p p p a a d a p s p l p , , x x z z z z b b c z z p s z Z K K R T , D H K J J B p $ p p $ q z z a a d * s p q q q q , , , , , , , , 4 4 4 o $ & $ $ $ $ * * * * * * & & $ o . o $ $ $ $ $ $ o o o $ $ o o $ , , , , @ $ $ @ $ $ @ $ $ @ @ q ;.=.=.=.#.#.@.&.G.a.4.1.,.,.,.3.3.3.<.4.a.4.l.C.A.C.G.a.} C.a.3.",
"  $ >.A.4.M.S.S.C.e.e.S.S.Z.C.M.4.e.M.M.M.M.Z.P.4.C.S.,.)  .%.=.;.;.%.B 1 > , , ; + + ; ; ; , , 4 4 p p a a s p s z z z ; l v c B B Z z z z z z s 4 o s s s p p d a p p p p z z a z s , 1 p p p p p 4 p d d d s s s p 4 ; l c b B B J Z Z c c Z b c z l 5 $ < 5 p 1 , * , 1 , ; $ o $ 1 p p a a z z p p s , > p p p p p a a d a p s p l p , , x x z z z z b b c z z x p z Z K Y R T , D H T R K J B , p 1 , B K A Z B z , D z a a a a p u 1 u p p p 4 5 5 p o * 4 , , , , , , 4 4 4 , , ; * o o o o o o o o o o o o $ & = . o ; , $ $ o . . . @ @ . $ . . @ q ;.&.&.3.@.#.@.3.].C.1.1.,.4.3.3.3.4.4.4.G.G.C.C.G.a.4.` ] 1.l.k.",
"  $ >.x.4.e.Z.Z.C.M.4.M.C.S.C.e.e.M.S.Z.Z.S.C.e.2.1.C.a.) &.&.=.;.;.%.z , , 4 , ; $ ; > , , , , 4 p s d x z z s z z z z ; l v c Z Z Z b x z z z p 4 o s s s p p s s p p p d z z a a p , 1 p p p p p 4 p s s s s s s p 4 ; l c b B B B Z Z c b b c c z l 5 $ < 5 1 1 1 , 1 1 ; ; ; o $ 5 p p a a z z p s p , > 5 p p p p a d d z z s p l l , , x x x z z z b z z z z z x z B K K Y K * D J Y W R J K a z q p K %.Y K Z c 1 J B B B z a a p p p p p p p p p s $ 5 p p p p p u p p p p p 5 4 , * * $ $ $ : , , $ o + & > > = o o ; , $ $ $ o . . . . . . . . $ e >.=.=.3.@.#.#.x..XC.1.4.4.0.4.3.0.C.G.<.4.C.C.4.4.4.4. .3.a.l.3.",
"  $ 7.A.4.M.C.e.M.M.M.M.M.C.M.e.e.M.S.S.S.G.H.M.S.C.M.a.k  .&.=.3.;.-.c 1 , 5 6 , ; ; < , 4 , , 4 p s z z z z d z z z z ; l v c B Z Z b z z z z p 4 o 6 6 s p p p z p p p d z z p p p , 1 p p p p p u p p s s p p s p 4 ; l v c B B B Z Z c b b b c z l 5 $ < 1 1 1 1 , 1 , ; ; ; o $ 5 p a a a z z p s p , > 5 p p p p a d d z z s p s l , , x x z c b z b b z z z z z z B Z K K K * D K R -.-.K Y K B a B -.%.%.%.Z B 1 L K B B B B z a p p p p p p d s s $ p s p s s s p p p s s p p p 1 4 , $ , p z z a a p p , , < > ; ; , , , $ $ $ $ $ $ @ . . $ $ $ i 3.3.1.l.9.9.&.F..XC.4.4.4.3.,.3.0.0.4.,.<.e.4.3.<.4.4.1.a.a.4.3.",
"  $ 7.C.4.e.e.M.C.C.M.M.2.M.e.e.e.e.C.M.e.e.S.M.2.S..XA.m &.,.,.k.;.%.z 1 4 6 5 , , , , < , , , 4 p s d z z z p z z x z ; l v c B B B b z z z l p 4 o 6 s s p p a z p p p s z z a p p , , p p q p p u p s s s s p p p 4 ; l v b B B B B B c b b b c z l 5 $ < 5 p p 1 , 1 , $ ; ; o $ 5 p a a a a a p s p , > 5 p p p p a a d z z s 5 s p , , x x z b b b b b z a z c z c Z Z K K K * D K -.-.-.-.Y -.K B %.>.=.*.%.A B , L K A A A B B z a p p p z z z z d * s d s s s d s s d x z s p p p p , $ , z B n n B J B p , , > , , 1 u q 1 1 1 4 4 * $ . @ $ $ $ w 3.3.3.].D.D.,.C.G.4.4.3.,.3.,.,.3.3.4.,.<.4.4.3.<.,.,.1.a.4.3.&.",
"  $ ;.C.M.4.4.e.e.M.M.2.4.C.C.C.Z.e.M.M.4.M.C.S.M.e.C.C.] &.3.3.x.3.-.c u 4 6 5 5 5 4 , < , , , 4 p s s a d z p z z x z ; x v c z B Z b p z l l p 4 o 6 6 s p p a z p p p s z z a p p , 1 p p p p p u p s p p p s s p 4 ; s v c B B B b B c c b b c z z 5 $ < 5 p p 1 , 1 , ; ; ; o $ 5 p a p p a p s s p , > 5 p p p p p a d z z s s p s , , x x z b b z x z z z c b b b Z Z Z K K * D K -.-.-.Y Y :.K Y *.>.>.=.*.A B , L K A A Z B B z a a a z z z c z d * d x d d s s s d x x d p p p p p p , 1 B V g f V n z a q $ ; , 1 q q q q 1 1 1 4 , $ @ @ $ $ $ w 3.3.3.G.].v.,.G.F.4.4.4.,.&.&.,.,.3.3.&.&.,.3.3.3.3.,.1.a.4.,.&.",
"  $ >.C.4.e.2.4.M.C.M.2.e.M.4.M.Z.M.M.2.4.M.Z.S.M.2.S.M._  .&.3.l.3.-.c u , 6 5 5 5 4 , < , , , 4 p p a p a d p z z x z > l v c c B Z b l z p l p 4 o 6 s s p p a z p p p s z z a p p , 1 p p p p s u p p p p p s s p 4 ; l v b B B B b b c c b b c z z 5 $ < 5 5 1 1 , , 1 ; ; ; $ $ 5 p a p p a p p s p , > 5 p p p p p a a z z s s p p , , x x z z z z z d z z b H b c B Z Z J J * D Y -.:.-.-.-.-.-.-.=.u.i.i.%.A B , L K A A Z M B z a a z z z z c a d * d x x z d d d x x s p p p p p p p 1 1 B m t w f a a a q % ; , 1 q q q p q 1 1 p 1 , $ $ @ $ * w 3.4.3.l.3.;.] 4.A.a.a.4.,.,.&.,.,.,.3.,.3.3.3.3.3.,.,.1.M.C.4.,.",
"  @ ;.4.2.Z.M.2.M.S.M.C.e.e.M.2.4.,.C.a.a.M.e.S.M.N.C.C.) ] &.a.x.3.%.B 1 , 6 6 p 4 4 , , 4 4 4 4 u p a d d z z z z b x ; p z z z b c z s l s s p 4 o 5 p s p p p p s p p x z z a p p * , p p 1 p p p u p p p p p p p 5 ; x z x b B B B b b b B b c z z 5 $ , 4 5 u 4 , 4 q , > ; - - 6 p p p s s s s p s > ; e e e e s s s s s l p s s 5 , , x x l a z z z z z c B Z Z b B J K J J , F K -.:.>.-.;.;.;.;.;.3.3.>.-.K B 1 K A A A M B z z a z v c z z B a a : p z z z z z a p p p e p p p a a p , $ < , > * & & & + o + . + & $ $ * , > ; ; & o . . . . $ * w >.4.4.C.3.i.] G.F.l.a.a.3.,.3.1.=.,.&.[ &.&.1.1.3.&.&.1.3.l.4.;.",
"  $ ;.4.4.C.C.4.M.C.S.C.2.e.M.M.2.1.4.2.4.e.2.e.M.G..XA.` &.3.l.x.3.%.z 1 < 6 6 p u 4 1 , , 4 4 4 u p p z z z a z z x z ; p z c z z z l s l s s s 4 . 5 5 s p p p s s p p z z z p p p * , p p 1 p p u u p s p p p p 5 5 ; x z z b B b b b z c b c z z l 1 $ , 4 4 4 , , 4 q , > > - - 4 p u p s s s s p s > ; 1 e e 1 p p s s s s p p s 6 , , v v z p a z z b B H H Z b B B B K J J , b K -.>.>.%.>.>.9.;.3.k.9.7.-.K B 1 K K A Z B B z z z z v v z z z a a , p z z z z z d d d a p l z a z c x 5   . . . .                         . o .   . o $ * ; , , * e >.0.4.a.3.i.] ].G.4.4.l.4.,.1.1.1.,. . .,.&.,.1.1. . .3.1.4.3.;.",
"  $ ;.C.C.C.M.4.M.C.S.P.M.S.S.S.a.4.1.4.a.2.2.C.G.S.S.C.] 3.3.l.A.3.%.B , 3 6 6 p u 4 4 , , , 4 4 6 p p z z z p z z z z ; p z z z z z l s s s s s 4 . 5 5 s p p p s s p p z z z a p p $ , p q 1 u p u u p p p p p p 5 5 ; l p z b b c b b z c c c z z p , $ , 1 , , , , , * , > > - ; 6 p u p s s s p p s > ; 1 e e 1 p p p p s p p p s p , , c v z p a z b b Z J Z B b Z B B K J J , b K :.7.>.-.k.k.z.3.9.k.9.>.-.K B , J K Z A Z B a p z z z z z z z d p , p z z z z z z c c z d z z z z z z p o 4 , , , > o . . + o + o .   . o * > ; & ; , 4 4 , 4 4 4 w ;.3.<.3.3.i.m l.C.4.4.C.4.4.3.,.,.,.,.1.,. . .1.1.&.1.a.1.1.,.;.",
"  $ >.l.4.e.e.2.e.M.C.S.M.M.H.S.S.M.4.a.C.2.2.2.S.M.C.A.` &.&.3.F.l.%.c 5 < 6 6 p 4 4 , , , , , 4 6 s p z z z p d z z z ; s p p p p p p 5 p 5 p 6 4 . 5 5 s p p a d s p p z z z p p s $ , p e 1 u u u u s p p p p p 5 5 ; l p z b b b b c z z c c z z p , $ , 1 , , , * * * , , > ; ; 4 u u p p s p p p s > ; 1 1 1 1 p p p p p p p p s p , , c c v a a z c B B B B B b Z B B J J J , F K :.7.>.-.k.7.k.k.k.k.3.>.-.K B , H K Z Z z , * : 1 p l z z z z d p , s x c c c c b B c z z z b c B B b s + l p p 6 5 & $ , 6 6 6 4 $ . . . ; , 1 , 4 5 4 4 4 4 4 4 a >.3.4.l.3.>.m D.D.C.2.2.<.4.4.4.4.3.3.4.1.&.,.1.&.,.a.a.1.,.,.&.",
"  $ 7.l.<.2.Z.M.e.M.Z.M.C.M.2.N.G.C.1.a.C.2.2.2.N.M.S.A.m ] ] &.l.3.%.z 1 < 6 6 p 4 4 , , 4 , , 4 6 s p d z a p p z z z ; p p p u u p 5 1 , , 5 5 > . 5 5 p p p a z l p p a z a p p p $ , e 1 1 4 4 , u p p p p p p 5 1 $ l p z b c b b c z z z z z p p , * , , , , , $ , * * , > ; ; 4 u u p p p p 6 6 6 ; ; , < 1 , q , q a p p p p s p , 1 b c c z a z z Z B B B B b Z B B K J J * b Y :.>.>.;.k.>.3.3.k.k.>.>.-.K B , H K K z , $ , 1 , , 5 s z c c d p , s x c c c c B B c z z z b b B c b s + l s s p p ; ; 5 l 6 4 5 ; o . $ , 4 4 , 4 5 4 u p 4 4 u p ;.9.0.F.l.=.n v.].Z.2.<.4.e.4.e.4.4.3.4.3.3.1.,. .&.4.4.,.,.3.&.",
"  $ >.C.4.2.4.e.M.M.M.4.M.Z.M.S.a.M.a.A.G.e.2.M.2.4.a..X] 1.] =.3.;.%.z < < 6 6 p 5 , ; > , , > , 5 s p p p p p p a z z , , 1 , , , , , ; ; ; 4 4 * . 5 5 p p p p a p p p p p p p p p $ , 1 * , * , * , 4 4 p p p p 1 1 ; p p z b z b b c z z z z z p p , * , , * % : q K u , , * * ; 1 u u u p p 6 4 4 5 ; $ < , , % % q a K p p p p p p , 1 b c z z z z z z B B B b b Z B J K J J , D Y -.:.7.>.k.k.>.3.k.v.3.>.-.K B , J J B q $ $ 1 1 ; * * < p z d d p ; s x c c c c B b b z z z z c c c x x + s s d p p , $ ; 5 5 < , & . * * , , u 4 4 4 4 4 p u u 4 u ;.9.0.A.n.*.M 9.G.C.2.2.4.4.M.M.a.4.3.3.3.a.4.&.[ 1.1.3.1.,.,.=.",
"  $ -.l.C.C.M.4.M.M.4.2.4.e.M.2.2.M.4.L.G.M.Z.Z.,.2.a.l._ 1.] &.&.&.%.z , < 6 6 p 4 > & ; > & ; > 5 s p p p p p p p z z ; ; , , , * $ $ $ o $ ; , & . 5 5 p p p p p p p p a a p p p p $ $ $ $ : $ $ & * u 4 u p p p 1 1 $ p p z z z b b c z z z z z p p , $ * $ $ : % 9 a z , * * * * , 4 u u p p 4 4 4 6 ; & < < , , w B f K a e p p p p , 1 b c c z c z z z z B B Z c c B B J J H * b K -.-.>.;.k.3.;.>.k.k.>.>.-.K B , H H z , $ , 1 1 ; & $ $ , p d d s ; 6 x c c c z b b c z z v c z z c x x + s a z d p p * o $ $ & . . $ * * , , u 4 4 4 4 , u , q , p ;.9.3.3.>.Y n %.4.4.C.2.4.4.3.3.4.4.4.3.,.3.4.1.a.l.3.3.1.,.,.&.",
"  $ ;.l.M.C.C.M.M.C.M.4.4.M.M.e.2.2.2.4.M.e.C.S.M...P..Xm  .&.&.] &.%.z , < 6 4 4 , & o & ; + & ; 4 p p p p 1 , 1 1 p p $ ; , q 1 , , ; ; ; ; , 4 * . 5 , 5 p p p p p p p p p p p p p $ , p p z u $ . * , 4 u p p p 1 , $ p p z z z z c c z z z z z p p , $ $ * : : % : e p * * * * * , 4 4 4 4 4 4 , , 6 ; & < > , a K f w K a q e p p p , , b c z c c z z z c B Z B v c c B B B H $ b Y -.-.-.-.>.;.;.;.9.k.;.;.-.K B , J Z c 1 $ , s 5 > & + o ; s x s s ; 6 x z c z z z z z z z c c z z c b x + s a z a p p , $ .   .   . $ * , , , , 4 4 4 4 4 u , , , p 7.9.3.;.;.A n @.l.a.C.C.4.3.1.1.1.3.a.3.,.4.1.3.4.4.a.3.1.,.3.;.",
"  $ 7.A.4.C.Z.Z.G.P.C.M.4.e.M.Z.a.1.p.M.S.S.G.S.Z...A.-Xm  .3.x.3.3.;.z , > 4 > * & o o & & + $ ; , 5 1 1 1 , * * , , , $ , 1 p q 1 , 1 5 p 5 5 4 * . 4 , 5 p p p p p p p p p p p p p $ , p p p d p . $ u 4 4 u u p 1 , $ p p z z z z c z z z z z z p p * @ $ d K n r % % * $ * * * * , 4 4 , , , , 4 > 4 ; & < > , a K g f a e e p p p u , , b c c c c c z z z c c c v c c B B B B $ b Y -.-.-.%.;.%.>.;.3.9.;.%.%.Z B , H J b p , $ ; ; $ . o . & s d s s ; 6 x z c z z z z z z z v c z z c b x $ x z z a p p p , $ o . . o , , , , , , 4 4 u u u u q u u d 5.@.] ] A A A @.l.F.3.4.1.1.3.3.3.3.a.3.,.a.3.3.3.&.1. .,.,.,.3.",
"  $ >.G.e.M.S.Z.S.Z.M.M.2.4.C.e.N.2.N.S.M.2.C.e.e.2.G..Xm &.;.;.3.3.=.z , ; > + o . o - - - o o + ; < , ; , ; ; , 1 , ; & ; , 1 1 1 , q 1 6 5 4 4 * . 5 , 4 , , p p p p s p p p l p 1 $ $ e , e p s . $ 5 , 1 4 4 4 < < o 6 s l z z z z z x l p s p p 5 + o . z a a a % $ , $ * , , * > < > ; ; : * * 3 4 $ % $ , : z A r 9 q p p p p w q q , b D b c c c z z b B b z a z z b b b b * B Y -.;.;.%.;.K >.;.9.3.%.A K n B % H M n n z a * $ o . . . * s s s p $ p z z z z z v z z z z z z z c c c p $ l x x l s s s 1 ; $ o $ > < , , , * , 3 6 5 p e p p u q a A z z z z K V ] 3.G.3.l.3.3.&.1.3.3.4.<.,.4.3.1.&.&.&.} =.1.&.%.",
"  $ >.G.S.S.H.P.P.N.M.M.2.2.S.C.M.C.4.M.C.M.C.M.M.2.4.,.] 3.;.&.3.&.%.z > > - . . . o o + + o . X o ; ; ; , * * , , , , + ; ; $ , , , q $ $ , 5 4 $ . 1 , , ; ; < 4 , , , 6 6 < , , , o $ ; $ , , s & . < < ; > , 4 > ; . , 5 p p p p s s p p p p 5 1 , + + . p e 9 % $ : * * , , > ; > > ; = ; $ : p > 3 , % $ $ q M V 9 : q u p p p w e , , b b c c v c z z b H D c z c d z x z x , z A %.-.-.%.-.n -.-.>.7.K J K B D $ D B z z z z 1 o .   . o 4 s s p p $ u z z z z x x z z z z z z x c z x p $ p s s s l s 5 6 > ; ; ; ; > , , , , , 3 , 1 1 , e p a p r M p z c z Z V 3.l.C.a.4.4.,.&.,.3.4.4.3.<.,.1.,.&.,.3.=.3.3.&.%.",
"  $ >.C.e.M.I.oXP.C.N.M.2.2.M.N.M.2.4.C.C.e.e.e.N.4.4.a.) &.&.9.l.;.%.z > = +   . . . + ; ; $ . . o $ $ $ $ $ , , , 1 , o o o o , e q w $ $ , 1 1 $ . , $ $ ; + & > > > + o & + + + > o . . . . & s 4   + o & > * * $ $ . $ , , 1 4 1 , , , * , , $ $ o   . . * q B e @ q $ $ * , ; ; ; ; ; - $ $ p T D D z M z : : M n 9 9 e q p p p p p , , b b z z z c c b b D D c a z c p z p p * z Z Y Y Y K K 9 -.K -.:.B H J D D + x b z p p p & . .   . $ 5 s s p p * 4 s x s p s s x x x x x x x x x x x $ 5 5 6 5 s 6 5 6 , < > $ + $ , 4 1 , , , , , : : q , q u a M w p x z z A ]..X.X4.4.4.1.&.,.3.4.4.4.4.1.3.1.&.1.3.=.3.3.&.&.",
"  $ >.C.e.M.M.G.oXH.S.Z.M.M.M.G.H.2.2.2.C.M.4.M.M.2.<.4.m ,.v.l.l.k.%.z ; ; < ; $ $ $ ; , , , ; $ ; , $ $ $ $ u p u u p $ $ $ $ w a q 9 $ $ , p q $ @ q , , ; ; ; , , , ; $ $ ; > , 4 * $ . . . $ u 1 $ $ $ 1 p a a q q @ % % , u p p q 1 , , , * $ @ . . . @ @ p a q : a * $ $ $ $ $ $ $ $ X + $ * u s p a A >.Y r m A n 9 : q p s 6 6 6 , , c z z z z z z z b b c x d a p q , p q $ p K Y K K B z w Y M n Z B z d s 5 $ 5 d z p 4 , + o o   . $ 4 p p 5 6 & 4 p p p 5 4 5 p s s p 6 6 6 6 s s 5 . > , , , 5 6 5 , , , , ; $ $ * , * $ $ $ * : : : q q e a f K a z c z z %.OX.X.Xe.M.3.4.1.3.3.3.4.4.3.,.3.3.1.&.=.&.3.1.&.&.",
". $ ;.a.q.e.Z.e.H..XH.Z.Z.S.S.H.M.Z.M.e.Z.M.4.e.,...,.&.m 3.A.v.;.;.%.p , > s p p , 1 p p p 1 1 1 e p q , , q a a a a a p e w w a z w r r r a a a e q n a z z z n n z n z a r a n B B a f i f B m m A A M M V ] ] ] ] V f i i a B B B n z a a a a r 9 9 q , q q a a M a M q % % * $ $ $ $ $ o + % % % , $ e ] A k.%.] ] =.n % : 1 s 6 6 6 4 , z z z z z z z z z z z z s u * w -.c.7.a q J K F c z B B a 9 0 j m t w w 9 % q p a p 1 , $ o o . o $ , , 1 , , o > 4 , , , , , , 1 1 , > > > > ; ; ; . > , 4 4 , 4 4 , , ; , $ $ $ * , , , , q e a n n M Z M a n %.B z b c B ] ].sXI.4.2.a.4.3.3.3.4.4.4.<.,.1.3.3.1.=.3.3.,.,.&.",
"  $ ;.A.H.Z.Z.e.Z..XH.e.e.Z.S.2.N.S.Z.M.C.Z.C.Z.2.,.4.C.N 4.9.&.3.>.-.z , ; s p p e w a a p p p p p w r a a z n f f f i a a a n n z r t n n r r f n n n n n N m m m m k m N m m m ] ) ] [ [ [ &.,.o...|  .[ [ ....' ) ) [ ] m V V V V m m m n n n n t g V V V n V A ] V g i 9 9 9 9 r e q q < $ a V w % * r ] %.g 7 7 y &.3.%.e % , 1 4 6 > , b B z v c z z z z d z x 6 @ q K A A >.B : b c p 1 : w B 9 M 2.M.M.M.M.2.4.[ g 0 w a r 9 9 e e q 9 9 e e : , , $ , u q , , , q q q , , 1 1 1 1 u p p u p p d p p q p 1 p p p q w e a a p , v B V m m V V M B a f %.B c c c K ] G.oXoXM.M.4.4.1.1.3.4.4.4.,.1.1.1.1.1.3.3.&.&.,.&.",
"  $ >.S.P.H.S.N.N.Z.H.M.N.Z.Z.e.M.C.C.4.2.M.C.M.e.S.C.4.m ] 3.3.k.>.Y p 1 > p p p e r r r r r a i i w w r a f f f f g f n n n n n f t t t g g t g n m n m N _ ) ) ) ) ) ` [ [ k m _ ) [ [ [ ' [ { { { ' ' ' { o.o.{ ' ,.,.,.) ) ) ) m _ [ [ ) [ [ ) k ) ] ) ) ] V V #.) <.#.V ] &.&.%.] %.%.Y q ] ,.4.w # 9 ] ] ] t 7 y 1.] ;.%.r 9 9 q 6 > 4 b B z z c z z z z p 1 5 3 * * 9 n n n Z p v s , * % 9 f w v.+.+.+.B.q.q.B.V.V.2.[ [ ..[ 1.3.3.1.=. .&.&.A M z z H B B M A Z M M n n M B B B B B M n B B z B B z a a a z B p e f f B a : $ z V ) ] m A m M M i w %.B z c z K ] F.oX.Xe.4.4.4.2.4.4.4.4.1.&.1.1.&.1.1.3.&.&.,.,.&.",
"  , >.A.H.Z.N.H.Z.Z.S.H.Z.Z.e.e.Z.Z.C.4.2.C.C.M.4.C.4.,.m &.3.3.3.;.Y z 1 ; e q 9 9 9 w w i i i f f f n n n n n n m m n n n n n n n n t t m m m m m N N m N ` N m m g t t t t t t j t t ) ] m [ 2.e.M.4.2.....2.o.{ ,.4.2.o.' { ..' / / ' ' ' ' ' ' ' { { ..,.3.4.4.M.[ ' ,.) ) _ [ [  .[ ] V 0 ' { M.) 7 # n ,.[ _ [ 4.m 0 w %.3.m 9 q 4 > 4 b B z z v v z z z p , , 3 4 a w 9 g f n z v ; $ r M w # N &.+.N.q.+.N.N.B.V.B.B.V.V.iXo.o.X.q.S.o...| 1.&.m f f B Z A V A V V A V m A V V V V V V V V V r a n n n f n M Z e 9 n g g i : $ e N ] ] k N N n n i w @.B z d d K ] F..XP.q.e.M.2.4.4.4.4.4.4.<.1.,. .&.3.1.&.,.<.,.&.",
"  : ;.a.N.N.Z.P.H.H.e.H.H.Z.N.e.C.S.S.M.2.C.e.e.2.,.2.C.t ] &.3.3.%.K p , $ e p a f n n m V V V V V V V A A A ] ] ] ] ] A A ] ] ] ] ] ] ] ] ] ] ] ] &.[ ] ) V n a a f a n B n n n M n n n n g V ] [ [ ,.1.` N ) ) k / ) ..' N.q.N.B.B.N.q.N.Z.Z.N.N.Z.N.B.q.{ [ [ [ ) ' / ' [ { [ [ [ | ' [ ` 7 { ( N.) m B w t ) ) ,..X,.0 0 t a.2.k 9 e , , b c z z z c z p 4 * $ * + & e A 3.l.=.r % $ , Y >.>.=.# t &.o.q.+.+.B.B.V.V.B.B.B.iXiXiXO.( { { { +.o.2...) m g V @.] ] ] ] m V A m m V m m N m m m t t w f n m A m V n V : r V m V f : $ 1 m ] ] t ` ] n f w 0 @.B c d d K ] F.oX.XM.M.4.2.2.2.2.1.<.<.4.3.1. .&.1.&.#.,.4.<.&.",
"  $ >.G.S.e.M.H.H.N.N.S.aXI.M.M.M.Z.Z.M.e.e.Z.Z.2.2.3.&.t ] ] &.;.%.K p , ; p a n m V N V V V V V V V V m V N N m ) ` N N N N m N N N ` ] ] A A ] ] ] ] ] ] %.*.=.=.=.=.*.,.,. .&.,.&. .] ] ] ] ) ` [ &.&.,.2.{ { { { ( q.B.B.+.q.2.2.Z.o.q.o.X.X.2.q.M.X.' ' [ ) [ <.' ' / ` _ [ ] ) m m &.K 0 ..^ q.' 2.q.N.+.y $.G.H.M.8 7 N N.w.2.0 p 4 4 B B n a z z p q : A m #.A t [ ..o.N.,.%.% 0 | 2.o...] % : n ' / 2.o.B.o.( { o.+.B.iXV.y.B.B.+.( / | 2.[ ) ] A n M ] ` ]  .] m M n n f g m ] [ [ #.] w 9 e r n m ) V m m m * a K B B a * $ p m ] ] t ] A g i w r %.V B d D H @.F.oXI.2.2.4.M.4.2.2.<.<.,.<.4.,.[ [ &.&. .,.3.,.&.",
"  , >.C.Z.G.Z.Z.S.S.Z.H.H.sXI.N.M.M.Z.Z.C.M.Z.Z.e.4.F.l.n A [ &.&.=.Y p , * p a f g m m m m V V V m m n n m m m m m m k n m m m m m m m N m m m V V N N N ) N ] ] ) ] m ] ....<.,.,.' ) / / ) ] ) [ &.&.[ ' 2.N.B.H.M./ +.B.B.H.{ / ' o.o.q.| ' ' ' { { ' ' [ ) ) _ #.&.] k k k ] ] N g m ] z r ,./ y { q.w.O.y.o.y e.N.y.( ' S.B.q.o.t d 4 4 B M n f d z p $ K &.) ] [ ] _ o.q.+...;.$ k X.o.+.{ N w , e y 2.H.q.q.o.{ +.+.B.+.B.iXV.iXiXpXV.N.X...) ) V m M n m )  .,. .N n f n n t k ] _ ) m g w a e r f m ) V g t t * , d J H u $ * q k ` ` w A m f i w a %.V g d D D V C.oXP.2.q.M.M.e.2.2.<.,.,.,.,.,.[ [ &.&.&.&.&.&.%.",
"  , >.M.S.S.S.S.S.H.H.H.H.H.H.S.S.N.H.S.Z.Z.G.H.2.2.4.3.V &.&.,.&.=.Y p , ; p p f f f f f n n M M n n f a f n m m m m k N N m m m k k m m m m N N N N ) ) ) ) ) ) g m A n ) ,...[ ..' ` ' ' [ [  . .[ ) m _ ' o.B.B.../ q.q.B.q.o.o.2.{ { ' y ) ' ' { { ' ' [ k ) ) ) &.] m N m N ] ] N m m w w ../ y 2.2.o.+.X.p.y / y.B.iXiXV.B.q...f a 4 4 B B n a d p , $ B A ) ] A @.t [ q.o.,.%.$ N | ' o.[ @.q : e ..Z.Z.{ X.+.N.B.V.iXV.iXpXiXiXiXB.B.y.y.o.2...) k m k ) [ ,...[ _ g t t g m ` [ [ ) k t w r e z M V V ) ) g g e @ $ a e * $ % q t m t 0 V n r r e a -.] B d D c f C.oXJ.2.2.4.M.e.2.2.,.1.1.&.&.[ ] [  . .&. .&.#.%.",
"  $ >.C.H..XC.C.Z.e.H.H.Z.H.S.N.S.H.oXS.M.M.H.H.2.2.,.0.N &.&. .&.=.Y p , , p p w w r a a a a n n a a p q q e r n m m m m m m m m m k m m m m N ` ` ) ) ) ] ' ) _ _ n q , e f [ ..o...| | ....{ [ [ [ ) ) ) o.q.w.o.4.^ { +.q.q.2...q.{ { t 9 9 n  .{ { { ' [ ) g g _ ) ,. .&.] ] ] ] ] m t 9 0 1.o.N.[ 0 8 ^ X.p.[ 7 y.B.iXB.{ q.w.<.g a 4 , z n z d p s 4 * $ M A m M B r N / ' 1.B $ e N ..o.&.;.q : j 2.Z.{ / q.+.+.N.B.B.y.iXiXy.B.y.O.O.N.+.o.2.,.[ k k k ) [ [ ) _ ] ) t 0 t m N m m ] ] m w 9 e M A m f V ] V V a * @ $ @ $ : % a n n r 9 n n a e , w -.] m f c z f a.oXI.M.2.4.e.e.2.,.,.&.&. .&.] ] ]  . .} ] [ &.&.",
". : ;.4.M.S.C.C.M.2.M.Z.q.Z.H.H.H.S.S.H.C.e.Z.S.S.,.4.3.n ] &.[ ] %.K p , , p e w r r r r a r a r r w 1 p e : 9 r f n N j j j k k k k k k k m ) _ _ _ _ ' ' ' ' [ ] n s x 6 q ] { ..' ' { X...{ [ ' ) k _ [ ) 2.o.e.,.) _ ^ { o.' ' / {  .q s 6 , ] o.{ ' ' { [ [ _ $.) o.m ] ) ) ) k ) ] ) r t [ { 2.C.3.0 4./ N.<.7 ( O.o..X/ / ) ) f p , , z n z s p 6 6 6 $ $ p a z , , n ] 0 7 @ 3 o % t ` ] a w r j ....' ' ' ' ' o.B.N.o.+.+.+.N.o.o.o......._ ] m j t r m m t y m m V n w f n t t t m n n a q e n M g 0 m V g a : w p a a q q % a n r % % a a a q , e -.] g w a d V C.oXI.N.2.M.M.e.2.2.,.&. . .&.&.] ] ] ] ] _ [ #.&.",
"  , >.C.e.Z.S.S.M.N.H.H.H.Z.P.H.S.S.S.Z.e.Z.C.S.M.4.l.3.n &.&.1.&.%.K q , , u e w w e r r r r a r r w ; ; : $ : f n m m j j k m m k k k k / ` ` ' ' ' ' ' ' ' ] ] V : < 6 < ; _ { ' { X.X.+.o.{ ..' / ) [ [ ' ..o.{ [ ) ) ' { $.' ../ [ m , 3 6 > f ,.o...{ { { / $.$.{ o.` ) ' ' ' { 2.{ ..f m ....y 1.`.m  .{ N.0.7 ' N.{ t r } m N a p , 1 z B a s p s 6 6 , $ $ $ o . < p V A i * 3 & . % w q 1 z r ` / ^ ,.[ k  . .2.o. ._  . .1. .` ) ) m M n f a p w , , w e 9 r a e a w q e r r r 0 r a q 1 , w z a e w i a a w , q p a p , % , w , q : : , 1 1 , $ 1 %.&.m m B n m 1.oXI.M.e.M.e.2.2.2.,.&.} }  .&.&. .}  .[ _ [ #.&.",
"  $ >. .q.Z.C.C.S.M.Z.M.S.I.S.S.S.H.S.M.Z.M.C.e.Z.,.,.3.n %.&.3.&.%.K 1 > * u e w w w r r r r a a r e ; ; : : 9 n m m k k k k m m k k m ) / ' ' ' ' ....o.o.| | ] N 9 ; < ; : ..X.{ o.q.+.+.X.o.o...y ) ..,.' { e.M.a.C.C.4.e.2.{ o.{ ` N q o > $ t [ ' ( o.N.q.( { o.q.+.` { o.+.O.B.V.B.N.t ] e.2.) [ 3.] y o.Z.0.7 1.X.g # :.K w A a p , 1 z B a s s s s 6 6 , ; o o   X , r n B , . o $ : w 1 < * 9 k ) ` &.9 % 9 r w 0 % @ $ $ $ @ . . . . . . . . . . .   .   . o . . . . . . . . . . . . . .   o $ $ @ @ $ $ $ $ $ $ 1 p p p , : , $ $ $ . o $ o o + , %.3.,.&.%.V n 1.I.I.Z.M.M.e.2.2.2.1.&. . .] ] ] ] }  .&.,.,.&.&.",
"  : >.4.2.M.2.e.H.Z.H.S.N.N.2.S.Z.Z.S.N.M.M.e.e.2.2.3.&.m %.&.3.&.%.K 1 ; * p u r w r r r r r r r w q ; : : : r j t k m k k k m m k m ) ` / ' ' { { o.o.{ { ' ' ' _ t 9 : % g 2.+.o.o.+.{ o.+.+.q...' /  ...' ' { ' ) ) ) _ 2.2.{ +.+./ ` m w 7 0 ' { o.o.+.w.q.+.+.B.B.B.o.o.B.B.iXiXiXiXB.0 ] S.2.2.0 t 7 ` y.e.$.7 M.q.C.g z.M 9 Y z e , , d B a p p s s s s 5 1 , > X   5 B 9 M * + + $ $ $     o z t t A z o . . o @ @ o . $ o $ o o $ $ o o o o o . o o   o o o + + o o o + + . . . . o . o X       . . . .           . . . . . . . .               o , ;.4.4.4.3.;.] p.oXS.M.S.Z.N.4.2.2.<.&. .&. .,.&.&.&.&.,.,.<.3.3.",
". : ;.C.q.C.2.2.N.N.S.N.H.H.S.H.Z.N.S.M.M.M.M.e.e.C.G.3.m &.&.3.&.=.Y q , * p a w w r w w r w r w w 9 , : : r j k k ) k k k k k m m ) ) ) ' | { X.o.o.o.{ { { o.o.{ o. .k _ q.+.+.+.+.+.+.+.+.+.o.{ { ' [ k ) ' ' ' y y ^ ' { { +.+.+.X.o.+.o.{ { O.O.O.+.N.B.B.B.w.iXB.B.B.y.B.iXiXiXiXiXO.7 &.S.{ N.y t k 2.X.2.y ) Z.+.q.8 [ m e n z q , , d d a e e p p x z p p p 5 = X o e 9 a $ & 6 p q 5 3 O   * 0 N M $ X X O 2 2 2 ; , , < 4 5 6 4 , , 1 , , , , > o o 3 3 3 3 4 4 > 3 4 3 > - ; > > - - O O + + + + + + + + + o o o o o .       . . . o . . . o ; 1 >.a.a.a.3.k.} 3.oXS.M.S.S.Z.M.2.2.,.&. .,.1.1.3.1.1.1.1.<.<.<.3.",
". * >.4.M.4.,.,.e.e.H.Z.N.H.H.S.e.e.2.M.e.2.<.2.M.4.4.&.m } &.3.&.=.@.q , * p p a r w r r r r r 9 9 9 9 9 e r j j k m k m m m m m ) ) ) _ | X.X.X.X.X.X.| | ..o.o.{ o.o.o.o.o.X.o.+.o.o.X.o.o.o.{  .[ [ m m ] ] ) m t y m ) _ ' o.{ { X.X.X.X...o.+.+.+.o.+.q.q.q.w.w.O.w.N.B.y.B.iXiXiXiXo.9 ;.A./ N.B.+.+.y.M.N 7 C.q.w.( { w.X.t 0 a p , , a a p p p p p a z z l l x < + . . $ @   4 s l z x s 6 , @ @ ; $ o & < 3 3 2 5 p p p p p p p p p p 5 p p p p 5 + < 5 5 5 5 5 6 5 5 5 4 , > , , > < < o > < < 4 4 5 5 4 4 < ; ; & & $ & o . o $ o o o . o o ; ; e ;.l.N.4.3.k.] 1.aXH.N.M.S.C.M.Z.e.,.,.<.,.4.4.4.1.,.,.<.2.,.,.,.",
"  , >.&.4.Z.4.2.2.Z.H.S.w.N.N.H.Z.Z.M.Z.Z.2.<.2.C.3.,.&.N &.&.1.&.&.@.q * * 4 u u q q e w w e q q q q 9 q 9 r r f t j n f n n n m N N N ] |  . .......| | |  . .[ [ [ [ [ [ [ ' ' ' ' ' _ ] ] _ ] V V V n g B B f a a w t g m m ) ) m N ` ' ` m ) ) ) ) ) m ) ) _ _ [ _ ' ] ' ' X.+.o.2.,.g * K i.y +.B.O.+.q.N % ` e.q.( ( B.O.o.k 0 q 5 > ; p a p s x p p a a z l p z p , ; , > > . 5 p z z c z z z w : > , 1 p p u p * s p p p p a a a a a p l l p l p l + 6 5 p p p p p p p s p q 1 1 e 1 1 , o > 1 5 s l p p p p 1 4 4 , > , , ; o * ; ; $ $ $ $ $ ; ; e ;.a.Z.M.l.9.V ,.I.Z.M.2.M.C.Z.H.e.2...<.,.<.2.,.,.....<.2.<...&.",
"  , >.&.1.4.C.C.e.Z.Z.S.N.N.Z.N.N.q.M.e.G.2.2.2.C.3.4.#.N &.&.1.&.&.A q $ $ $ $ * $ $ $ $ $ $ $ $ $ $ $ $ $ * $ % % % % * * % : : 9 9 9 9 9 0 0 0 0 0 7 7 9 7 # # % # # % # # # # # % # # # # # # # # # # # # # # @ . . @ @ # # # # # @ @ % % # @ @ # @ o . . . . . @ @ @ @ $ % $ $ @ $ $ , i 9 7 7 o.N.2.) 9 # / q.q.{ w.B.O.O.{ t % , 4 & * p a p 6 6 s a a a a z l a p p p 5 6 6 o s l z z v c c B B z l l p p a p p * s p l l l z z z z a l l l z z z l $ 6 l l l l p z z x z p p q e p 5 5 1 o , , 5 5 l l p p p p s p 5 4 , 4 > $ 4 5 1 , ; ; , , ; ; q =.a.C.4.0.>.) <.I.S.S.2.4.4.M.C.e.e.,.<.2.,.<.,.[ ..,.<.2.<.,.&.",
"  , ;.3.4.4.2.2.o.2.M.Z.Z.I.iXH.S.M.M.M.P.2.2.1.1.4.C.&.N &.&.p.3.&.A q $ . o $ $ @ $ $ $ & & & & & & & $ $ $ $ $ $ $ $ ; , , , , , , , q 9 q i i w i i w i a u p a a u u a a r r e e a e q q u w 0 0 9 w w w w w w e q e 9 w f w w 0 w w a a i a e q q 1 p p 1 * * : : q w 9 * * 3 3 > $ p V t 0 1.S.4.w % 6 ..B.B.O.w.w.+.+.+.k % $ 4 3 & * p p p & o p p a a a z z z z p p p s s $ s l l z z c B Z Z B v z z z z p p $ s l l l l l p p l p z z z z z z z $ s x z z z z c b b b z a p e p p 5 , $ < 1 5 s l l p p p p s p u 4 , , * $ s p s p 1 1 1 1 , , q ;.C.N.1.3.;.N 2.oXS.N.,.1.1.<.2.e.e.,.2.2...2.4.,.[ ,.<.,.,.<.3.",
"  , -.&.,.2.2.4.4.2.S.H.I.H.I.H.N.M.N.P.N.N.2.1.1.a.3.,.] &.1.p.3.;.K q $ ; s p a a d d d d d d d d d s p a p a z z z z z z z B B B B B B g V @.@.V @.@.@.@.;.] A @.@.V V @.@.] ] ] ] @.@.@.@.@.] [ [ [ &.&.[ [ [ [ ) ) ] ) [ ,.&.[ ) [ ,.,.&.&.@.n g ] | ..' / / ' ' ' o.O.o.g 7 : K A k / %.A r } 4.4.#.9 K S.O.O.{ q.^ ' ..t $ o > 3 6 > ; p p ,   . p p a a p z v z z p s s s s $ s z l z z c Z Z B Z b c z z z p p $ s 5 l l l l p l l l z z B B B B z * s z z z z z z b b c z a p e p p 5 , o 4 5 s l l s p p p p p p p 4 4 4 , $ s p p s p p p 5 1 , w ;.M.Z.4.x.;.t ,.oXS.p.| 1.a.4.4.M.2.,.2.2.,.,.,.,.......,...<.l.",
"  , -.3.,.,.4.C.4.Z.S.S.oX.XaXH.H.H.I.I.S.M.M.p. .1.].x.] 4.a.1.3.9.K e $ $ s s p a f f i i i i f f i z a a w f n n f n B M M n n V m m m y [ ]  ._ ) ,.[ ) [ ..[ ) ) _ ' ' { ..o.' { o.{ { { 2...{ { 2.2.2...o.+.o.{ ( ' { ' { $.2.{ { o.q.o.o.{ / { / ( { { { ^ ^ { q.+.O.+.^ # # w N / / M a $ 0 _ 2.^ 8 ..2./ ^ ^ #.m w % @ o + 3 3 3 & * p u ,   + p p a a p z b z c z z p p s o s l z z z c B Z Z Z Z Z B B B a p ; l l 5 p p < ; , p l z z B B B B c * x c c z z a z c c z z a p p p p 5 , . 5 5 s l l p p p p p p p p p u u u $ x z z d p p p p 1 1 w =.M.N.M.4.F.4.1.I.M.2.' &.1.4.M.2.[ 2.S.C.,.,...,...,.2.....,.3.",
"  , -.&. .1.4.a.1.4.S.H.H.Z.N.S.H.Z.I.N.2.M.C.C. .] 3.3.) 4.l.,.3.9.K p * ; 6 p u r t f t w w f f f n f f f f n m m g m n V m n m m ] N m k ` ' ' ' y / ' ` ' { o.{ ^ / o./ ' o.o.{ { { { o.{ { q.X...2.4.M.e.q.+.{ +.o.{ $.$.^ ' 2.o.{ ( o.o.' ^ ' o./ N &.] V f 7 g ,.&.,.&.q . . o o $ % @ o o @ m { ^ ^ ( ' [ 3.;.-.@ . . + - ; < 4 4 ; ; p u ,   o p d a a a z c c c z z p p s $ s l z z z c B Z J K Z Z B M B a p ; l l 5 1 , $ . . $ p z z z B B H b , c b B c z z c c c c z a p e p p 1 4 o 6 5 s l l p p p 1 p 4 p p p p p u $ x z z z z z p p q 1 e =.M.q.2.] A m ..sXZ.M._ 1.1.,.2.o.{ C.G.C.S.S.M.4.<.4.4.,.,.4.3.",
"  * K } [ ,.1.2...,.4.e.P.S.M.M.Z.M.J.S.C.S.4. .&.] &.3.] 4.C.,.&.;.A 1 $ o ; * $ % % q 9 9 9 9 a w % $ % a a i w w n V a w a r r f V 0 w m 0 w 0 n t 0 N ] ] ] &.] 7 0 ] m m ] &.,.&.y w &.g 7  ...&.` m m [ 2.o.{ ..$.0 7 % # 0 m ] k 0 } ] 7 9 A V w , , * x Q s * u p q $ . + O O O & $ o o . $ 3.4.o.o.| ] @.M a , . . + + > > , 1 5 ; , s u 4 . $ s d d z z z b B B z z a z p $ s l z z z c B Z J K A A Z B B z a ; l p 1 ; $ o $ p q * , a c B B B b , c b B B B B B B B c z a p p p p 5 4 o p 5 s s s p p , , p , , u p p p p $ d c c z z z a p p q w *.a.2.M.3.;.] 2.sXH.H.2.4.C.M.Z.e.e.4...[ ..2.C.C.M.G.C.2.M.N.a.",
"  ; K ] _ 1.1.2.[  .2.4.Z.N.2.2.Z.M.M.N.C.4.,.&.} ] &.3.m ,.4.2.3.;.A 1 $   . . . . . o $ $ $ $ , ; . . . 4 s p * * u u $ @ * $ * a w @ * a $ @ @ * * $ , , & & * $ . . * > & , p u * . @ * @ @ n &.z $ @ @ 9 &.{ [ @.7 .     X . o $ . . . . . . o o .       < x 6 . . o . . $ o . $ * , * * ; + o a @.#.V 0 % @ @ z p . . + ; , , , 1 e * , s s 6 ; ; p d a z z z c B B z z a z p $ p l z z z z B Z K K A A Z Z B z a ; l s 1 $ $ , z K B q $ , z B B H b , x b B Z B B B B H B c z a p p p p 4 o 6 5 p p p p , , p c p , , u p p u $ d c z z z z a p p u r &.M.M.J.a.k.&.2.sXH.N.S.G.S.S.e.q.e.2.,.,.....2.S.M.M.Z.N.M.M.a.",
"  , %.%.` &.1.3.| ..1.4.G.C.e.2.M.a.1.a.C.,.&.&.]  .&.1.m ,.4.4.l.9.K p +   . . . . . . + > ; & o .   . . o 4 x * $ 1 $ . + $ . , s 1 $ $ z p * $ * $ . o . o + + + +           .   . . > p , $ e B : @ $ @ a @.m @.p o   X O O - > > - O O O + + + +   X     ; p 1 . $ $ o o $ . $ $ , , * , $ + + . @ @ @ . . . . b $ o o $ ; , , q e p , , s s p 4 1 p d d z z z B B M B z d z p $ p z z z z c B Z K K K A A Z B z d ; l p e $ % a K K M e ; ; p B B J H 1 v Z B Z Z B B B B B z z z a p p p 4 $ p s s p p 1 ; 1 p p p p $ * u p u $ z z z z z z a p p e e %.a.2.S.a.l.&.2.sXH.S.I.S.4.2.S.Z.M.C.2.4.2.,.M.G.4.M.N.S.2.4.C.",
". , K @.] ] &.1. . .,.,. .4.4.,.,.a.,.[  . . .&.] ]  .3.k ,.4.a.l.k.K z + X X . . . . . $ > ; $ . . .   . . > l $ . $ . . o o o $ p p $ $ , p q , $ . @ $ $ ; , 4 , > $ $ o o o . . . . e a r 9 r a , * $ @ , z a 1 o . & > > < 4 6 6 < ; > < < > ; ; + X   . , 1 * $ $ $ . o + o o & , , , ; ; & & o o . . .   X . 6 $ o $ ; , 1 q q p p , , d p p p p a d z z B B B Z Z B z z z z $ s a z z B B B Z K K Z K K Z B c d * d p e : $ w B a a 9 ; o e H Z J B q z B B Z Z Z B B B M z z l p p p p q $ p p p p p 1 $ e p 1 e 1 @ $ 1 p u $ a l l p p p p p e e q ] 2.2.M.&.=. .1.sXI.N.S.M.S.S.S.S.S.G.e.C.C.M.C.C.2.M.2.M.2.4.4.",
". , K @.&. . .1. . .4.a.k [ 4.<.,.4. .[  . .] ] } ] ,.3.) 4.a.a.l.k.K z ; X   . . o . . o o $ . @ , $     . o $ o o $ $ . o $ $ ; l c , $ $ , e 1 $ . * 1 u p p s s 6 4 , > * & & & o   $ p a a a a a p * @ . @ . . . $ > 6 6 6 6 6 s 6 6 6 6 6 5 5 4 < = X . ; * $ $ , , o + $ $ $ $ , , , , < ; & & & o . o . . . ; ; ; ; ; 1 u q u p p , , a p p p p d z z B B B B Z B M B z z z $ s a a z z B B Z J K Z K K Z B c d * z z p : . $ % % $ $ ; o e K J K B q z B B Z Z Z B B B M B z z p p p p q $ p p p p p , $ , 1 1 , $ . @ $ 1 p $ p l l p p p p p p e a *.A.Z.S.` =.a.2.sXaXI.S.M.H.P.S.N.Z.C.e.,.$.2.C.C.S.M.2.M.2.2.4.",
". , K %.&.&. .=.&.3.A.G. .) C.1.,.a.&.,.3. .] N N N ,.4.] C.a.1.4.9.A z ;   o + $ $ o o . . . . , z 1   . o . o o $ $ $ o $ ; ; $ ; 1 , : $ e p 1 $ . 1 p s p s s s s s p 4 1 , < < ; . . ; p z d z z z $ $ $ $ $ $ & $ > p s s s x x s s s s x s s p 4 - X o > , $ ; , ; + $ $ $ $ $ , 1 1 , , ; ; & * o . $ + . . ; , , ; , p p p p p p , , z a d z z z z z B B B B K Z B z z z z $ s z z z B B B Z J K Z K K J B z p $ x z p q $ . . . o ; , $ p J B J Z , z Z B Z Z K B B B B B z z p p p p u $ p p p p p , $ $ $ * $ @ . $ $ 1 p $ p l l l l z p p p e a =.M.M.I.3.] ` | sXP.N.M.S.S.e.e.2.e.e.C.2.2.Z.C.2.2.,...M.o.4.C.",
". * K %.&.&.=.1.&.l.l.C.3.] 4.3.&.1.&. .1.] ] %.] &.3.3.m 1.4.,.3.3.A z < . ; < , ; ; & o o . . , c s o o o $ ; $ $ ; $ o ; ; ; $ o $ , : $ p , $ . $ p s s s s s s x s p p s 1 < < > o ; o o , p x l 1 $ $ ; ; ; * > * 5 s s s s x z z s z x c z x p 6 < + + 4 4 , , , ; $ * ; * $ $ , 1 1 1 , , ; ; ; $ o * > ; o , , , , , p p p p p p , , z d d z c z z z B B B B Z A B B z z z $ s a z z B z z B Z Z Z K K J B z p $ x H a p 1 $ o . o > ; ; z Z K K Z , z Z B Z K K B B B M B z z p p p p p $ p p p p p 1 , $ $ $ @ $ @ $ , p p $ p p s l z z p p p e w %.M.N.G.A.3.] ..dXP.I.S.Z.H.M.e.q.e.e.e.4.C.Z.2.,.,.....M.,.4.l.",
". , K =.&.&.&.&.&.&.,.C.#.&.4.,.,.&.&.1.&.N ] ] ] ] &.&.`  .1.2.3.3.K z , + > 5 , , > ; & & $ $ $ J x o ; ; ; ; , , , , . , , , ; $ $ * * $ $ $ $ $ $ s d d z z z z z z z z z p 5 < < o < < o . . . o $ ; > , , > > , > 6 x x z x x c z p z b D b b z p 3 - + 6 4 , , 5 ; ; ; $ ; $ , 1 q q 1 1 , , , 1 * $ 4 6 ; o , , 1 1 e p p p p p p , , z z z c c c z z B B n M Z K B B z b z $ p a a c z z a a z B Z B K J B z p * c B z d p , $ $ + ; , p c Z J J J e v b B J K K M B Z M B z z p p p p u $ p p p p p p p 1 * * $ $ $ * p p p $ p p p l l l p p p e a &.A.P.N.l.3.3.M.dXaXS.2.N.S.M.o.2.2...,.M.S.e.M.4.C.Z.N.2.2.,.,.",
". $ Z @.] &.1.&.&.] [ ,.,.4.4.4.,.] &.=.3.] ] ] N N  .,.] 4.M.a.a.9.K a , + ; 1 , , > ; ; > * * * , $ ; ; , , , , , 1 1 o < < < 1 1 , $ $ , : , e u , p s x d a d z z z z z z l l p 5 ; 6 6 > * * ; , 1 < , < 1 < , 4 > 6 x z x c c c c a z H H b b z p < - + p 4 1 1 p 1 1 1 , , $ , q p q e e 1 1 1 4 * $ 4 5 > $ , 1 1 1 u p p p p p p , , z z z c c c c z B B n M Z K K B z b z $ p a a z z a a z z z B B K K B z p * b B z z p p 1 ; $ ; p b J J P K J 1 v Z Z Z K K B B Z B z z p p p p p u $ p p p p p p p 1 * $ $ $ $ , p p p $ a p p p l p p p e e q @.C.S.2.l.k.3.a.sXaXP.I.P.S.2.2.2.e.M.aXoXP.4.2.2.e.4.2.e.N.M.a.",
". $ M A ] } &.&.&.] #.] &.3.4.3.] ] 1.&.=.} ] } N N ] 3.,.l.4.4.a.l.A a 1 $ ; 1 , 1 > > > , , , , * , , , 1 1 1 1 1 q 1 o 5 5 5 p p p p , p p p p p , s s z a a a z z c c z z z z l s ; 6 6 5 4 1 1 p s p 5 p p p 5 6 < 6 x x c B H B c a z B B B B z p 6 ; ; p p p a z p p p , , $ , q p w p p p p p 5 * * 4 5 , $ 1 1 q q p p p p a a a 1 q c c z c c c c B B M M M K K K B c b z $ p a a z z z w q p z B B B Z Z z a * b b z z z p q : : p B J J J K K H e v Z Z B Z K B B A M z z z p p p p u $ p p p p a p p p , , * $ , p p p l $ l l p p p p p p e q p %.C.C.2.3.k.&.,.sXH.N.sXH.N.o.o.M.S.I.N.S.P.e.,.2.e.4.M.2.M.M.l.",
". $ B A N ] } #.&.] #.[ #.,.&.&.] ] ] %.] ] %.] A m ] &.) ,.4.1.3.0.] a p $ ; 1 1 1 4 < < , 4 , , , 1 , 1 1 1 1 q q q p $ 5 s s l p p p 1 p p p p p , d d x a a a z z b b b c z z d p ; x s p p p p p p s p p p p 5 6 < p c c c H H H B z B B B B B z p 6 ; ; z z n B M r z p , : * , w p p p p p p p p , * u p > $ 1 p p q p p p a a a a q q z z z z c B c B M A M M K K K B z b z $ p a a z z w % % q , a B B B J c a , b c c c B z z r w n Z J J K P K J 1 v b Z B Z K Z B A B B c z z z p p u $ p p p p z z z p p p 1 1 p z p p l $ l l l p p p p p e e u @.a.M.4.,.>.&.,.aXP.N.aXsXP.S.S.oXaXS.M.M.S.S.C.G.C.2.N.M.C.4.3.",
". * B V n N ] ] ] N &.4.,.,.&.&.] ] &.&.] A ] &.] N ] &.t ) 1.4.3.0.@.a p $ ; 1 q p 4 , , , , 1 , u , 1 1 1 1 q p p p p ; s l l z z z p p p p p p p , z x z z z z z z b B B c B B z z 1 v l z a p p p p l p p p p p 6 , p b c c H H H B B B B B B B B a 1 ; : z M V V M e z p , , : , w a a p w p p p p , * p p , $ 1 p p p p p p p a d d 1 1 z z z z c z B n M A A M A K K B z b z $ p z z z w % 9 z B w , a B B Z c a , D b c B B B B a f B B Z K K K K J 1 v b Z Z J K Z B B B Z Z z z z p p 1 $ s z z z b b b z p p p p x z p p p $ z l l p p p p p p p a @.4.C.G.3.;.] ,.dXP.N.I.oXoXP.P.S.S.S.M.M.N.S.e.4.,.2.M.2.M.4.3.",
". $ z f g V @.A ] ] [ 3.4.4.&.&.] ] &.,.#.N ] [  .] ` ` t m 4.4.4.k.K a p $ ; u u q 1 1 1 1 , , , 1 q 1 1 q q q p p p p ; p z l z z z a q a p p p 5 , z z z l l z z z c b B B z b v l , v z z p p p p l l p p p p p p 1 p b z c B B B B B B B B B B z p 1 ; $ M V A V r 9 l e , ; ; ; p a a a p p p p p , $ p p , $ 1 p p p p p p p x z x 4 , c v v v v z n M A A K B A K A B z B c $ e e l e ; : n n n g 1 q B B Z B z ; F H B B B B B B B H Z B B K K K K e v b c K K K B z B Z Z Z z z z p p 1 $ p z z z v c c z z z s s z z p p p $ z l l p p p p p p w p %.l.C.D.@.Z @.,.aXH.H.Z.S.N.C.Z.S.S.N.M.Z.2.e.M.M.&.a.,.1.M.2.1.",
". * a w m V A A %.=.&.,.,.<.&.&.&.] ] 3.&.) ] ) [ ] &.N m 3.C.C.l.k.K p 5 & ; 4 q q 1 1 1 1 , , , 1 1 1 q q q q p p p p ; l z z z z z a q a a p p 5 , z z z v v z z c B B B B c b c z , z z z a p l z l p p p p p p p 1 p b z c B B B B B Z Z B B B z a 1 ; : M A V n e 9 l e , ; ; ; p a a p p p p p p , * p s , $ 5 p p p p a p l x z s 5 , c c v v c z n V A A K B A K A B z B c $ p z z 1 $ e z r n B 1 q B Z Z Z z ; F H B B B B B B B B Z M Z K K K K 1 x b Z Z K K B a B Z Z Z z z z p p 1 $ p l z z z v c z z z z z z z a p p $ z l l p p p p p p p p @.l.C.0.@.A &. .oXZ.N.Z.S.M.S.S.M.M.2.e.H.M.C.C.a. .1.,.a.N.N.3.",
". , B f m V A A @.&.3.3.] ,.#.] &.] ) &.&.) N ] &.&.i. .t 3.C.e.4.3.A p 5 & > 4 q q 1 1 1 1 , , , 1 1 1 u p p q p p p p ; l z z z z z a e a a l p 1 , z z z c c c z z B B B B c B b z , c z z z l z z z p p z p p p p 1 p c c B B B B B B Z Z Z B B B a 1 : : V A V f r r p 1 , ; ; ; p a a p p p p p p 1 , p p 1 ; 5 p p p p a a z z x x u 4 b c v v c z M V A A K B A K A B z B c ; p z z 1 $ ; 1 e a e $ e J K B Z z ; F H B z B B B B B B Z M A K K K K e z b Z Z J K Z z B A Z M z z z p p 1 $ p z c z c c c c z z z z z z a p p $ z l l p p p p p p p p @.l.C.4.@.9.3...aXH.Z.Z.H.Z.Z.M.e.M.2.2.e.e.Z.S.a. .3.4.C.a.a.l.",
". , K B g V V A @.&.3.3.[ ,.&.#.#.] ] &.] ] N [  .,.a.x.` ,.C.C.3.3.A a p ; > 4 q q 1 1 , 1 , , , 1 1 q p p q 1 p p p p ; l v z v c z z e a z z p 1 , c a z c c z z z B B B B B B B z q B B B d z z z z p p z a p p p 1 p b B B B B Z M B Z Z Z B B B a 1 * : A @.A n i w e , : ; ; ; p a a p p p p a p 1 , p l 1 ; 5 p p p p a a z z b c u 1 b c c v c n M V A A K B A K K Z c B c ; s B c p o . $ ; ; $ $ a Z A B Z z , J J Z z z B B M B B Z M A K K K K q z Z Z Z J K Z z B Z M M z z z l l 1 $ s z z z b b c c c c z z z x a p p $ z l s p p p p p p p p %.4.M.l.&.>.=. .aXsXaXe.H.Z.M.e.e.4.4.2.2.C.S.C.4.&. .1.C.a.2.4.",
". , K V t n V A @.&.3.0.,.[ ] ) ] ] 3.&.&.&.&.,.,.1.3.3.] 3.C.e.4.3.Z z 5 ; > p u q q 1 1 , , , , 1 1 1 u p p p p p p p ; l b z z z z z p a a p p p 1 c a B z z z z z B B B B B B B z q B B d a z z z p a p a a p p p 1 p H B B B Z A B B K Z B Z Z B a p * : A %.@.n a e e , , ; ; ; p a a p p p z z p 1 , p x 1 , p p p p p p p z z z c u , z z z c B n M A A A K B A K K Z z b b ; s H H d ; . . . . o q z Z A A B z , J H Z z z B Z Z A A Z M V A @.%.K e z Z Z Z K K B n M A M z z z z l p 1 $ p z z z z z z z c c z z z z p p p $ p l l p l z z z a p e K 3.4.l.;.9.]  .oXaXH.e.S.M.2.4.M.N.2.2.e.e.Z.C.1.,.&.a.A.a.,.3.",
". , -.@.m f n A ] &.&.3.3.3.#.&.] ] &.&.&.&.[ [ &.1.1.a.m ,.C.4.4.3.V z 6 > > 4 q q 1 , , 1 , , 1 , , 1 u p p p p p p p ; l v z z z z z p a a a p p 1 z a B z z z z z B H H B B Z B z q B B z z z z z a a a a a a a p 1 p H B B B Z A B B K Z B Z Z B a 5 ; : M A V n a r e , , ; ; ; p a a p p p z z a 1 , s z 1 , p p p p a z z z z z c u , z c c c B n V A A A J B A K K Z z c z ; p B B d 4 $ o . o ; p B K K K B z , J J Z z B Z A K K A A A V A @.%.K w a Z Z Z K K B B B A M c z p p l p 1 $ p z z z z z z z z z z z z z z p p $ z z l p l z z z a p w %.3.4.4.;.;.] 1.oXZ.N.e.H.N.e.M.M.4.S.S.2.M.e.4.4.1. .3.a.2.a.3.",
". , -.>.] n V A V &.&.&.,.<.&.,.[ [ ] &.#.&.&.]  .3.l.a.m 4.C.4.4.3.M z p > > 4 u u q q 1 , 1 , 1 , , 1 1 q p p p p p p ; l v v c c z z p a a a p p 1 z d B z z z z z B H H B B Z B c 1 z c z z z z a a a a a z a a p 1 a H B M B A A B B K Z B Z B B a 5 ; , z n n z z a e , , ; ; ; p a a p p p z z z q 1 s x 5 , p p p p z b c z B B c u q B B B B B n V V A Z K B A K K Z z c z $ a B B d p 5 , , 1 p d B K K K B z , J J Z B A K K K K K A Y K @.%.%.K w a B B Z K K Z B B Z M B z p p l p 1 $ p p z z z v c z z z z z z z z a p $ z l l p l z z z a a p %.l.C.0.v.9.] ,.aXH.H.N.H.S.M.M.4.4.C.S.Z.M.2.M.4.4.1.a.a.a.a.a.",
"  , R >.] n n A ] &.&.,.3.,.#.&.&.&.) ] ] &.,.&. .3.a.=.) 4.C.2.<.9.M z 5 ; ; 4 u u p p z p , , , 1 1 1 1 q 1 p p p p p ; l v v b b c z p a z z a p , z a B z z z z z B K K Z B Z B c 1 v c b c z z a a a z z z a a p q a H B B B A K B B K Z Z Z B B z 6 > 1 z z a z z p e : ; ; ; ; e a a p p p z z z p 1 d x 5 1 s p p p z B c z B B z e q B B B B M M V V A Z K B A K K Z B c z ; z B B z z a a a a d B B Z Z A B z , H J Z Z Y Y Y K A K -.%.%.%.;.-.K w a B B Z K K K B Z Z B B z a a p p 1 $ p a z z z z z z z z z z z z z p p $ z l l p l z z z a p a %.l.C.4.9.9.] 1.aXsXaXN.M.Z.4.4.2.4.S.S.2.o.e.S.a.4.a.l.a.M.a.3.",
". , K 3.] n n V &.&.&.,.,.] &.] 3.,.] &.&.3.l.3.,.&.&.&.) ,.4.e.3.v.M z 5 ; ; 1 * * $ , z p , , , 1 1 1 q 1 1 q p p p p ; l b z c b c z p a z z a p , z z B z z B z B B K K Z B Z b c 1 v b b z z z z a d z z z a a p q p H B B Z K K B B K Z Z Z B B z 6 ; 1 c a w z z p 1 , ; ; ; ; p a a p p p z z z p 1 z z p 1 p p p p z b z z z z z u q B z z z B M M V A K K B A K K Z B c z $ z B B B B z z z B K H K K K K B z , H K Z Z %.%.%.A M K %.;.;.;.;.;.K w z B B A K K K M Z Z M c z z z p p 1 $ p z z z l z z z z c z z z z p p p $ l l l p l z z z a p p %.l.4.#.9.;.] ,.P.aXN.2.H.H.M.2.,.e.S.2.,.,.M.S.C.a.3.1.,.M.a.1.",
". u -.3.&.] V A ] &.&.3.@.] &.&.&.&.&.] &.&.&. .1.1.3.,.) <.<.4.C.,.M z , * , , o X X . $ 5 , , , , , p e p p 1 q p p 1 ; l B B B B z z e a z z l 1 , c z B B B B B B B Z A B B M c z , v b b B B B B a f B B B f d p u a H B B A K A B Z J Z Z Z Z B a 1 ; 1 z a e a a p e , ; ; & * p a a a a a z z z p , p z p q p a p a z B z z z z z q , B B c c Z Z Z K K K Z B Z K K K z c z ; c B B M B B B B B K V V A K K J B : J A A A %.%.] A A } &.=.3.=.;.&.@.w z B B A K K B B B B B c z p p p p u $ p a z z z z z z z z z p s l p s 5 o v z z a z z a z z p e %.1.2.4.l.7.] 4.P.S.Z.Z.H.C.e.4.2.C.C.4.,.3.a.4.a.M.a.2.,.M.C.,.",
". , Y ;.&.&.] N ] &.&.=.} @.] [ &.&.` k ] &.] m ] ,.4.,.) 4.4.<.4.&.B z s * * < X   . . . , , , , , , e e p p q e p p 1 ; l B B B B z z e a z z z e , c z B B B B B B B Z Z Z B Z Z c , v b b B B B B d B B B B f d p u a H B B A K A B Z J Z Z Z Z B z 1 ; e c a e a a p e , , ; ; * p a a a p a z z z p , p z p q p a p a z c z z z z z p q B B z c c Z K J K K Z B Z K K K z c z ; c B B B B B B B B K V V A K K K B : J A A K %.=.} ] } &.=.=.=.&.=.&.K e z B B A K K B z B B B c z p p p p u $ p a z z z z z z z z s p s p p s 5 o v z z a z z a z z p p %.1.e.e.0.9.&.4.P.H.oXS.2.M.4.M.C.C.C.4.1.3.a.4.4.p.4.2.M.M.M.4.",
"o 1 K @.] &.&.} &.&.=.&.%.%.} &.%.] ] n N ] t m ] &.1.3.) l.<.&.4.3.M z 5 * , > X       . , 1 , , , , p q q p p u p p q : l B B B B z v p a z z z p , b z B B B B B B B A A B B Z Z c : v b B B B B B a B B B B B d p u a H B B A K A B Z J Z B Z Z B z 1 ; e B z a B z a e , , ; ; * p a a a a a z c z p , p z p q p a p p z z z z z z z p q B n z c c Z K Z Z K Z B B A K Z z c z : c M M B B B B B H K A A A K K K Z , K A A %.%.=.=.*.} &.=.=.=.=.;.;.K q z B B Z K K Z B Z B B c z p p z p 4 $ p p z z z z c c z z p p s p l s 5 o x z z a z z z z z p e %.3.4.4.9.c.&.3.G.P.H..XS.M.M.C.C.l.l.&.1.C.C.1.,.,...a.N.C.4.4.",
". $ K A N &.=.} &.=.3.=.&.&.] ] ] ] %.N m n m N ` &.,.3.y &.[ 4.3.>.n z 5 * , , .       $ , 1 1 , , , p p q q p p p p q : a B B B B c c p a z z v p , b c B B B B B B B A A B Z Z M c , v b B B B B B d B B B B B d a u a H B B A K A B Z J Z B Z Z B z 1 ; e M z a B B z e 1 , > ; * p a a a a a z z z p , p z p q p a p p z z z z z z z q , c z z c b Z Z Z Z K Z B M K K A z c z : b M n B M B B B B H A A K K K K Z , K K Y %.%.%.%.*.} &.&.=.&.=.;.;.K q z B B Z K K B B B B B c z p p z p 4 $ p p l z z z z z z z p p s p l s 5 o x z z a z z z z z p p K 3.e.4.3.9.%.3.G.S.M..XZ.M.C.4.4.4.C.1.4.C.1. . .1.a.a.a.N.M.&.",
". , K %.m ] } ] } } } ] A } =.] A ] A ] A N %.] N &.&.&.t &.&.4.3.;.z x s * , 1 o     o ; 1 1 1 , , 1 p p p p p p p p p : z B B B B B c p a z c c p , b c B B B B B B B A A A Z A Z z , c B B B B B B f B B B B B z d u a J B A A B A B Z Z Z B Z Z B z 1 ; e B a a B Z z e 1 , > ; * p d a z a z c c z e , p z p e a a a a z z z z z z z p , c z z c c Z Z Z Z K B B Z K K K B c z $ c M B M B B B B B H A K K K K J B , H A A %.Y A } } } *.} } } =.;.%.Y q z B B Z Z Z B z B M B c z p z p p 4 $ p p l z z z z z z z p p l l l l 5 o l z a a a z z z z a p Y 1.4.#.;.7.] a.S.S.e.C.S.M.a.1.3.4.a.3.1.4.1.1. .1.p.a.2.M.a.3.",
"o , A %.] ] %.m A A } ] V n ] A m ] ] ] ;.@.m ] N %.&.&.t &.,.0.3.;.z s 5 * , u ; + + ; , 1 q q 1 , 1 p p p p p p p p p : z Z Z B M B B p a c c c p , b c B B B B B B Z A K K Z A K z , c B B B B B B f B B B B B z d u a H B B A A K B B Z B B Z Z B z 1 > e c z a Z Z z e 1 , > ; ; p d z z a z B c z p , p z p p a z a a z z z z z z z p , c z z c z M Z Z Z K B M Z K K K B z z $ z M M M B B B B B K A K K K K J B , H K Y A V V A ] } &.} } } =.;.%.Y , p B B Z K K B z B B M c z p z p p 4 $ 5 s l x z z z z z x p p l l p l 5 o l z a a a a a z a p p Y 1.2.&.>.7.] i.C.Z.M.S.M.4.4.1.1.,.1.l.3.1.1.i. .p.1.1.1.a.4.3.",
". , K ] ] @.%.V %.%.@.%.%.V A @.V ] ] A @.V f A A ] ] &.g #.,.,.,.;.B l 6 , , p 5 < , 4 1 u u q 1 1 p p p p p p p p p p : z A Z M B B B z z B b c p 1 Z B B B B B B B Z K K K A A K z , B B B B B B B B B B B B f d d u a J B B K K K B B Z B B B B B z 1 , e B z a Z J z e 1 , > ; ; p d z z a z B b z p 1 s z p e a z z z z z z z z z z p , c z z c z B B Z Z K B M A K K K B z z $ z B B M M B Z Z B K K @.@.K K K B , H K %.%.%.;.=.=.*.&.} } *.&.=.%.Y , p c Z K K K B z B B B z z p a p p e $ 5 p l z z l l z z l p p l l p l 5 o l z z a a a a a a p e Y &.,.3.>.;.A i.A.2.,.S.A.4.2.4.1.&.&.x.a.1.1. . .i.i.1.1.a.1.&.",
". $ B n N A K n n n M K A A A A f n n V A n r n m A =.;.t ] ] ) ] %.p 5 5 * , p p 5 6 , 1 , u p q 1 p p p p p p p p p p , z A A Z Z B B z B B b c p 1 Z B B Z Z B B B K K K K K K K B , B B B B B B B B B B B B f z z u d J B K Z Z A z B Z B B B B B c 1 , p B z a J J z p e 1 < > , p a a z a z B b z p 1 p z p e a z z z z z z l l v z p , c z z v z B B Z Z K B M A K K K B z z : z B M M B B K Z H K K @.@.%.Y K B , H K %.%.%.>.>.=.&.%.} } *.*.%.%.Y , p B Z K K K B z B B B v z p p p p e $ 5 p l l l l l l l l p p l l p l 5 o l z a a a a z a p p e M ] [ 3.;.-.M i.S.M.,.1...1.1.1.,.&.&.1.&.&.} ` } =. .1...2.,.} ",
". $ K A A M A Z n f M A A M V m f V V V m f n V m ] ;.&.0 m g V ] A z l 5 , u d p 5 4 , 1 u q q q q p p p p p p p p p p , z A A Z A B B z B B B c p 1 Z B B Z Z Z B Z K K K K K K K B , B B B B B B B B B f B B f z c p d K K K A Z B z B B B B B Z B c 1 , p Z B a K K B p e 1 , > , p a a z a z B b z p , p z p e a z z z z c z l l v z p , c z z z z c B B Z K B M A K K K Z z z : b M M M B Z K K K P K @.@.%.Y K Z , H A A %.*.%.;.=.*.} } } } } } K K , l b B Z Z Z B a B B z z z z p p p e $ p p l l l p l l l l p p l l p l 5 o l z a a a z z a p p , n ] ` [ ;.>.n } 2.4.4.,. .,.1. . .&.&.,.&.&.] N  . . . . .1.[ ] ",
". * K H J Z K z a z B Z B z z r r n n n t w t t w A &.&.f 9.9.;.A M z l s , 4 p s p 1 1 q q q 1 q q q p e p p p p p p p , z A A V V M Z z B B B B a q Z B Z J J Z Z K K K @.%.@.@.K B , B Z M V M B B B B f B B g f a a a K B K K K Z z c B B B Z Z B z 5 ; p Z a a A A n e e 1 , ; , p a a z z z z z z p , 5 z w w a a a z z z z z z z z p , c c z c B B B B B Z Z c Z K K K B z z $ v M M M B B K P P P K K @.@.@.K B , H Z K -.%.%.%.%.%.%.} } } %.A Y K e p c B J J J B z c c c z z p p p p e $ 1 s s l l s s p p s p s s s s s p o p p p p p p p p p p < l v w n %.v.N 3.2.2...,.] [ &.#.] ) _ &.[ ) ) t N ] ] [  .] ] ] ",
". $ z z z a a w q w w w w e : e p e 9 r a a r 9 w f @.>.w n V K A Y z z s , 4 p s p 1 1 u p q q e e e p p p p p p p p p , z A A V V M Z z B M B B a q Z M Z J J Z Z K K @.%.%.@.@.%.B , B Z M V V B B B B B B B B B z a a K B K K K Z B B B Z B Z Z B z 5 ; p A B a n n n r e 1 , ; , p z a p z z z z z p , 5 z w q a a a z z z z z z z z p , c c z z c B B B A Z B z Z K K K B z z $ v M M B B B K K K K Z A K K K K B , b Z A Y Y K %.%.%.%.%.} %.%.K Y K e p c B Z H H c a z z z z z p p p p q $ 1 p p p p p p p p 5 5 p p p p s p $ 5 p p p p p p p p p , 1 1 q @.V @.A l.3.1.] ] g n V n g n n f w w a w r z n A A n n w ",
"Z a a 9 9 9 : % $ $ $ $ $ $ $ $ $ $ $ $ * * $ % % w M A 9 9 % 9 A Y c p s , 4 s p p 1 1 p p q q p p p p p p p p p z p p , z A A V V M Z B B Z M M a e Z Z Z J K Z A K %.%.%.%.%.@.%.B , B A A A V B B B B B B B B B z a a K A K K K K B B B B B Z Z Z z 1 ; p K B z M M n r e 1 < > , p z a p l z z z z p , 5 z w q p a a z z z z z z z z p q c z z z z B K K K B B z Z K K K B z z $ c M M B B A K K K K Z Z A A K K Z , F Z A A A A %.%.%.%.%.} %.%.K K A e p v c B Z B z a z z z z z p p p p q $ 1 1 1 1 1 1 1 1 1 1 5 p p p p p p $ 5 p p p p p p p p p > 1 , w %.M r M Y z w % % % $ @ @ @ @ $ @ @ @ $ @ $ $ $ $ $ $ $ o ",
"6X2X2X2X$X$X2X2X2X2X2X2X2X2X1X1X>X>X,X1X:X@X@X'.-.-.A a M n 9 9 -.-.Z p p 4 5 s p p 1 1 p p p p p p p p p p p p p l p p , z A A V A V K B B M Z M a e Z Z Z K K K A K K %.%.%.%.%.%.Z q B K A A A V V Z Z Z B V B B z a a K K K K K K B B B B Z Z Z Z z p : p A n z A A n r e 1 < > , p z a z z z z z z p , p c p q a a a z z z z z z z z p q z d z z z B A K K B c z Z K K K B z z $ c B B B B B A K J B M M B Z Z Z b , F Z A A A A A %.%.%.%.} %.%.K K Z 1 p c B J J H b a b c z z z p p p p q $ 1 1 1 , , 1 1 1 , 1 4 p p p p p p $ 1 p e 1 q p p p p 1 , , , p B Z : : l , ; Y |.|.}.}. X X[.+X@X|.|.|.|.|.|.|.|.+X;X;X>X",
"OX X$XOX X[. X X X X X$X2X2X6X6X6XqXjXjXkXkXkX[.n n n z n z e r -.>.Y p p 4 4 s p p 1 1 p p p p p p p p p p p p p p p p 1 z A A V V M B B B Z Z M a w Z Z K K K K A K K @.%.%.%.%.%.B q B K A ] A A A A A A Z Z Z B z a a K K K @.@.K M M A A A A A Z z l : p A n n A A M r e e 1 > , p z z z z z B B z p , l c p w a a z z z z z z z v z p q z d z z c B Z K A B B c Z K K K Z z z $ v B B B B B B B B B z z z z c c v , F Z A K K A A @.%.%.%.%.%.%.@.K Z 1 p b B Z J H b z b c c z z p p p p 1 $ 1 1 1 1 1 1 1 , ; , 1 1 4 u p p p $ 1 p p 1 1 p p p p 1 e , z Z Z -.e ; , > , d.kXjXkXzXzXfXfXkXkXjXfX6X6X6X6X6X6X3X2X:X:X",
"A A ] ] V A ] ] %.*.*.=.;.;.3.a.l.l.G.G.G.L.G.%.9 a n z r a r z %.-.A p p 4 4 s p p 1 1 p p q q p p q e p p p p p p a p 1 z Z A V V M B B B Z Z M z e Z Z K K K K K K K K @.%.%.%.%.Z q Z K K @.] A A A A A Z Z Z B B a B K K K @.@.K A A K K K K K A B l , p K B M K K n z e e 1 , , p a z z z z B B a p , l c a p z B z z B B v z v c c p q z c z z z B K A B Z B B Z K A K Z z z ; z B B B z z z z z z z z z B B c c , F Z A K K A M K %.@.%.%.%.%.%.%.J 5 s b b B Z Z c z z z c z z p p p p 1 $ 1 e p p p p p q * , , , 1 1 1 p p , p p p 1 , 1 1 1 1 q e e K R -.5.p , l p z V l.A.Z.S.S.M.a.C.A.A.a.a.l.a.i.i.i.3.=.*.} ",
"j n t g g t t t j j j n n n k k m k ` [ [ [ _ t w n M V n M M M %.%.M p p 4 u d a p 1 1 p p p q p p 1 e p p p p p p p p 1 z A A V V A Z B B Z Z M z e Z Z K K K K K K K K @.%.%.%.%.Z e J Y @.@.A A %.@.K A Z Z A B B a z K K @.-.-.@.A K %.%.K %.Y A n l , p Z n M K K n z e e 1 , , p a a z z z B B d p , l B a a z B z z B B v z v v c p q z c z z z B K A Z Z B B Z K A K Z z z ; v B c z z z z B Z Z Z Z A K K Z Z 1 F Z K K K A M K %.@.%.%.%.@.K K J 5 s x b B Z B z z z z c z z p p p p 1 $ 1 e q p p p p u q p p p q 1 1 p p 1 p p 1 , , , , , 1 1 1 e R 7.-.-.p 1 J z n m 1.2.o.{ ' ' [ [ [ ..| ..[ ` ` ' ] ] ' m N ",
"j t f f t t j m m j t t t t j j j j N m t t t t w f V V w f n n %.>.-.a d 4 u d a p q 1 p p p p p p 1 1 p p p p p p p p 1 z Z A A A A B B Z Z M M z e K Z K K K K K K K @.@.%.%.%.-.J p J K K M V M M A %.K A V Z B B a B Y K %.-.-.%.A K %.%.%.%.%.A B l , p Z n M K K n z e e 5 , 1 p a a a z d B B a a 1 l B a a z z z z B B c z v v c a q d c z z z B K Z Z Z B B Z K K K Z z z $ x B z z z z c B Z K K K K K K K Z , b K K Y Y K A K %.@.%.%.K K K K H u s z c B B B z z z z c z z p p p p q * q q , , q q 1 q p a p p u 1 q q q , p 1 1 : * , , 1 1 , , e K -.K %.a p H a w ]  .{ ' ' [ #.&.[ [ [  .[ [ _ ` ` A A N N N ",
"n f n f f t t m j t t t t j n n M n n f f f f t w n A V w w f n %.;.K a p 4 u d a p q q p p p p p p q e p p p p p p a p 1 z Z A V A A Z B Z Z B M z a K Z K K K K K K K @.@.@.%.%.-.K p J K a n ;.>.V r A %.A A A Z B a B %.K %.-.-.%.K K %.%.%.-.%.A n l , p Z n M K K n z e e 5 , 1 p a a a z B B B a a e l B a a z z z z B B c z v c c a q d c z z z B A Z Z Z B B Z K K K Z z z $ x b z d z B Z Z Z A K K K K @.K J q b Z K Y Y K A K %.%.%.%.K K K K J p p z z B B B z z z z c z p p p p e , $ q q 1 , 1 q 1 , q u u q q , q 1 1 , q e 1 : * , 1 q 1 , : e B -.-.-.f a d u J >.] ) / ) @.@.@.) ) m m m ] ] ] ] %.@.K A V ",
"m m k y y j j j t t j j j j N ] N A N A m N &.&.a.a.1. .N N ) ] %.-.K z a u p s p p q q p p p p p u q e p p a a z p a p 1 z Z A A A A B B Z Z M b z p Z Z K P K K K K K @.@.@.%.%.%.A a Z B q w R :.R a V %.@.] A A M z M %.%.%.%.*.%.A K %.*.&.%.-.A z l 1 l A M V %.K M z l e p < , p a a z a z B z a a e p B a a z z z B B B z z z z c p q z z a z z B K K K Z Z c Z A K K B z z $ x B B B z B Z M Z Z Z Z Z K K K Z , F Z A Y K K A K %.%.%.} A A A K B u p z z B B b z l z v z p p p p p p 1 : p 1 , , , , , , q q 1 1 , , 4 , 4 4 p u , $ , , , 1 , : : e Y 7.c.:.A B B K 9.3.#.) g t t g m ` ] ] ` ` ` ] ` m ` m N m m ",
"N N N N N m m m m m m m j j } &.&.&.&.} &.3.A.L..X.X-X.XL.3.&.3.z.7.Y B a p p s s p q q p p p p p p q e p p a a z p z p 1 z Z A V A A B B Z Z M b z l Z Z K K K K K K K @.@.@.%.%.%.A a M z , , F H Z a V %.%.] ] A M n M -.%.%.%.*.*.K } *.&.&.=.%.A B l 1 p A M V %.K M z z l p < , p z a z a z B z a a e p B a a B B z B B B z z z z c p e z z a z z B A K A Z B c B A K K B z z $ z H B B B B Z B Z Z Z Z K K K K Z , H Z A A A A A K @.%.%.%.%.A K K B u p d z B B B z z v v z p p s p p p 1 $ 1 , , , , , , , , q 1 1 , , , , , 4 4 1 , $ * , 1 1 , : : a :.d.d.:.-.K >.n.F.x.4.3.,.,.,.&.&. . . .] ]  .] _ ' } ] ] ] ` ",
"%.%.%.%.%.] @.%.&.&.&.&.&.&.1.p.a.a.A.L.L..XsX*XoXfXdXOX].F.n.>.K B Z Z z e p s s p q q p p p p p u p p p p a a z p z p 1 z Z A V A M B B Z Z M b z p Z Z K K K K K K K @.@.%.%.%.%.A a A Z a : p c z r ] %.%.%.@.A Z n M -.%.%.%.*.*.Y %.&.&.&.=.%.K B l e p Z M V %.K M z z l l 1 , p z a z a z B z a a e p B a a B B z B B B z z z z v l e z z a z z B B A A Z B c B A K K B B z $ z B B B B B B z Z Z Z Z Z K K K B , H Z A A A A A A @.%.%.%.@.K K K Z 1 5 z z B B B z z z v l l p s p p p , $ 1 1 , , , , , , , , , 1 , , , , * , 4 , * $ * , , , : $ $ p Y 6.7.:.:.-.b.{.OX-XoX.XG.G.A.C.a.4.1.1.,. .1.1.1.3.1.1.1.1.1.",
"k.i.k.k.k.l.x.x.x.l.l.C.A.C.A.J.L.L.I.I.oXoXoXoXsXgXfX3X Xk.K a q a -.J a e p s s p q q p p p p p u p p p p a a z p l p 1 z Z A A A M B Z Z Z M M z p Z Z K K K K K K @.@.%.%.%.%.%.A a A Z a q , e w n %.&.%.%.@.K A n M %.%.%.*.&.*.Y %.*.&.&.=.%.Y M v e e A V V %.Y A z z l l 5 1 p z a z a z B z a a e p B z a B z z z B B z z z z v z p z z a z z B B A A Z c c Z A K K B B z ; c B B B Z Z Z z b Z Z Z Z Z K K B , H Z A K K K A A K %.%.%.@.K K K Z 1 5 l z B Z B z z z z l l s 5 5 5 5 , $ , , , , , , , , , , , , , * * * * * * * $ $ $ , * $ $ * , , 1 e w Z -.d. X3XsXfXdXsXsXsXsX.XS.L.S.C.M.M.M.C.C.M.a.C.x.l.C.",
"=.=.=. . . . . . . .1.......p.p.M.p.M.S.J.I.sXdXzXdXfX2X;.a z a , p K z z 1 p p s p p p p p p p p p p p p a a a a p a p 1 z Z A A V M B J Z Z M M z p K Z K K K K K K @.%.%.%.%.%.%.A r K A z a z w r %.&.&.&.%.@.K A n M -.%.%.*.&.*.K } *.&.&.=.%.Y M v p p A A A %.%.A M z l l p 1 p z a z a z z z z a e p B z a z z z z c c z z z z v z w z z a z z B B B Z B c c Z A K K B B z ; v Z Z Z J Z Z z v b B B B B B H B , H Z K Y Y %.K Z K Y K K K A A K Z < < l c B Z B z p p p p p 5 5 1 5 5 > o ; * * * , , , , , , : 1 , : * * * $ * $ $ $ $ $ $ * , , , , * 1 e a z A n.K.-XnXnXnXzXgXgX*XP.oXoXP.P.L.S.S.A.a.A.P.L.G.L.",
"J.L.L.L.L.L.S.L.I.I.I.I.*X*XsXdXdXdXfXdXfXgXgXgXgXgX.X] z z H p 1 a Z Z z 1 p p s p p p p p p p p p p p p a a a a a p p 1 z M V V V M B J B Z Z Z z z Z K K K K K K K @.%.%.%.%.%.%.A r K K B z B n A %.&.&.%.%.K K A n M %.-.%.=.=.=.A } =.&.&.=.%.Y M z e a A A A %.%.V M z l p p p a z f n a z z z z a e p c z a z z c c c c B n z c v l e z z a z z B B A Z Z B c A K K K M B z ; x Z Z Z Z Z z e p c B B B B B B c , H K K K K Y K B K K Z Z B B B B z 1 , l z c c z p p e e p 1 1 1 1 1 , ; $ $ % * * * : * : , : , a p , , 1 , * * $ $ $ $ $ $ * 1 , , > $ p K z w e -.l..X-X.XoX.XG.A.M.C.A.G.G.C.C.L.L.P.L.L.XXoX].].",
"L.{.P.L.L.L.K.L..X.X.X*X*X*XsXsXsX-XsXsXsXdXdX-XsX.X} 9 9 p q , q K :.K z 1 p p s p p p p p p p p p p p p a a a a p p p 1 z n M M V M B J Z B Z M z z Z K K K K K K A @.%.%.&.&.%.%.A i @.K K B A A ] %.&.&.%.@.K K A n M %.%.%.=.=.=.K } &.&.&.=.%.Y M z e a A A A %.%.V n z z p p p z B f z a z B z z a e l c z z z z z c z z B n z c c l p z z a z z B B A Z Z B c Z K K K M B z ; x Z Z M c z p p l z z a z b F b b , H B B B B Z B z B B c Z B z a a a 1 , p p p p p q , , q 1 , , , 1 , , $ $ $ , q q q q : q p e q a a p a a p , @ @ $ $ $ $ $ * , , ; $ $ ; 1 z q , z m.=XOX]..XoX-XoXXX.X]..XoX]..X.X.X.XoX-X=X-X=XOX",
"r n n j n m g n m m m m N ] ] ] ]  .] ` ` ] ] } *.] n a q q , p z Y K B z 1 p p s p p p p p p p p p p p p a a a a p p p 1 z n M M M M B K Z Z B B z z Z K K K K K A A } %.&.=.;.&.;.K i K K K B K ] ] &.&.&.%.@.K Y A n M -.%.%.%.=.=.A } &.&.=.=.%.Y Z c e a A @.A %.%.V n z z p p p z B f B a z z z z a e l c z z z a p p p z z z z c c z p c z a z z B B A Z Z B c Z K K K B B v ; x B n z l p p p p p p e p s x s x , c a B B B B z z z p 5 s p 1 q % : * , p p p p p e e p p a a a a a p p , * q w w w e , q q : : : p p a a p q * @ $ 1 1 , $ . $ $ * ; o o ; , e : : , r r j t t t y t n m k j m m m t t t k k m N m m ",
"$ $ $ $ $ # # % % % 9 9 9 9 0 0 t t 0 0 0 t t r z n n a 9 : % w z B B B a , 1 p s p q q p p p p p p p p p p a a a p p l 1 z n M M M M B K A Z B B z z Z A A K K K A A } %.=.=.=.;.;.@.w K K K K %.} &.=.1.&.%.@.K Y A n M %.%.%.=.=.=.K } =.&.=.=.;.%.Z c e a A @.A &.%.A n B c p p p a B B B a z z z a a e l c z z p p z c z p z z z c b z p c B z z z B B A Z Z B c Z K K K Z Z c > x n z z e , , , , , , , > < < > 6 * x B B B B J z q : , > < ; , d B z a w p l l p p p z B B B B d a a a a q q a a a p e e q , : % : e w a p u p u % 1 z p a , $ $ $ $ $ o 1 v v 1 $ $ , : 9 9 7 7 7 0 w w w 0 w r t w 0 w 0 w t t t t t ",
". . . . . . . . . @ @ @ @ @ % # 7 7 # # # 7 7 9 9 e r 9 9 : q a z B M Z c : , p p p 1 1 p p p p p p p p p a d a a p s s 1 z B M M M B B A Z M M M z a K A K A K K K @.%.%.=.=.;.=.;.@.i %.%.@.A } } &.3.3.&.%.@.%.%.K B A =.*.&.=.;.;.K Y =.=.=.=.%.%.Z M e z A ] m %.} V M B c a w p z n B B n n B z a a e a B z a q a M A M r e z c c z z p c z a z z z B B B B B B M K K A Z B z , l c z z , ; $ ; e q , e q , a B a , a c p , q B B a a i a a e B K K B a q e p p p q 9 n M M M B a p a p p q , a a z n a a e r a 9 q z a a a a a q $ q a p a p q , * $ * z Y Y Z r % % * % % % # # 7 7 7 7 7 9 9 7 % # % % % # # % # # % ",
"o . o o $ $ $ $ $ $ % % % % 7 7 7 9 w w w w g n r n n j r r a V %.k.k.d.:.Z Z x s p 1 1 5 p p p u p p p p a d d d p s s 1 z B B B B B B Z Z M M Z c p K A K A A K K @.@.%.;.;.&.=.;.K a Y %.] ] ]  .=.3.3.=.@.@.@.@.K B A =.*.&.=.;.;.K K %.=.&.=.%.%.A M e r A ] m %.} N M B z a e p z n B B n n B z a a w a B z a q r M M n r 9 l c b c z p c B a a z z z B B B B B A @.@.K Z M z , p p p 1 , , e c A M p q q B K K K M a p , : : a A B B V M B w a B f a a e , 1 1 1 q 9 r n m M Z a p a a p : : a a n n n n e r n e w B a a a a p 1 $ , p p p a , * z K Y :.7.-.-.A r e e r r r r w w w f f f f a f a w w a i r r e e e e ",
"z z z z z B B B B M Z A A A ] ] ] ] #.] ] ] ] A } i.x.n.'.'. X$XOXOX}.m.b.d.:.Y z e 1 1 5 p p p u u p p p a d a a p s s 1 z B M B B B B Z Z M M Z c p K A K A K K K @.@.%.;.;.&.=.;.K a K K ] ] } &.3.i.3.&.@.@.@.@.K B V =.*.&.=.;.;.K K %.&.&.=.%.%.Z M e z A ] A %.} A M B B z e a z n V B n n B z a a w z B z a q w z a z e : p c b c z a B B z z z z z z z z B B A @.@.K Z B c 1 p z p 1 p Z Z n f V z : : B K Z M K B : , p e w B a f Z n n a a B e e a e , 1 q q 9 9 n M n n B a w a a w : q z a a z B n e w z q q z a a a a p 1 $ : p e e e e Z 6.g.7.d.d.c.c.d.-.Y K A V V V A A A @.@.@.@.@.%.=.&.%.%.;.;.;.%.%.%.%.",
"M M M V V V A A V V A ] ] ]  .&.[ [ ,.3.4.4.4.,.C.dXzXnXnXzXzXzXdX3X{.'.m.c.:.-.Z 1 1 1 5 p p p p p p p p a a a a p p p 1 z c B B B B B K Z B Z Z z l K A K A K K K @.@.%.;.;.;.=.;.Y a Y K @.} =.=.3.3.;.@.@.@.@.K Z B V =.*.&.=.;.;.K K %.=.&.=.%.%.Z M e z A @.A =.%.A Z Z B z r a n B B B n n B z a a w z B z p q q p p p e 1 z c c B z a B B z z z z z z z z B B A K A A Z Z c 1 p z p , z Z B a w f p : e B B Z B J z q e e q B B n n Z M B A A B p a p q u u u e e r n n f a z p q w e q q q a a a z B z e q q % , a w a a p u ; o $ e e e 1 b W 6.b.b.E.E.!.E.b.z.c.c.9.;.;.=.=.%.} &.&.&.%.] %.&.=.&.&.&.&.&.&.&.#.] ",
"i.i.k.k.k.l.A.A.x.l.A.G.G.G.G.L.G.G.L..X.XoXoXsXfXZXZXZXHXZXZXZXkXdX=XOXK.b.>.K z e 1 1 5 p p q q q p p p a a a a p p p 1 z c B B B B B K Z M Z Z z l K A K A A K K @.%.%.;.;.=.=.=.K r Y Y %.%.=.=.&.=.%.@.@.@.@.K Z n V =.*.&.=.;.;.K K %.&.=.=.%.%.Z b e z A @.A =.*.A Z Z B z a a n B V B n n B z a a w z B z p e , e p p e p c c c B z a M B z z z a z z z z B B A K A A M Z B 1 l v p : p Z a w i w 1 , e a a B d a p z b p * a d B a e w z a a a z B a q p p u u q a a a a a a e 1 q q e q , , q p p z a p , * $ : 1 : q , * * $ . $ , , p c Y W :.g.b.E.^.|.@X@X|.|.$X X X{.'.K.x.x.A.G.F.G.A.x.A.F.G.A.F.G.F.C.C.C.A.",
"OXOXOXOX=X=X=X-X-X-X*XsXsXdXfXfXfXgXgXzXzXzXnXnXZXZXZXHXZXZXZXzXdX-X{.K.l.k.-.Y z e 1 1 1 1 4 u q u u e p a a a a l l 5 , z c B B M B B A K M B c z p K A K K A K K %.@.%.%.=.=.=.;.K a K %.%.%.&.*.} } ] @.@.@.@.K J B A *.&.&.=.&.;.A A %.=.&.=.%.Y Z b z z A ] @.%.] A M M n z z z n B B n f a n z a z w c c z z p e , , 1 p z B Z B B z a M B B z z a z z z B B M A K A Z A M B 1 p z l , : e p a f g s $ $ q q q , , p p z p q p a p , * * $ , p z z z p , , 1 1 1 q u e e e q 1 1 , , , , , , * , , , , , , , $ $ ; $ $ * * $ & & + $ 1 p p l H K T 6.g.T.^.@X4X4X6XhXkXkXjXfXdXfX3X2X2XOXXXL.L.L.]..X.XXXOXoXoXoX.XoXoX",
"dXdXdXfXfXfXgXzXgXgXgXzXzXnXnXZXZXZXZXZXZXZXZXZXZXZXHXLXHXZXZXzXdXOX'.n.k.>.-.K c p 1 1 1 1 u u q u q e w a a a a l l 1 , z z n B B B B K K M B M z z Y K K K K K @.%.@.%.&.=.=.=.;.K a K %.%.%.*.} A A A @.@.@.@.K J B A %.*.&.=.=.;.A A %.=.=.=.%.Y Z M z z A @.@.A m N M M n z z z n B B n n a n z a z p c B z z z a e q p z c B B B B a a M B B z z a z z z z B B V A A Z A M B 1 l z z p : ; : p a a > o $ , 1 , , , , , , p u $ , , $ , : $ $ , p p , * * , , , , * , * * , , * $ $ * $ $ $ $ $ $ $ $ $ $ $ $ $ $ $ $ $ $ * * & & + , p p e 1 p z b U s.g.T.(.4X6XhXnXCXBXBXBXnXBXzXkXzXjXsXoXXXoXOX.X.XoX-X-XaXsXaXaXsX",
"nXzXzXnXzXzXnXnXnXZXZXnXZXZXZXZXZXZXZXZXZXZXHXHXHXZXHXHXZXzXdXoXK.l.>.-.%.Z z p e 1 1 1 1 1 u u p p e e w a a a p p p p , z z f B B B B A A M M M z p K A K K K K K @.@.%.%.&.&.&.;.K a Y %.%.} *.} ] @.@.K K K K K J B V *.*.&.=.=.&.A A %.&.&.%.%.Y Z b z z A @.A m n V M Z B z z z n B V B n a z z a z w c n z z n n z z B B B Z B B B z a M B B z z a z z z z z B M A V Z A B B 1 p z z z 1 $ o o $ $ = + $ , 1 , $ $ $ * , u , $ $ $ * 4 1 : $ $ $ $ . $ $ $ $ $ $ $ $ o o + $ $ $ $ $ $ $ $ $ $ $ $ $ & $ $ $ $ $ o o $ $ $ o + + o 1 1 1 , , 1 5 p v R 6.d.T.}.$XkXBXZXZXZXZXnXzXzXzXzXfXsXdXdX-XsXdXgXzXzXzXzXzXzXzXzX",
"dXdXdXdXfXfXgXfXgXzXgXfXgXgXzXzXnXnXZXnXZXZXZXZXZXZXHXZXnXfX*XL.l.>.-.Y K c p 1 , 1 1 1 1 1 u u p p e e w a a a p p p p : z z f B B B B A A M M M z p K A K K K K K @.%.%.%.%.%.%.%.K a Y %.%.] %.] A @.K K K K K K J B V *.*.&.&.&.%.A A %.&.&.%.%.Y Z Z z z A K V n V V M Z B z z z n B V B n a z z a z w c n n r n n n B B B B B B B B a a M B B z z a z B B B c B M V V Z A B B 1 p z z z l < < > > < > < 6 s p p 1 ; 5 p p p p u u p p x l p p p 5 1 , * * ; > < < < > ; ; > ; $ $ $ $ $ $ $ $ o o o o o o $ $ $ $ o o $ $ $ o o o X , 1 1 , , , , ; 1 l J E 6.T.@XjXkXzXkXfXdX-X-XOXOXoX.X.X.X.X.XoXoXsX-X-X-XdXdXdXgXzX",
"L.L.XXXX.X.X.X.X.XoX.XoXoXoXoX-XsXdXfXfXdXfXfXfXfXfXfXdXaXH.A.A.3.%.V B z 5 , ; , 1 1 1 1 1 e 1 e e e e p p a a p p p p , z z n g B B B A M B M M z a K K K K K K K @.@.@.%.%.%.*.%.A a A %.@.] ] A A K K @.K K K K A n V %.%.%.%.&.%.A A %.%.%.%.%.@.A Z z z A A B n Z V M Z B z z z n B B B z z z z a z p B B z z B n B B B B B B B B B a a M B B z z z B B B B B B M M B Z Z Z B e p n B B c v z z p p l z z z z c a 1 z B B B z a a z B J B c z z x s p , , 4 5 5 5 5 4 , , 4 , , , , , * $ $ $ $ $ $ $ $ $ $ $ $ $ o $ ; , , , > ; o , p s 5 < , ; $ ; , p b T 7.E.OXOX.X].L.G.A.C.M.a.4.M.a.4.4.C.C.C.G.G.G.P.P.I.I.oXoX",
"=.1.3.3.3.3.1.1.1.3.3.4.a.4.4.4.4.a.A.S.N.N.N.A.A.S.S.Z.N.2.[ ` N m n a p 4 ; ; , 1 e e e e e 1 e e e 5 p p p p p p p p , a f B B V B B Z M b M B z a K K K K K A A @.@.@.%.&.%.%.%.A f A @.@.@.] A A K K K K K K K A n A %.%.%.%.;.%.A A @.%.%.%.%.] A Z z z Z Z B B B A Z Z B z a z n B B B z z z z a z p B B c B Z B B B B B B B B B B a a B B B z z z B B M M B B B M B B B B B w a B B M B B B B a a z B z B z B z q B M M B B f a n B K B B z z d p s , , p p p p u u q q q q , , 1 1 , * * $ , e e e e , , , $ ; $ $ , q q u p 1 o o , 5 , < < & + & * , 1 p B >.k.3.4.3.&.&.&. .&.[ ) ) N m N ] &.&.,.&.&.&...,.....1.",
"n B M B B n n n M M V V A @.A N N } =. . . . . .=.....M.M.a.,.] m z r e , & $ $ : , 1 q e e e 1 e e e q p p p p p p p p , a a n B B B B A M b M B z a J K K K K A A @.@.@.%.%.%.%.-.A n A @.@.@.A A A K K @.K K K K A n A %.%.%.-.;.%.A A @.%.%.%.%.K A Z z z Z Z B B K K Z Z B z z z n M M B z z z z a a a B B B B Z M B B B B B B B B B a a B B B z z z B M B B B B B B B B B B B w a B B B M B B B a a B B B B B B B p B B B B M B a B B A B B B z z d d , 4 p p p p p p p q q 1 q 1 , , , , * $ p p p a a p u p % * $ $ : q p u p p o . + $ o o o o + + $ * $ $ , Z %.@.] ] A A A A A A A A M n n n f n n n n m A %.A n n ",
", > > , 4 , , 1 q p a a d B r r r n A n n N N N N ` ..M.a.a.3.=.Z p , $ $ $ o $ $ : , , 1 e 1 1 e e e 1 1 p p p p p p p , a a n B B B B Z M b M B z a J Z K A A A A K %.@.%.%.%.Y %.A n A @.@.%.A A A @.@.@.@.@.K K A n A %.%.@.%.@.@.A V K %.%.%.%.K A Z z z Z Z B B K K Z Z B z z n B M M M B n n B a f i B Z M B B B M B B B B B B B B z a B B B B z B B B V V V B B B B B B B B e p z B B B B B B a a B Z B B B B B a B B B A B B B B A K B B B B B d d q u p p p p p p p p p p u 1 1 , , , : $ p a a a a u u u % * $ $ , p p 4 4 5 $ . . . . . . o o o o $ + o ; c Z n f a a a a a a a B B z p p p w q % % % % : : : : q ",
"& > 4 4 4 , 4 , , , , q u u q w z M V r r n n n j j ) ] [ ] V n p ; + o o . . $ , , , , , 1 , , 1 e 1 1 1 p p p p p p p : a a n f B B B B M B M B z p Z Z K A A A A K @.%.%.%.%.Y Y A n A @.@.@.] A A @.@.@.@.@.K K A n A %.-.-.;.&.@.A A K %.%.%.%.K A Z z z Z Z B K K A Z Z z z z n B M M M B n B B f f i Z Z B B B B B B B B B B B B B z a B B B B a B B B B Z V V M B B B B B B e p z B B Z Z Z J z a B J B J B B B a B Z J A Z Z B B K K A Z B B B d d u u p p p p p p p p p p q 1 1 1 1 * , $ , 1 q u p q q p * $ $ o ; 5 5 4 4 4 > .     . . . o o o . o o . + c H a a a B B a z B B K B z a a a z f a a a a a z a p a ",
"$ * , , , , , , q 7 % q q w q e i Z K n f g V n r r j j t t 9 : $ $ o o $ * a Y R B , : : , , , , 1 1 1 1 p p p p p p e $ p a n B B B B B M n n z z w Z Z K Z A A A K K @.%.%.K Y Y A r V K @.K ] A A A A @.K K K K A f A %.@.%.;.%.@.A A K %.%.%.K A A Z a z Z B B A K K M M z a a z n B B B f B B B f i i B B B B n B f f n B B B B B B a a B B n z z n B B B B V B B M M B B B B q p z c Z Z B B c c z B B Z Z B B B a B B Z K K Z B B Z Z B M B B B B d q q p p p p p p q 1 1 1 1 , , , ; $ ; $ ; ; ; ; ; ; > > ; + $ $ $ , , , 4 4 4 o o & 6 x s p 1 $ . . . + . 6 H H z f f n n n n g n n n n n n g f g g n g a f n n M ",
"$ $ * * , % : : 7 7 9 9 w w i u i i f f g g V B a r e 9 9 9 9 * $ $ $ : M %.7.>.-.-.z , , , , , , , , e e p p p p p p 1 : z z B M M B B Z Z M B z z a K K K Z Z Z Z A Y %.%.%.Y R Y K a K K %.@.@.A A A K K K K K K K B K -.%.-.-.-.@.Z M A K Y Y K K A Z z z Z Z B A K A Z Z B z z n n n n f f f n n n a a B M B B B B B B n B n z a a a a a z z z z z a z n B B B f f B B B B z z q p z c c c c c z z z z B B B B B B a B B B B B B B B B B M M B n B z a 1 , 1 q p q 1 , , , , , ; ; $ $ $ $ $ $ $ X X X X X o o X X o o . . o o o $ & + + x F J J U K b 4 o . . o , z c c f g g g t t t t t w w r f g m m m g g f f f f t ",
"$ $ $ & * $ : : : : % , , , , , , q u e i i i a a a e e : % $ $ $ : M 3.n.n.v.c.7.K p : , : , , , , 1 1 1 1 1 u p 1 1 , $ e p z z z z z c M z z z r w M B Z Z Z Z Z A A K K K K Y K A a Z A K K A V M Z A Z Z Z Z J J B Z K K K K K K Z Z A K A A A Z M B a a B B M B B B z z z a a z n n a a a z z z a a a z z a a a a a a a a a a a a a a a z a a l l z z z z a a a a a n a a z z p p z z z z z z z z a a a z z z z z a B B B B B B B B B B n z z z z a p 1 , , , , , , $ $ $ $ $ $ $ $ $ $ $ $ o o o o o o . X X X X . . .       . o $ + + > 6 J E W :.d.b.T p $ o , p p a a w w e e e 9 e e q q e a a i i i w w 9 9 w 9 w ",
"        . . . o . . . o o . . . . . . . $ $ , 1 e e , 1 : $ * , B >.F.x.C.x.9.-.f q $ $ : : $ $ * , , , , : , , , , , , ; 1 e a a a w w a r e a r e e z a B B M M M M B M V V M Z M Z z B B B M n n z B M c B B B B b c Z J B B B B B B B M B M B B B B B z z B B B B n a z z a r a a a a a a a z z z a z a z z z z z z z z z z z z a a a a a a a a l l l z z z z z a a n n z a z z a z z c c z z z z z z a z z z z z z z B B c z z c c c B B z z z z z p p p p p p p p e 1 e q 1 , , , , , ; ; ; ; ; ; ; ; ; > ; ; ; > * * ; - + + + $ $ O O o o < v T 7.c.b.E.b.R $ ; : * * % $ $ $ $ $ $ $ $ $ $ $ $ * * * * % $ $ $ $ $ $ ",
"                      . .           . . . . o . $ $ $ : : z -.b.}.K.n.l.3.@.B u $ . $ p c Z M M Z Z J H J K K K K K K K Z K K Y Y Y K Y R Y R R R R Y -.-.-.*.-.*.-.*.>.>.>.>.>.7.7.d.>.d.d.d.d.d.d.d.d.d.d.d.d.d.d.d.d.d.d.d.d.d.d.d.7.7.d.d.d.d.d.7.7.>.>.>.>.:.>.>.:.-.-.-.-.%.%.%.%.%.%.-.-.-.-.-.-.-.-.:.>.>.>.:.:.:.:.>.>.>.7.>.>.:.7.7.7.7.:.:.:.:.:.:.:.7.7.7.7.7.7.7.:.7.7.7.7.>.7.7.7.>.:.:.>.>.7.7.7.7.7.7.7.>.7.7.7.7.7.7.7.7.7.7.d.7.7.7.d.6.6.7.7.7.7.7.7.5.5.5.5.:.:.W W W R E E R R R T T T L K K J K K H J F F F b c c x x 4 > $ o , p z P :.b.E.b.a 9 9 9 # @ @ @ @ @ . . . . . . . . . . . . . @ . . . . . ",
", * , , , * * * , * * * , , , , , , : , , e e p z M Y ;.n.'.'.F.F.n.k.-.a 1 $ . > b -.d.d.d.d.>.>.u.d.6.s.6.s.6.6.6.5.7.7.7.7.d.d.c.c.c.b.n.b.b.b.b.n.n.n.E.m.m.m.m.n.m.m.m.m.n.n.n.n.m.'.'.'.'.'.!.!.!.m.'.`.`.`.`.F.n.n.n.F.F.F.F.n.n.n.v.n.n.n.n.n.n.n.n.n.n.n.n.n.E.n.n.n.v.v.l.v.v.v.v.z.n.b.b.b.b.b.n.n.n.v.v.v.l.l.v.v.n.n.n.n.z.b.b.b.b.z.z.c.z.c.c.c.z.b.b.b.z.c.c.c.c.c.c.b.b.l.v.n.n.z.z.z.l.n.l.v.v.v.l.v.v.k.k.z.z.z.z.k.k.k.k.k.z.z.k.7.>.>.>.>.>.>.-.-.-.-.-.-.-.-.-.E E E E E E E E R R -.:.:.5.5.:.:.5.:.:.:.:.:.:.:.:.:.-.:.-.B q $ $ 4 s Z -.c.n.n.'.'.'.v.7.-.-.K K K B B d a p e q , , , , , , u p p q q ",
"z.c.z.c.z.d.7.c.n.E.!.!.}.|.[.[.[.[.[.[.[.[. X[.'.n.n.n.z.k.l.x.z.-.a % % . $ D 6.g.c.c.d.z.c.b.b.c.c.d.:.-.:.>.>.d.k.k.>.>.k.c.c.z.n.n.n.n.n.n.n.n.'.K.'.'.'.'.'.K.K.'.[.[.[.[.'.'.}.{.'.'.'.[.{.}.}.}.'.[.].'.'.'.'.'.'.'.F.F.F.F.F.F.l.l.l.n.F.K.'.K.K.K.K.'.'.'.'.}.'.'.'.'.'.'.'.'.'.'.'.'.'.'.'.'.'.'.'.'.'.'.'.'.'.'.'.K.`.F.F.F.n.F.K.'.F.n.n.n.n.n.n.K.m.n.n.m.n.n.n.n.n.n.n.n.F.F.F.F.F.n.F.'.'.'.'.`.'.'.`.F.F.F.n.n.n.n.n.v.v.v.v.n.n.n.n.n.z.z.z.z.z.z.z.z.k.z.z.k.k.z.z.z.z.z.z.z.z.b.n.n.v.n.n.n.n.n.n.n.n.n.n.n.n.n.n.n.z.z.k.d.7.-.H 1 $ * * p c K :.7.k.c.c.7.d.d.c.c.d.d.d.d.d.7.7.>.:.5.7.7.5.-.7.c.c.d.7.",
"n n M M M n n M A A V V V A A A A A ] ] %.*.=.%.} } *.=.;.%.A M a % $ $ $ M d.b.E.n.x.x.n.n.b.b.b.c.c.>.*.*.>.>.>.k.k.3.k.l.x.n.n.K.K.'.'.].].].{.].'.].{.{.{.{. XOX=X=XOXOX=X=XOXOX=X=XOXOX=X=X-X-X=X=X=XOXOXoX=X=X=X3X2X=X-X-X-X-X=X=X=X=X=XOX=X=XoXOXoXOXOX=XOXOXOXOXOXOXOX XOXOXOX=XOXOXOXOXOXOXOXOXOXOXOXOXOXOXOXOXOXOXOXOXOXOXOXOXOXOXOXOXOXOXOXOX=XOXOXOXOX{.{.{.{.{.{.{.{.{.{.{.[.[.[.[.].[.[.].'.].'.F.].].F.x.A.F.F.F.F.F.n.n.n.n.n.n.n.n.n.n.n.n.n.n.m.m.x.m.x.x.x.x.x.n.F.F.F.F.F.v.v.v.n.x.l.x.x.x.x.x.x.x.n.n.n.n.l.l.v.l.v.c.d.g.c.g.g.W b * $ * p s H H P -.-.Y K K Z Z B B z a r r a a a a a a a i n B M n n ",
"9 9 9 q q q q 9 w w r a z n n M M M M f n n M n j r r q q , , $ $ . $ z d.!.{.'.'.].].L.{.'.'.d.*.R Z =.x.x.K.K.K.L.K.G.G.L.L.L.L.L.L.L.L.L.L.].{..XXXoXOXOX.X{..X.XOXOXOX.X.XOX-X-X-X-X-XsXsX3X-X-X-X-X*X*XoXoXoXoXoX*XoXoX.X.X.X.X.XP.L.P..X.XXXXX.XP..X.XoXoXoXoXoX-X-X-X=XOX=X=X=X2X=X=X=X-XOXoX.X.X.X.X.XOXOXOXOXOXOXOXOXOXoXoXoX.X.X.X.XoXXX.X.X.XoX.X.X.XXX.X.X{.].].L.L.L.L.L.L.F.F.F.F.A.F.F.F.A.x.x.l.x.x.l.i.x.x.A.F.F.K.K.'.'.'.'.].'.'.F.F.n.n.n.n.x.x.x.x.x.l.l.x.x.n.v.v.v.v.v.v.k.k.k.l.l.x.x.l.l.k.l.l.l.l.x.x.l.n.n.n.l.c.d.d.d.6.6.d.g.T 6 o o * 4 4 5 5 5 u e e e e e p e q , , : , , * * * * , q q 9 % % ",
". . . @ . . . . . $ $ $ $ $ $ * * $ $ . @ $ $ @ @ $ $ $ o o . . $ B c.E.[.}.{.OXOX.XP.L.L.].m.u.Y Z z.{.{.=X=X=X=X=X=XOX-X-X-X*X-X-X-X-X-X-X-XOXoXoXoX.X.X.X.X.XoXOXoX=X=X-X=X-XsXsXsX*X-XsXsXsXdXsXsXdXdXdXfXfXgXfXdXdXdXdXsXsX*X*X*XoXoXoX.X.X.X.X.X.XI.I.P.L.S.S.S.G.L.L.S.A.A.G.A.G.L.G.G.L.P.P.L.S.S.S.G.S.G.S.A.C.M.C.S.A.C.A.G.C.M.M.a.a.a.M.M.M.C.G.G.A.A.A.A.G.G.G.G.C.G.A.a.a.l.l.l.A.A.G.G.F.A.l.a.a.l.l.l.l.x.A.x.x.x.l.l.l.l.l.l.k.k.l.l.l.l.l.l.l.l.k.i.k.l.n.n.x.l.l.z.k.k.k.7.k.z.z.z.b.b.c.c.k.7.7.d.d.u.>.>.>.>.>.>.>.*.*.*.*.*.-.-.*.:.:.6.J 4 $ . . o $ $ @ @ @ @ @ @ @ @ @ . .   . .   . . o . . . . . . ",
"$ o . o . . . . . o o o $ $ $ $ $ $ $ * * * * $ $ $ : , 1 5 x W d.n.!.m.'.n.F.G.G.J.G.x.a.a.i.i.k.z.'.{.{.=X=X-X-X-X-X-X-XsX-XsXsXsXsXsXdXsXsXsXsXdXdXsXsXdXfXfXdXdXdXdXsXsXsXsXsXsXsXsXsXsX-X-XsXsX*X*XoXoX.X.X.XI.P.P.P.P.P.P.L.L.J.S.A.A.S.A.N.C.A.A.Z.S.S.S.P.I..XoXoXoX*X*X*X*X*XoXP.P..XI.P.S.C.S.S.S.S.L.L.L.L.L.S.S.P.P.L.L.J.S.J.P.L.J.J.J.L.L.L.L.L.J.G.L.L.S.C.C.C.A.L.S.C.A.G.A.C.l.l.C.A.A.A.G.G.A.G.G.A.C.x.l.l.x.A.A.A.A.A.A.A.x.x.A.A.A.x.x.x.x.x.v.l.l.l.9.3.3.3.;.>.u.u.>.;.;.>.>.-.:.:.-.R :.d.g.d.d.u.*.*.*.*.*.u.u.u.*.*.*.-.%.%.%.%.%.K J J B z p p p e q q q i q q q q q , ; ; * * * & & & $ $ $ $ . $ ",
"M B B M B M M M Z M B B M Z B A A A A K K K %.%.-.:.>.>.c.z.z.z.z.k.i.i.i.k.a.a.a.p.a.a.x.A.K.A.K.K.K.K.K.K.L.L.L.L.K.G.A.G.G.G.G.J.G.G.G.G.A.A.A.C.A.C.a.C.G.A.C.C.C.C.x.C.J.J.A.A.A.S.J.S.J.L.L.S.G.L.P.P.P.P.P.P.L.L.L.L.L.L.S.S.S.A.A.A.A.A.A.A.S.S.S.S.N.N.M.4.M.C.S.S.S.S.M.M.M.N.H.P.S.S.J.P.P.P.S.S.P.I.P.P.J.P.P.J.I.I.P.L.C.a.A.J.J.J.J.S.S.S.S.A.M.M.M.a.a.p.a.l.A.L.L.G.A.A.C.M.a.a.a.p.p.4.4.a.p.p.a.l.C.C.G.G.L.L.L.L.G.G.G.G.G.G.G.G.G.G.x.l.l.l.l.x.A.A.x.x.x.A.A.F.x.x.n.n.x.l.l.k.i.d.d.7.7.>.>.>.>.>.=.=.=.*.=.=.>.>.=.>.=.>.>.>.;.3.3.3.;.;.>.k.z.z.b.n.n.n.v.v.E.n.v.v.v.v.v.b.b.c.c.c.c.c.c.c.g.g.7.7.7.",
"i.3.3.i.3.3.3.3.i.i.i.i.a.l.x.x.x.l.x.x.C.A.A.A.x.x.x.C.M.a.a.M.a.l.a.i.i.a.l.l.a.a.i.a.a.a.a.i.i.i.i.i.a.l.l.x.x.A.C.C.C.x.x.C.A.A.G.G.G.K.G.A.A.A.G.G.G.K.G.A.C.A.G.C.x.x.C.A.C.C.A.G.L.L.L.L.L.L.P..XoX.X.X.X.XP.L.L.S.S.S.S.A.M.a.a.M.A.A.M.M.M.M.C.M.N.A.S.A.C.A.S.G.J.H.S.Z.N.Z.M.M.I.oXoXoXoXoXoXoXoXsXsXsXsXsXsXaXaXaXoX.XI.L.A.A.J.L.L.L.L.S.A.C.M.M.M.M.M.M.p.a.x.x.a.a.p.a.a.a.a.a.a.a.a.M.M.M.G.L.L.L.L.L.L..XoXoX-X-X-X-X-X-X-X-X=X=X-X-X-X-X=X=X3XsXsX-X-X-X-X=XoXOXXX.X.XOX-X-XoXOX-XOX X{. X{.].K.K.'.F.F.K.K.K.K.K.K.L.K.K.K.K.K.].L.].]..XL.L.L.L.K.K.K.{.{.{.].].{.].{.L.L.].].L.L.L.L.L.F.F.F.F.F.F.F.v.v.",
"A.C.A.S.J.S.G.A.C.C.C.C.C.A.A.M.a.M.A.S.S.A.A.A.A.A.A.S.M.Z.J.J.L.L.K.K.K.L.L.L.L.L.L.L.P.{..XoX*X-X-X-X-X*X*XoXoXoX.X.XI..XI..XL.L.L.J.S.S.S.G.S.S.G.G.S.A.A.C.C.C.A.A.A.A.A.S.G.G.S.J.J.J.S.S.S.S.S.S.Z.S.H.P.P.I.P.I.oXoXoXoX*XoX.X.XP.P.P.oXoXoXoXoXoXoX*XoXoXoXoXoXaXaXoXaXsXsXsXsXsXsXsXsXsXdXdXsXsXsXsXsXsXsXsXsXsXsXsXsXsXsXsX*X*XoXoXoXoXI.I.I.I.oX.X.XI.P.P.L.L.L.L.L.G.G.L.L.L.L.L.L.L.L.L.L.L.L.P..X.X.X.X.XoXoX.XI..XI.P.P.P.P.P.L.P.I.I.I..X.XP.P.L.J.L.P.I.*X-XsXdXgXgXfXdX*X.X.XoXoXoXoXoXoX.X.XoXoX.X].]..X.X{.]..XoXOX=X=X=XOXOXOXoXoXoX-X-XoX.XoX-X*X*X=X.X.X.X.XoX.XXXI.P.I.I.I.P.I..XoX.XP.P.].]..X.X].]."
};
