/* XPM */
static char *door[] = {
/* columns rows colors chars-per-pixel */
"635 523 187 2 ",
"   c #020504",
".  c #090703",
"X  c #050907",
"o  c #0A0A06",
"O  c #040708",
"+  c #09060A",
"@  c #060A0A",
"#  c #0A0D0C",
"$  c #110E02",
"%  c #110F0C",
"&  c #0D1004",
"*  c #07100E",
"=  c #0D110E",
"-  c #151302",
";  c #1A1602",
":  c #171904",
">  c #1D1B02",
",  c #11120E",
"<  c #19150F",
"1  c #16190C",
"2  c #1B1B0B",
"3  c #070C11",
"4  c #0C0F10",
"5  c #110F10",
"6  c #071010",
"7  c #0E1211",
"8  c #0F1817",
"9  c #0F1118",
"0  c #131512",
"q  c #191613",
"w  c #161915",
"e  c #1A1A16",
"r  c #141719",
"t  c #191719",
"y  c #161A19",
"u  c #1C1D1A",
"i  c #221E02",
"p  c #211E0E",
"a  c #201713",
"s  c #211C16",
"d  c #291E16",
"f  c #211E1B",
"g  c #291F1A",
"h  c #1E2103",
"j  c #1E200C",
"k  c #1E201D",
"l  c #242203",
"z  c #292604",
"x  c #262804",
"c  c #2C2B04",
"v  c #23230C",
"b  c #28270A",
"n  c #2B2B0A",
"m  c #312E05",
"M  c #322F09",
"N  c #2F3005",
"B  c #343306",
"V  c #393607",
"C  c #373807",
"Z  c #3A3907",
"A  c #343309",
"S  c #393609",
"D  c #363809",
"F  c #3D3C08",
"G  c #242116",
"H  c #2A2117",
"J  c #292815",
"K  c #23221D",
"L  c #2A241E",
"P  c #25281C",
"I  c #2D281F",
"U  c #302C15",
"Y  c #31261E",
"T  c #32291F",
"R  c #3A2B1E",
"E  c #323111",
"W  c #171E20",
"Q  c #1D1F20",
"!  c #221E21",
"~  c #162123",
"^  c #1E2121",
"/  c #1C2628",
"(  c #1F292B",
")  c #252421",
"_  c #2A2622",
"`  c #262825",
"'  c #2C2925",
"]  c #232728",
"[  c #262929",
"{  c #2D2C29",
"}  c #312721",
"|  c #322B25",
" . c #392E25",
".. c #332E2A",
"X. c #392F29",
"o. c #2E302D",
"O. c #363027",
"+. c #3B3126",
"@. c #35312C",
"#. c #3B332C",
"$. c #3E382E",
"%. c #2D2F30",
"&. c #352F30",
"*. c #2E3131",
"=. c #353331",
"-. c #3B3531",
";. c #363836",
":. c #3D3934",
">. c #373638",
",. c #3D3B39",
"<. c #413E09",
"1. c #402E20",
"2. c #423226",
"3. c #42352D",
"4. c #48362D",
"5. c #43392E",
"6. c #4A3A2D",
"7. c #413631",
"8. c #483630",
"9. c #433A34",
"0. c #493C34",
"q. c #433D39",
"w. c #493E39",
"e. c #543F35",
"r. c #3E4109",
"t. c #3F413C",
"y. c #44430A",
"u. c #49460B",
"i. c #46480B",
"p. c #4B4A0C",
"a. c #514E0E",
"s. c #4D520E",
"d. c #54520E",
"f. c #58540F",
"g. c #474517",
"h. c #494710",
"j. c #474811",
"k. c #4E4E11",
"l. c #504C10",
"z. c #545311",
"x. c #595610",
"c. c #555910",
"v. c #5C5A12",
"b. c #615F13",
"n. c #5F6017",
"m. c #636213",
"M. c #696715",
"N. c #6C6B16",
"B. c #717017",
"V. c #757519",
"C. c #4D4136",
"Z. c #40413D",
"A. c #42433F",
"S. c #45413C",
"D. c #4D413B",
"F. c #4B423C",
"G. c #524132",
"H. c #584335",
"J. c #51443C",
"K. c #3B3F40",
"L. c #3C4142",
"P. c #434340",
"I. c #444343",
"U. c #424440",
"Y. c #454642",
"T. c #4C4441",
"R. c #4D4B46",
"E. c #4D4D47",
"W. c #4A4749",
"Q. c #4D4E4A",
"!. c #514641",
"~. c #544943",
"^. c #5A4C43",
"/. c #524E49",
"(. c #4F514C",
"). c #52514C",
"_. c #52524E",
"`. c #53544F",
"'. c #545451",
"]. c #555651",
"[. c #5A5A55",
"{. c #5D5D59",
"}. c #63625E",
"|. c #626561",
" X c #666662",
".X c #676963",
"XX c #686965",
/* pixels */
" XXXXX X.X X.X|..X}. XXX X.X X}.{.}.[.{.{.[.[.`.'._.'.'.'.'.`.'.`.(.Q._.`._._._._.(.Q.Q._._.R.E.E.E.R.Y.A.P.A.A.A.A.P.A.A.,.A.U.A.U.t.A.t.A.A.A.Y.U.Y.Y.Y.,.,.,.,.,.;.=.=.;.=.=.=.:.:.,.,.,.,.,.,.-.,.q.,.q.q.q.q.q.,.,.-.#...' ' ` ` ` . e   . @ o # % % # % % % < , # o # o % % % < q g L } I d g g s s u _ ' _ q s _ K K q q q e e q q u s L _ _ L K f u q s < u f f 0 < 0 u , , % # < = , 0 0 q e q e 0 < , % % < q u u , % u u f K K f u q u u e q # # # @ @ @ @ O O O @ O O @ 7 0 = # 0 0 0 u _ { ` @.-.,.' | ) K u K _ _ ' ' ' _ ) ) { ....{ _ _ ` ) ' } | ' _ L L g u e e K K K _ ' _ L ..| ' _ L K u K L _ ' ' _ _ @.@.@.@.{ ..) ' u L.|.@ y e f 0 e q , u e k K u ) e 0 q y q 0 y e 0 e e y 0 q e ) u e K K K K u u K ) u u u u u u u K K u u 0 0 u s q e f u e u u e s u u f K K K ' _ ..' ) _ L ' ' _ }  .| | } Y _ L K _ _ _ _ K K _ ' X...@...K q e e u f K _ _ _ ) ) ) ` _ _ ) _ { ..{ ` _ { | ' K u u u u e q q 0 e K f f K K ' _ K L K u K _ _ | ..| #.$.#.| -.#.9.9.-.#.-.9.9.q.q.D.D.9.q.F.w.9.9.-.-.9.} I L _ L _ _ ` ) ) _ K L K K ) u q , , = # @ # # y K ' ) _ ) ` ` ` ' @.@.X.| _ ) ) ' ` @...@..._ _ K K K K g L ' @.@.7.7.$.D.q.,.-.q.-.@.@.' _ _ q f } | @.3.$.X.X._ K f u u u u K K K u f u K u u u u ' K ) K K u f k u u u e 0 y 0 q u q e e y y e y e e 0 o # X # #   # 0 0 0 = 7 = # # ",
",.@.@.@.{ ..{ @.@.` ' K ) K ) ) _ # % $ $ $ $ o o o o o o o o o o o # , , < % # # o o o o o . . o o o o     o 0 e q 0 0 , , < 0 0 0 0 % # = % = = 0 0 0 , 0 0 0 , 0 0 u I Y L g K K e u s L L _ _ | | ' _ _ ' ) _ K e e e y u e e y e e u y 0 e ) ' ..X.{ ....{ _ ) K K K _ ' ' ' ' _ ' ' | ..X...| K K u u u K u u _ K e K K K K ' ' ' ' _ f K K u f f u e e K f 0 e y q u u e f f f f f f f ' ' ' _ K f u _ _ _ ' ' L u 0 @   #   X   O @   @ O # @ @ # 7 # @ = = 7 0 0 , 0 < # 0 0 0 e f K ..' -.X.K u f f u e 0 q u e K K e f f ) f f f _ ` { ` ) ) K f K K _ K f u K K K K _ ' ' _ _ ' ' ' .._ K u e e q e e e u K K u e y y y y y 7 0 e y '.' -...@.) ) K K K u ) ) u u 7 # 0 u e e ) k u e u u u K ` ..K u e e u u K K K f k e u y y 0 = 7 0 = 7 0 q u f e e q u 0 q e e K L K f s K u f f K u f K u f K K _ } I } T | L s u u u u f u u u K f K ' _ { ' | ' { X.#.#.-.-.#.@....._ ' ' _ K K K u u K _ ) K ..` ' _ } | } ..X.#.$.X.9.9.9.$.$.@.X...-.-.@.#.#.#.#.9.@.' ' ' ' ..' _ ..X.@...-.-.X.X.@.,.' ' ' ) L ..u 0 0 0 # , # # # @ 0 , q e u K K K f u K k e u K L @.#.#.@...` K u f ' ' K f e ' K ) u u u e e q , y K ' } ....@.@.:.-.@.@._ ) _ _ _ ) f e f , = 0 K f K K f K u u 0 y q q y = 0 y q = = , , 0 = 0 0 0 u q y y 0 = = 7 q k ) K k ) ) k y y k ` { @.{ ` { ` ) K K K ) k u K e 0 7 7 r 7 7 # ",
"_ K K g s f g K u f u e e q q e K K K u u u u L _ ` ' _ K K _ ' _ K u u K u u f u u u u e u e u u e u u u e f e f K e 0 y k e e e q u e e u u K K K K L K _ K ) K K L _ ..| _ _ K f f u u L f K K L f u q 0 0 # q q 7 7 q k ) ) ' { { ..@...| ..X...X.X.....{ ` ) ) _ ' _ ' ..X.{ ' ' _ ) u _ _ | ' | ' ' X.' | | | | | _ _ | | _ .._ _ ' | _ ' ' } ' ' | | }  . .| #.#.X.X.7.#...' K L _ K K K K u e , # # 0 # # , , # 0 = 0 y e y y u y u K e u ) ) K e y u u K K L L ' ) _ ..-.-.-.@.$.@.@.' .._ f K ' _ _ L K _ ' ....X..._ ' ' ' ' ..' =...{ ..| ..' ' @.X.' _ ` ' ' _ _ _ ..' ' _ ) ` ` ` ) ) f u u e u u e u K u q 7 7 , = 7 = 0 # = 0 [ K.) K u ) K _ ..| } L I L K K g f K ) K _ _ f u u e u u K f K u y w < e u u K K e u q 0 q 0 % = 0 0 0 0 q u f K f f K K K K K _ K K s u u s e e u u u K _ ' ..X...@.@.} _ ' ..| _ K K f u K K K f _ K f u q u ) ` _ K K K K _ { ..X.....' ' ' | ' _ ....@.#.9.9.9.9.F.F.-.!.T.q.9.q.:.-.q.-.....X...' _ K _ _ _ u e u ' _ ` K u ' K L _ ' _ _ K u K f ) ) ` e ) ) K K K ) K k K K ) K ) k k k K K K _ ) _ @.-.| _ _ ` ) K K f k y e y e k u u 0 e e q g I f e 0 0 = # X @ # @ # 0 u e e e 0 0 = = 0 7 0 = 0 # # 0 X X 0 # 0 y e 0 0 0 0 y e u q q 0 e y @ 0 w 0 0 y e K f ) ' _ _ ' _ ' { f k ) ) ` { ;.` { ) ) y 0 q e ^ k ` ) ` ) ..@.@.{ ' ` ` { { k y 7 7 8 8 0 = ",
"q e e u u u u q 0 e q q q y q q q y 0 7 q u e e u K f k u u u K u u e u u e u u u u y 0 e f e u u u e u u e e u u f f u K _ _ ' _ ) K _ ' ' ' | | | | I I L L ) _ _ L L K K _ | ......K 0 q q u f K K _ K K K ) _ ) ) ) ` { { ` _ ' ..' _ ) K f u u e e e q y e f K K ' L K K f u ) _ ' ' ' | X.#.| #.$.7.w.9.-.-.9.7.9.9.w.S.-.q.D.9.9.9.-.7.$.} } _ ' I } ' ' ' _ | | _ L _ K e e 0 0 7 = , 0 e K K ` K K ) ) { @...X...' ) ) ` ` ....@.@.@.' _ L K K f K _ X.@.7.3.0.7.q.q.9.q.-.-.-.#.) ) u _ }  .5.9.$.#.X.K K K K ) K K K K K K K ) K K K ` ' _ ) _ ) K ) u u u k e y e y u e u u e e e u u e 0 = = # 0 = = y e y q 0 0 0 7 7 0 u 0 q 0 [ U.f .._ X.' ' { @... .@.@.#.X.X.X.X.| ' ..| | ..@.@.X.| $.@.@..._ K u f s f K K u K I ' ' L _ _ ' ' L _ u f s u u e f s s e u f e 0 , q f _ ' ..' ..{ ..{ { _ ) K K ` { .._ K ) K u u e r q e u u _ ) u K k ) ` ` ` ' @.@.' @.=.,.@.@.,.#.@.@.#.#.#.#.#.#.#.@.@.@.@.' ' ` ' ' ) u u ' _ k u ) u u u u u e u u y y 0 , y u e e e u 0 0 0 , y q 0 0 0 = # u y # q q 0 0 = @ # @ @ = = = 0 0 0 y e e u f u g K u 0 0 0 7 7 0 0 0 0 y y y y y K _ g s e q 0 < = @ O @ @ # @ # # @ O @ 0 o o = = = # # 0 0 0 0 q 0 , # 0 0 K K ) _ K ) ) ..@.#.X.#.#.' _ _ u e K } ..X.@.#.@.=.-.=.,.=.=.@...` ` { { ` ) u u y 0 0 = # = = # @ # = 7 0 0 y y y u 7 = = 0 0 0 = @ @ # = = @ ",
"f f u ) u u e # 7 y e y u u u e u u e f ) ' K u e e u u u u K u u u u e q 0 0 0 0 0 0 q e u q e q e q q e e s K g f f f u f f f u K f u u u f _ L I L } I f u e u u f u u u K K K ' _ ' _ ' _ ' X.X.@.#.#.@.....' ' ' ' ) ) K K u K ` ) f K ) K ) _ _ _ _ ' ..#...9.-.$.#.@.@.| @.-.$.#.#.@.#.7.-.| ' ' ' | ..' ..X.@.-.,.9.@.@.9.9.' X.' ) ....e e y 0 # , = = # 0 7 q y e K K u u u u u q e K _ =.#.:.#.@.' ) ) _ #.' ) u K _ K { ) u u K u q e K ' | X.@.#.-.9.-.9.@.{ ` ' ' ' ' u K f 0 0 u L L K ) K K K u e u u e 0 e u e 0 0 y q q 0 # = u f u u u y 0 y r u ) ) K K ) ) u u K ` { { ' ` { ` ) f u u ) u u u y 7 0 r 0 7 7 7 0 u w k y Q I.u K f .._ f e u e e s K s u q q q 0 , , e s e f K K K _ ) K e e q u u K K K ' ) _ _ _ ) _ _ K u K f k q s K f K K _ L L K _ { _ _ { ' ..{ ' ) ) ) ) ` ` K ) ) ) ) ) u u e 7 7 # @ @ # # 7 0 e e u u e K u 0 0 u e e 0 0 0 @ # # = # # o X @ @ @ # @ X O O O O @ @ # @ O @ O O @ O O 0 # # = #     O # # = = # # @ @ @ @ O O   O   O O O O   X O O @   @ 7 O           O     #   O   @   O @ # = 7 y w , = # @ 8 0 8 0 0 7 0 = 7 0 7 # O @ , # # = # # O # # # q = u K u f u 0 7 u f K k K ) ) K ) _ X.@.#.X.K ) ) ) { @.-.-.,.#.' _ K K e y 0 0 y 0 @ # = 0 y y r 0 7 0 w y u e u u y 7 q 7 = # # # X # 7 0 = = 7 7 7 7 # = = = 0 0 = = 0 7 7 = # # # # # # = # @ # ",
"} H K L f f u s f K K K ) u e e u e e u u K u w w , e e K K u 0 u q q w , 7 7 7 , 0 0 u e u u f s f K K K K K K u e u s q u q e u f ) _ ' ....X...' I | | _ K f f u u f K u ) f u e y u ) ' _ ) K K ) ' { ' | ' ' _ | ' ' _ _ ' ' @.#.-.$.9.D.w.-.7.q.9.D.9.-.-.9.-...X...| { ) K ` ) k _ u ) ) ' K K _ L K K _ ' K K K ) ) ) u ' u ) ) ) K ) ` k ) ` ) ) K K u k k K K _ ) _ @.=...` ` ` ) ) ) K k u u u k u u y 0 u u s K | K 0 q 0 0 # # 7 # = y f f e u u y q 0 y 0 0 0 7 7 = = # = q = e u y = = , q e u y y 0 e e @ 0 0 y 7 0 e u u ) _ ) ` _ _ { ) k u ) ) { =.;.{ o.` ^ y y k ) ` { ` { { @.=.-.o...@.{ @.{ ` y 0 r r y 0 7 q ) y u e 0 L.f @.` X.' { { ' _ ......' ' ' ' { ....#.#.@.......@.@.{ ) f u u , e 0 , q u u 0 0 , = # = 7 @ O @ = # q s K k u u k u k k y K u 0 e f u u q e e q e K u e q 0 = # O   O O @ @ # # = # # @ # # @ @ O O # 7 @     O @ # @ O                 O             O O O O @ @ @ @ @ O @ @ X # # @ # 0 7 # @ # @ = 0 7 0 y 0 7 8 r 7 8 0 y 0 # @ @ O   # # # = O @ 7 # = r y 0 = r 7 7 u ) u .._ u u k ) u y y y y 0 7 @ 4 7 7 4 # # # @ O = = 7 e y w u K K ' X.@.-.#.-.-.#.@.-.$.#.@.K u ` -.@.' -._ ) u ' X.| ..{ _ ` u y y u ) ` ` ` ) K k 0 u ) ) u k _ ` u u e y y y u y u u K K ) ) ) ^ y y 0 y e y ) u y y y y 0 0 0 0 7 0 0 w 0 q 0 y q y u y e 0 7 = 7 7 = 7 7 = # 7 ",
"{ ' | | X.| | | | ' _ ' } | _ ..X.| ' X.@...' L K u u e u K u e K K _ K K K _ _ L _ K u u u e e s s s s u f u y 0 , f _ _ ' ' { ' | ` ` K ) K ) ' ' _ K K K u u u y y u u u ) ) u k k K ` ` ` { ..` ....=.-.@.#.-.@.@.@.#.@.@.#.#.#.#.@...#.' ..' { { ) K K _ _ K u u u u u u u e K e y e 0 q u K u e u e q 0 0 u e e e 0 0 0 q e = e e e q 4 = # # 7 7 0 0 e y e u K u K f K K K y 0 y 0 0 q y 0 0 y y y u u _ _ f u u q q 0 7 @ # # 7 # # # # @ @ 0 # # = = 0 = = q 0 0 0 y 0 e = 0 e K K ) _ K ) ' ..@.#.#.#.-...' K u ) ' @.X.@.-.=.-.-.:.q.q.q.9.@.@.{ { @.{ { ) u y u 0 7 7 7 7 = 7 0 0 y y u u k k y 0 0 y y y = 7 7 7 r = = 7 y # 7 @ u L.f ' f ' _ _ _ _ _ _ _ K K K K u u u e u e e u e e u e e q 0 0 0 0 y w y K k e = = 0 7 0 = 0 y 0 , = @ O   # # X @ # # = = @ = # # @ O O @ O @ @ X @ , , #   O O     O O @ = @ @ @ # @ @ O O @ @ = # @ 8 y 7 @ O @ @ # @ @ 7 7 7 r 7 7 7 7 8 = @ # 7 7 7 u y y u u k y u y 7 0 r 0 y e y y u u 0 7 8 7 = 0 = 0 r 0 7 7 7 7 7 0 0 7 0 8 8 7 r y y u r 0 r y y ) { ` k y ) u u k u e u y = 7 7 y @ 7 q y 0 q y u e u u k K u u k u ) ..@.@.@.@.@.@.@._ X._ ' ' _ _ _ u u u u q 0 = 0 y , , w 0 # q u e y 0 0 0 y 0 e u ) u u ) _ _ K K u ) ) ) u u u e 0 0 0 7 7 = 7 0 7 0 y 0 0 = = # # 7 # 7 0 = = # # # # # = # 7 0 0 7 0 0 0 0 # = 0 = = = 0 7 = = = @ = 7 7 = = = ",
"e q e s g e q < q 0 < < < e e s f K f K K f e e e e u f K K _ K K K _ ) ) K f f K f e e s f u f L ) K K ) ` _ _ ` _ ' { ` ) ) K K ) _ ` ) ) ) ) u u u y 0 = @ @ # # 7 0 y e u e e K u y w u u u q q 0 u # , , , # # # # # = = # @ @ @ @ @ # 7 # # = @ # # @ @ X 0 0 0 7 @ X @ # 0 0 = = = @ @ # @ @ O O @ X @ @   # O O O @ O # 7 @ O O O O O O O O # O   @ @ O @ # 7 0 y y 0 7 7 7 0 0 0 y y 0 0 7 r y 0 7 @ 0 0 , = = = # # # = 0 7 k K e u u 0 0 u u K f ) K ) ) @._ X.#.#.' { ) ` { @.-.-.-.-.@.| _ _ ) u u e e u 7 = 0 e u k y 0 r r y u k u ^ k u u q 0 0 7 7 # # 7 y 0 7 0 8 0 0 7 7 7 0 y y 7 0 7 0 0 = = 7 = # 4 7 7 = = = @ 4 @ @ # ^ =.e y # f K f f f u y e y u e e y y u u u u u K u K K k K u y # = = = # = 0 # 7 7 7 = # @ = 0 0 0 e ) K @               O   O O @ @ # q u y @ # 7 7 7 y ) u @ O O O = 0 y u u u y u u y 0 = 0 y e u y 0 0 0 0 = # = # @ = = 8 8 9 8 7 # = # 7 @ 6 # 7 @ @ 7 # = 7 0 = 0 k u r 7 0 0 0 0 y y r y r 0 y y 0 y e y u u u u u u u u u u k r y y y u u u u y y y y y y r = q e e y u y e u K ) ) { { ` ..{ { { X.@.@.@.-...-.-.) k K ) ' ' ..| _ K _ f u y u e K K _ ) K ) K ) ` ' X....._ _ ' @.' ' X.....@...' ..{ ) K _ ..{ ) ) K u 0 , 0 0 < q q q e u e e K u K u e u e e e u u e u K u f K _ _ K f K f L K L ' L ' ..L ' | _ K L K K _ K K K L K K K f K _ | _ K K K ",
"_ _ ' ' ' _ _ _ _ ' ' ..@...{ ` ` ' { ' ) f u u 0 e 0 , q e e 0 0 , 7 # 7 = X @ # # , e e f u u k u u u y K K y u e e f e y y q e f u 0 0 0 # @ @ @ X @ # # = = = # # # = # # @   7 7 # O   X # = @ @ O O O O O O O O O O O O O O O @ O @ @ 7 # # # O @ # @ # = # = r 7 # # = 7 0 0 0 r y 0 0 r 0 0 0 y 0 7 7 # @ @ # # 7 7 @ 7 9 7 0 y e 7 7 r = y k e K { ) y ^ ] ^ y e y y y 0 = = 0 0 7 0 # = # @ 7 7 0 y u q f u _ ' ..@...:.-.-.@.-.-.-.-.) u ` =.@.#.-.' ) k ..@...@.#.#.) k e u ) ` { { { K ) u u ^ ) k u ) ` k u u e e e u u u k K ) _ _ ` k u y y k u k ^ u u u u y r y q q y y y y y e u e u u u u y 0 0 0 0 0 0 r 7 0 0 7 r 7 8 7 u { e q 0 u u e u u 0 0 e e k { @.o.o.{ ) y e ) { { ;.{ =.@.@.@.{ ` { { ) ..) y 7 8 y 7 0 7 r u k K ) ` k 7 @ @ @ @ 7 = # 7 7 7 7 = r y ) u e # = 7 = @ 7 y 0 @ # = 7 8 r y q 0 = 7 8 7 7 7 = # # = 7 = 7 # # 0 7 7 0 0 7 7 0 q r 8 7 7 7 7 7 0 8 7 0 0 7 r u u u 0 0 y u k ) u 7 0 0 r 0 0 0 y 0 0 0 0 y 0 0 y y q y y e y r 7 = @ @ @ @ 7 7 # 7 = 7 7 0 7 0 u ^ e u K K K ) ) ' ..#.X.-._ u ) K e u u u e q y w 0 0 , 0 0 0 e q e u K _ ' ' ' @.#.@.{ { ..@.@...K K ) K K ) X.' u u q 0 y q 7 0 0 = 0 q 0 0 e e y e u f K K K L K u u _ _ K _ | } @.#.@.X.@...| ' ' ..| | X.X...' ..#.| ' _ ' ' K K K K K L ) K u u _ u _ ) _ ) _ { K K ) ) ) ) K L _ K K L f K K k u ",
") K _ K u u f f e u w u e e e e e e u y q 0 0 0 0 e 0 y k e y = 0 0 0 7 7 0 q 0 = 4 @ @ # # # # # # = 7 @ = = # # X @ # @ @ @ @ = 0 0 # O @ O O O @ @ 7 = @ @ # # @ O O @ # 7 = # 8 y 7 # @ # 7 = 7 # 7 7 r 0 7 0 7 0 7 7 = 7 7 7 y y y y u u y k y 0 0 y 0 y y y y u u r 7 0 7 7 7 0 0 y q 9 0 0 7 0 y 0 r r 0 8 r y y u y 0 r y u ) { ` k u ) u k k u u k 0 7 0 0 7 # y y q y y u y k u K ) u k u u ) ....#.#.#.@.9.....X.' X.....' K f K K e y = y u q q e y 7 y k u e y y e y y u ) ) u K _ _ _ ) K ) _ _ K k k k r y y 0 0 0 r y y q e y y 0 0 7 7 9 = 0 0 7 7 # = = 7 7 7 7 q 0 0 y q 0 0 0 0 0 0 0 0 0 0 0 7 7 # 0 0 7 7 = 0 # 0 # 7 # 0 =.X.@.@...-.-.#.-.{ { @.=.{ [ { ] u y 0 7 0 0 r y k e u ) ` { ) ) K ^ k u K y = 7 7 0 r # = y r 7 7 7 7 7 y y 7 # r 0 0 r r 0 # @ r # # @ O @ = @ @ @ @ 7 = 7 0 0 8 r y 0 8 7 7 8 8 7 0 r r r r y y r 9 = = 0 7 7 y 7 = # 7 r r 8 7 7 = 7 0 7 0 4 # 0 0 y 0 8 7 # # @ @ 7 7 # @ # 7 7 = 7 = 0 0 = 7 0 y y 0 q 0 0 y y y y 0 0 0 7 8 0 y y y y y u u u ^ ^ k ` ) k u k k k u K u K k y u y u u K k K _ ) ' ....' ...._ ) ....@.@.-.-.#...' ......_ e 0 , , , 0 q 0 e e q 0 q K f e u K e K f L s f K L _ K _ } | | ..@.#.7.9.@.@...' ' X.| $.#.#.' _ ..' _ ` _ _ @.| ..' ' K u K u ) K f e q 0 7 = # # # # # 0 = @ # # = 0 7 = # = y q 0 0 0 0 , , y 0 0 q 0 0 = , 0 = ",
"u e q e y y e y q e e u e e k u K K u k u y 7 = 7 7 # = 0 = 7 0 7 7 = # 7 q 0 0 u u u @ O O O @ O O O O O @ @ @ 7 q u y # # 7 7 7 u K q @ @ @ @ 7 y e k u u u u y 0 7 0 y e u y 0 0 0 0 7 = 7 7 # 7 7 r 8 0 7 7 7 7 7 7 7 7 7 = @ 7 7 = 7 0 7 0 u k y 0 r 0 0 0 y y y y y 0 y 0 y u u u u ^ e k k u k u u u y y y e u u k u y y e y u y y 0 e u y u u e u K _ ) ` [ ` ' ` :...X.-...@.=.@.-.-.` ) ) ) ' { ...._ _ _ ) e u u k K ) ) K ) ) ) { _ ..| ..` ) ' @.{ { @.| ..@.@.....{ ) ) ' @.{ _ _ K u 0 0 0 q 0 y e e f u u K ) u k u u u u u u f u K K f K ) { ) K ) f K _ _ _ | | ' K | | ' _ _ _ _ _ K K K L L K K K K ' ' _ ) ) ) ) _ K ) e 0 o.K { ) ' _ ) { K y f u e 0 7 7 = 0 # # = 7 = # @ # # = 0 0 0 7 = @ @ = = 7 # @ @ @ @ @ @ O # @ O O @ @ @ @ @ O O O O O @ # @ @ @ * @ @ # # # # @ @ @ O # @ 7 7 # # 7 7 7 @ # # 7 6 O O @ O O O # @ # # @ @ 7 # # r 7 = # = 0 y 0 7 7 # 7 0 7 y y 7 0 y y 0 0 y u k y r y y y 0 u k ^ u u e u e y u y e e y y 7 0 0 9 y u y y e y y 0 y 7 0 0 7 7 0 # 0 0 = 0 0 y 0 q e e e y u K u y u u ) ` _ f K ` ) _ ' _ f _ ' ) e f u u e y e y q u u f f s u f K L L _ ' | | X.X.| | | @.X.#.$.3.#.9.-.#.-.7.-.#.@.X.#.$.' @.X...' ' K k K u e e u u e e q e u e # = # 0 e u e 0 0 = X X = , = X     @ # # @ X # # @ X X X # # = # # # # # # # X O     O   O     X @ @ @ @ @ X ",
"u 0 0 y e ) { { { ' ` y y u ` ` =.=.{ @.@.@.` ` ` ` ` { ) e 0 0 y 7 0 7 r k k ^ _ ` u @ = = @ = 7 # 7 = 7 7 # r q K ) y = 7 7 4 # 7 y 0 # # 0 8 q y r 0 0 7 0 7 7 7 7 = = = 8 7 7 7 7 0 7 7 0 0 0 7 y y 0 0 0 9 7 7 8 8 8 0 0 7 r u u k y 0 y y k ^ u 0 0 q y y r 0 y 0 y q y 0 r y y 0 y y y u y 0 7 # # # # 7 0 7 7 7 7 9 0 0 q u ^ e u f ) ) ) _ { @.@.@.X.) k ) u u f u u e y y y y 0 0 q 0 u 0 e f ) ` ' ' { @.#...{ ..@.@.@._ K ` ) K ) ....u u e q e e 0 q q 0 q e 0 e e e e u f f K K K ) f u ) ' ` _ ' ' $.#.#.@.@...| ..| ..' X.X.@.@...@.#...{ { { ' ) ) K K _ _ _ K k ' K @...K _ ..{ ) ) ) ) ` _ K ' ' L L _ _ L ) ) u e K u K q 0 [ , u y K u u r 7 @ 0 = 7 y 7 7 y u 0 7 r 0 0 y 0 y y y e e y y y e 0 0 7 0 7 7 0 r 7 7 7 7 7 7 7 7 7 = 7 0 0 @ # = = 7 7 7 @ @ @ O O O @ @ @ @ * # @ @ = 4 8 0 7 7 7 7 0 7 7 # 7 7 7 0 y r r y y e u e u 0 e u e k u e r 0 0 e e u u u K K e r u 0 u ` ..` @.....@.` K ) k 0 = y 7 7 @ # = 0 e y y q y r y 0 0 r e 7 0 y 0 0 y r y 0 y q 0 y e u k k ) _ _ ` _ { K ) ) K u 0 = y e e y q y q q 0 u u u K K f e s L L f K K K L ) } _ ' ' _ _ _ } _ X.| @.X.| | | | @.X.| | _ _ _ K _ K u u e u y 7 = , 0 e e e q 0 0 # @ o # # @ # = = # 0 q q q e 0 u q e q e e e q = 0 u u 0 0 0 u f u e e K 0 q e f s f L K K g g s q k K _ ) f e e q q e e q e e 0 q , , # , 0 , ",
"@.{ @.@.{ ` ` ) u u 0 0 0 0 0 y y y y u ) ) ) K u k k K k y 7 7 7 0 0 # 7 y 0 0 7 0 = 0 y 0 # 8 0 0 y 0 q # # 0 # = @ @ # 7 # @ @ # 7 7 0 0 0 0 r 0 y 7 7 8 r 7 0 r 0 y 0 y y 0 0 7 7 0 0 0 y 0 7 # 0 y r 8 7 7 = 0 0 0 0 7 7 0 y 0 0 0 = 0 = # 7 7 7 # 7 7 0 7 7 7 q 0 7 0 0 y q r r 0 y y y y y y y 0 0 0 y y u y u u k k ) k ^ ) ) k u k K K K K u ) u y u u k ) K K _ _ ` @...' ..@._ ) ..-.@.@.-.-.@.| | X.....K e 0 , 0 q e e e u u w q f ) u u e f K f _ f K K I _ L | | X.X.X.#.-.9.-.#.#...{ ..#.#.-.#.' $.@..._ ` _ ' @.X...' ' L K K K _ f f e e q 0 0 , 0 0 7 0 q = # e 7 0 0 0 7 0 u e 0 q u y 0 0 e y e u q 0 0 0 0 0 # 0 = y 7 r [ 0 u y K u y 0 0 0 y 0 y y 0 7 7 7 = = = 7 = 7 7 = 7 = = 0 7 0 0 0 = # @ # @ @ = @ O O @ O @ @ @ @ @ @ @ = # @ @ # = 0 q u 0 0 8 8 8 0 7 0 0 7 8 7 7 7 7 = 7 7 7 = @ 8 u y y y ) y 0 = # , = q k ) ' { o.) K ) _ @.` K k y u u ) _ { ..@.@.' ' ) k K @...{ ' ' ` { ) _ ` e y y u y y r e u ` ..@.@.@.{ ` ) u k { @.k u e r u ) K K ` { ) y 7 0 0 0 0 q y e y y 0 = 0 e u u u u K _ ' ..' ` ' ..| #.#.X.-.9.7.@...' _ ' _ _ ' ....@...@.| | #.$.q.D.D...#._ L L f u u e < 0 # 0 @ @ # # = 7 = 0 , , < u 0 f K K K u L e e e u f K L _ _ ) | ' ..X.....| ' ' ......' ' K K _ _ _ ) _ { ` ' I | @.|  .+.+.+. . .| _ K K e 0 k K ) f e e e e e e u e u u u f f u e , = = ",
"u u f q q 0 = = 7 7 # = 7 7 7 # # 7 # 0 q 7 7 # # # 7 7 7 # @ # # # # @ @ # @ @ @ @ # # @ @ O @ @ @ # # # # # # 3 # 7 7 # 4 # # # @ 4 = 7 7 = 7 0 7 7 @ 7 7 8 @ @ # @ @ @ # # = = = # 7 7 = r 7 7 = 7 r y y 0 8 # 0 0 7 e 0 0 y u 0 q y e k u y y e y y u k ^ u u e u y y y y u y y y 7 0 0 0 e u y u y y 0 r 0 r y 0 9 7 , 0 0 0 0 y y y e u e u e u K e u u ) _ ' K k _ ) ) _ _ K ) ' ) u u K u e y u e u u K f f K u K L _ _ } | | X.X.X.X.| #.@.#.7.9.#.9.7.#.-.-.#.#.@.@.#.-.' @.X...' _ ) u u u u K f u u e e q e # 0 , 0 u u e y q 0 @ # 0 0 = @ @ @ = = # @ = = # # # # , 0 = = 0 , = 7 = # # @ @   @ X @ O X # # # # # # # @ # O # O y [ , 0 , w 0 0 0 q y u y 0 0 7 0 u u e u u L f f K K K K f e e y 0 e u u e e 0 e u e u e u u K y y u e e 0 0 0 0 0 y u e e K r 7 7 u ) e = 7 = @ @ @ 7 # = = 7 7 0 u u ) ..{ { ' ..u u u k ) u k ) { { ' ` ) ' @...X.{ ' { ' ..=.-...=.@._ _ { ` k K k ) u q 0 0 0 0 7 ` @.' { { ) k u w k { =.,.-.@.) u 0 0 0 y _ ` ) ) ) K ' ..=.=.,.,.{ K ) ' K L K ' L K K ) L | X...' ' ' _ ..@.@.' ..@.X.| ' ..' X.K ' _ K f e u K ) f u K y K u e , q q e 0 0 7 # @ , , , # o = < , e e s f L L K ' _ ` ..| ..' X.' X...' ....X.#.#.@.@.X...' ' _ ) _ K K _ L f u u e K K u u K ) ) K ) ) ) K K K K H H I L H L s s u e u q 0 , 7 # 0 0 0 = # 0 0 0 = 0 y 0 = 0 0 e e u u 0 0 7 ",
"7 7 0 7 y y = 0 e y 0 0 0 0 y 0 0 q y e y q y y e q 0 7 0 7 0 7 0 0 7 0 7 7 7 7 7 7 7 0 y = # = 7 7 7 0 7 = = O @ @ @ @ = @ 7 = = = 7 7 0 0 7 7 7 8 0 7 7 7 0 8 r y y y y y u u u u u e u u K u u y 0 0 e e u u k K u 0 u y y ) ..' @...{ @...K ) k y 7 r 0 9 # = 7 0 y u e e e y y q y e e 0 e y 0 y y u 0 y y y y u Q ) ) ) ` _ ` ` { K ) ) K u 0 y u e u y y e u 0 0 u f K K K u f ) _ K K K L _ _ ' _ .._ ' | ' X.' | #.X.X.X.| | X.@.| X.' ' _ K _ K u u e u q 0 , 0 e u e u y 7 q # # # # # O @ 0 = 0 e u e e 0 q e u u u u u e 0 y u u e q e u u u u K K K e e K K K I L K K K e K _ ` _ K u u e e e u e u e e e 0 0 0 q 0 q 0 e r e 0 y [ g ' K _ _ | ' ` ..#...' ' _ ' ....O.' | $.@.-.@.......' ' ' _ ' ..' ' ' ' L ..| .._ _ ) K K ) ) K u e y y 0 e y 0 0 = 7 0 0 0 0 u y q 0 r y r r r r 0 0 u u e ) @.{ _ { ` ' _ ) e ) ) ) K K ) ` @.` ) ` ) ` { ) ) { ) ` ) ) ) k u ) u u e q = # k ) K ) u y y y 0 0 u K e y k u u _ ) _ ) ) K u f ) ) ) K ) ' { { { @.q.-.@.-.,.,.:.=...X.-.9.9.-.-.,._ K ` { ..@.@...' ' _ ) ) ) _ K K u f t e e 0 0 = = # # # o # 0 0 # # , @     X q 0 e K ) _ _ f s L Y } +.| |  . .| +.@.@.#.X.#.-.-.-.-...' | { _ ' _ K K K _ _ K K e e q e y 0 0 q e 0 u f u 0 e 0 e 0 , q u ) _ ) K f K u u e e e u e f K K L K f K f f u e u e f f K f f f K u e K K u y e e e e u K K f K ",
"9 7 y 7 y r = 7 # = # # 7 = = 7 7 = 7 # = = 0 7 0 4 # @ # @ @ = @ @ @ @ @ @ # # @ # # @ = # # = = 0 0 u e 0 r 7 0 0 9 0 0 7 0 8 7 7 7 4 7 7 7 # # y k u q K u 0 0 4 0 = 0 u _ ` { { ` ) ) _ ..` K k y u K _ ) { { @.| ` { ) k { ..` _ _ ) _ ) ` ' e y y u y u y u ) { ` #.@.@.{ [ ^ k ) =.{ k u y k K ) ) ] { { u 7 0 8 0 0 y q e y y 0 0 y u u f u u _ ' ....{ | ..X.#.$.#.-.7.7.#...' ' ' ` _ ' ..@.@...@.| | $.q.w.F.@.9...K _ K K u e 0 q , # # # = = 0 0 0 0 0 q q f e K K _ ) u u u u u K K L _ ` ' X.....@.@.@.@.| { ..X...' ' ) ) ` ' ' _ ' { ..' | @.@.| +.+.+.+. . ...L K K q K ) ) K u u u u e u u u K u K K K u e 0 , , # 0 0 y 0 y [ ' ..K ` ' ..L K f K u e u e u u k e e K e 0 ) e u f e ) u u K K K u e e e f q e q q e q 0 0 0 w y = 7 u ) ) { { ` ) k ) ` _ k u y 0 # @ @ # w y e y r 0 y y y u K e 0 0 0 e e 0 , q u u 0 0 , e ) u e u 0 u y r y y y y e 0 0 0 @ = 7 0 = e e u _ ` ) { ` k u u K f ) _ u = 0 q 0 0 # # # # o = 0 = 0 u u e u u u e f _ L _ K ' _ { _ ' K K ) K L u ) 0 = 0 q q 0 0 7 y 0 0 , # # # # X X = 0 s u e e u e e q f f ) e q K u K u k K K ) _ ) _ |  .@.| X.@.} L K _ K _ _ ' ..' K _ | .._ _ _ ` K u e e y u u y q e K y = = 0 q e u 0 q u K K K f f u K ` K K f u k u K K K K K _ ' { ' ) ' ' | ..' } ' _ K K K K _ ` _ _ ' _ ) ` ) _ _ ) K f K u u e u u u u e q 0 , ",
"y e f y y q 0 y e u f f u L K K u u u u f e e q e u e u u e u K K f u f f K K k u e e 0 q 0 y 0 e e y u y 7 7 u ) u 7 7 7 7 = = 7 7 4 0 7 0 u k K ' ..' _ | ) u K K K k u ) { { { ` ) ` @.....' { { ' @.@...{ ,.' ` _ ` ^ u ^ ) k q 0 0 , 0 0 ) @.{ { o.` k k y k { =.-.@.{ ) e 0 q y K ' ) _ ' ' ` @.-.,.-.,.@.) K ) _ K L { _ _ ) _ _ | X.......` { @.@.X.' { X.@.@.#.` ...._ ' K u K e K ) f u K K u ) K 7 e q e 0 0 = # 0 @ = q 0 , 0 0 e f u g L g K _ ' ' X.| X...X...@.| ..| X.#.#.#.-.=.....' ' _ ) ) K ) ) K u u e K K f u K _ _ ) ) ) ) K K K K H L L I I K s e e s u 0 0 0 = 0 e q 0 0 q y 0 0 y e 0 0 q u u u u u e 0 0 0 0 , 0 0 7 ^ , 0 # e e 0 @ o # # @ X @ @ X   @ O O X   @ # @ X   # 0 = # # # @ @ # @ @ # # @ # @ # # # @ @ @ #   o u ..| { { ` ) ) { ` ` ) u y y q y 0 u ) ) ) ) ) ) k u e e e y 0 = # # # X   # , # @ O   X @ @ X   O   X   O @ O @ # @ # 0 0 = q e e u q e f K k K u K K K _ _ ' @.` u e u y 0 = 0 e e u u u y e K u K f K _ K K K f u e e u u q 0 = , 0 , @ X @ # 0 0 0 , 0 0 , 0 0 u e f f f f f K _ _ ' ' _ _ ' ....{ { X.@...' ..' q.#.-.-.@.X...` | ..| | K u u q , 0 q q e 0 q e q q f f K K f f K u q e u e K ) ) K ' ' ` k u K f ) K u e u K K f e e e e e 0 0 0 , q = # # # 0 # # 0 y q 0 y y e y 0 u e e e u e u K ) K L ) K K K K K f f u y , , = = , = , # # @ # # ",
"_ ....` K K K _ ' ' _ L | ..@.@.' ' | | _ _ _ _ ' _ _ _ ' K _ ' _ _ ) K u f K K u u u r 0 r u y 0 0 0 0 y y q u e 0 0 0 y y y r 0 0 0 u u u ` { ) ) ) ) ' ) k k ) K K u K ) { { K ) ) _ _ K K _ ) ) K K ) u u ) K u 0 0 # q ) ) ) ) u u y y y e k u 0 u u e ` ) ) K K u u u ) ) _ ) ) _ ' ' { ,.-.X.=.,.,.=.=...@.-.9.9.X.=..._ K ` ) ..@...` ' ` ) ) K ) ) f u e e e e 0 0 0 = q # = # # 0 0 = # 0 = 7 0 y e e f _ ' ..' H L Y |  .@. .X.O.@.@.@.#.@.#.#.#.-.-.-...' ' ' _ ' _ ) K ) _ K f u u e e e y 0 y e e u K f q u e e y 0 e K _ _ _ ) K K K K f f K K K K L _ _ _ K K K K K u u ) K ) ) ) ) ) K f K _ k u e u u f K K K f K L _ K L s 7 ~ , 0 o , # 0 = = = w 0 , = 0 , 0 < , 0 e e w 0 y e q y 0 0 7 = = # # # # # # = = = # , , = , 7 7 = # # 0 u e K K _ ..) K 0 0 0 0 y y , w 0 e k u y 0 = 7 X X # # # # X   O     X @ # = # @ @ 0 0 0 y y u e u u u k ) f f f ) _ ' ` _ ' ..' { ..@.{ | _ ) K K K K K u e e u e y e w 0 y k e y e u f e f K e k u u k k K ) ) _ K f u u u u k ) ) K K K f K _ _ _ _ ) ) _ ' ' _ _ ) ) _ ....@.-.....#.#...f K ) ` _ ` _ _ ) _ | .._ L K f ) ` _ { ' _ K f u e K K K L K K K _ K u K L u f K K _ | ' f u u K _ | @.' ' ' _ K f u f _ _ ) _ ' | } } | ' _ _ ) ` ' ' _ } ' ' L L ) ) ' @.@.-.@.@.@.X.| +.#.#.#. .+.+.| O.X.| @.$.$.9.$.$...) _ L _ H K f f f u u u u e u e ",
"u e u e 0 u 0 w y y 0 0 u y u f e y u u e e u u u e 0 u u u q q e y q 0 0 , 0 y 0 = 0 ) _ ` { ` ) K ) ) ` K y y 0 7 # @ = e q u e y y e e e u u e 0 y y q q 0 0 u u y 0 7 0 u u e u u e 0 0 0 r r r e 0 0 # @ = 7 0 q e y K _ ) ) { u ) u K K ) ' ) 0 0 u 0 0 = 7 = @ # 0 0 = q K u e u K u u K L L ' ' _ ' _ _ _ K ` ) K u u 7 = 0 0 0 0 0 4 y 0 @ @ O # # # # # 0 u K u u u K u ) ) K K ) u _ K ' ) ) ) _ ` _ ) ' | X.X...@...L K L K K _ ' | ' _ _ | | ' _ _ _ K f e e e u u y e u u 0 7 q y u K u y u K ) ) ) K u K ' ) K K u k u K K f K K _ ` { _ ) ' ' ..| | ' _ _ K K K _ ' _ _ ' _ _ _ _ ` _ _ ) K K u u e u u u u e e 0 e e u e L s 7 ] f ) e K u ) K K L f g K K |  .| } L } I L K e _ ' { { K K u u K K K K K K K u u y 0 0 0 , 0 0 u e 0 0 = @ 0 q q e f e = X , q 0 q 0 0 0 # 0 0 , X O X @   @ = 0 0 y 0 0 q 7 y e u K f u e u K K _ _ { .._ ` ) ) ' | _ _ K ) K K _ K K _ f u f f f ) ` ) f u 0 u u u u u u u f g K K ) K u u f K ) _ { ` ) K y 0 u K f K K f u K K K u f K _ | | $.X._ L L K ) _ K K ) ' ' _ _ ) _ ) ) ) ) K u _ K _ _ _ f u u e u e y 0 y f _ ) K f f K ) ) f ) _ X.#.@.@.@.@.X.@...' _ f , , 0 0 = 0 f f e K L f K u f u u u K K L K K _ _ _ _ ' ' @.....| ' ' _ _ K e f ' _ K g K K K K K f K _ L L L K _ K ' @.@.@. .| I T Y | } _ | | | | ....| ' X.@.@.@.#.#.$.$.| #.@.@.@.....",
"X @ @ @ @ @ @     @ O @ # # @ @ @ X @ 7 # # # @ @ @ # @ @ # # # # # # # # # @ # #   # _ ` ` ' ) K ) _ ` ) K u e u e y 0 e ` K ) ^ k k u e e e e q = = # # X @ @ = = # O O O @ @ X # O @ @ @ @ # @ = 7 = 0 q 0 0 u u u u u f ) K K ) f ) _ _ _ _ | ` k e u y y 7 e u u u K K e u K u k f ) ) K K K u e e e u e q 0 0 q 7 # # # 0 0 0 0 0 q 0 0 e e u K K f K K K _ ' | | ' _ ' ' ......=.=.@...X...9.-.-.-.@.@.....X.@...| f u u 0 0 q e u 0 q e q e K K ) ) f K ) K u u k k ) ' ' ` { { ` f K K ) _ K u u f L f s f u e u e e e y u q 0 = , 0 = 0 u u e e u u u e u u u u u K f K ` _ L ' _ _ _ ) ) K K f e w 0 0 0 0 0 0 = = 7 , = # = , e q 9 [ K ` K ..` ....| ..@.X.|  .} I L I L K u e q 0 e u e 0 = q q 0 0 q y 0 y e u u k k q , # # # # = # # = # # # # O @ @ # 7 7 w e 0 , 0 y 0 0 e u e e e u e e y e e u K K K ) k ) K f u u f u u u u u u k K K K K K ) K ) K K e e e e e 0 e e 0 u u u u k u f f f _ | ' ) _ K K s K _ ' ' _ _ _ ' ' ` ' { ) ) ) K f K K f _ _ _ _ ' | X.X.| | | | | _ f f f K f f ) ) ) K ) ) ) ) ) ) k y e y 0 0 0 0 e u K u K ) ` ` ) K ) _ @.:.@.=.:.@...' { ' @.#.-.#.....{ ` _ ' _ ) ) K y f f K K L | | X.-.9.7.@...@.#.@.-.9.9.9.-.#.#.#.X.| ' ' @.X.........' ' | | ..X.@...| X.| } } ' ' L _ L L ' | ' K _ L L I L } I | T | I L L L L L f f _ u K u f K u k u u q u u u u u ) ",
"y e q e e 0 u e u e q y u e 0 e e u e y 0 0 0 0 0 0 0 0 , , , , = 0 , , 0 0 0 0 0 7 = y y u K K ' K f 0 = 0 0 q w 0 w 0 w u e 0 # # #   X # # = = o @ @ X # # = 0 , # # 0 q q q y e u K K K ) L K K ) _ ' | ' ' { .._ ' ..| { _ ` K K K K u u e e u e e e e q e k y q e u u u K K u k u u K f K ) ) ) ) u u u u k ) _ L ) _ K _ _ _ ` ' _ _ ' ' { _ ' ) _ { @.@.=.@.' @.#.X._ f ) ) ) ) _ _ K ) ' | _ K u f ) ` ) ) ` ) ) f u f L K _ _ _ K ' ' K K _ f f ) K L ' ' K u u ) _ ..{ ' ' ` _ K K k K ' ' ' ..X.| ..| ..{ _ ` { ..| ..' | ..' ` ' ` ..#.@.-.-.@.#.@.@.5.9.9.3.#.#.#.@.#.| @.$.5.9.9.9.@._ ..' } _ _ ) K K K K K K u K K u u q u e 7 ] f ) q f 0 u q q q q q e u u e e q q , q 0 = 7 y e y q e e e y 0 u u 0 0 0 e 0 e K K u f K K K K u e e e y y y 0 y 0 q 7 7 0 0 0 # = 7 # = 0 y e e k ` ` ) ) ` ` ' K e 0 7 q y y u 0 e u K f u K K f K K _ ' _ ) K K K K f q u u e K L _ } ' _ L ) ' | | ..| @.|  .I ' X.' ' K K f K K K K K ) f f K K 7 0 q 0 e ) _ ' ' | ..@.X.-.#.X._ | ' ' ' _ ) ' ' | | ' ' ' ' _ K f u u e u u e u u e e u K _ ) u u u u u f f _ @.| { ) s f f u K f ) ' @.=.X.{ ' ` ` ' ..@.X.....| _ ' ' ' ' | | | X.#.$.-.#.X.-.9.-.#.#.X.| | | | @.X.@.| | | | _ _ K K K u f g K K K K f e f , = 0 e 0 y u u K K K K u e e e e q q w 0 0 = = = = = , = = = , = , 0 0 0 0 # , , % # # # = 0 ",
"K I ' ' I }  .+.|  .L _ L K e u _ _ ) f f u e u u u u K f K u e e 0 0 7 , , 0 y 0 0 0 # # 0 0 0 0 0 0 # 0 e e q 0 q 0 7 7 0 # # # # # # = 0 0 e e e y e y u u u K f u e K K K ) ) ' ) ) K K ) ' _ ) ) K K K K K K K u u u u u _ ) f u y e u k u u k u f K K ) _ ) k K ) K ` _ ' ' ) k y y K K K K K f K K K K K L _ ....#.X._ L ) K ) ) K K ) ' ` ) ` _ ` K ) f ) K u K ) _ ) ) u u u u k w y e ) ' ' _ ) _ _ ` _ ) _ ..9.-.@.#.#.#.$.@.| ` f 0 % 0 0 0 e f K f L _ L K f K K K K _ _ _ _ ' ..| ' ' ' { ......' ' ' _ K u u _ _ K g ) _ K K _ K K _ _ _ L L _ ' ..#.@.@.+.} } } | | } | +.| ' ' | .._ X.X.@.X.#.-.9.-.| $.#.@.@...' K K e K u 7 [ f { K .._ ' _ ' ' | ..| X.X...' ' _ I _ _ ) _ | ' ' ' ' ' ' _ ` _ ` K K K ) _ K K e e e u e u L _ L I k 7 7 0 e u e e y 0 0 0 q 0 0 y 0 7 0 0 e y k ` { ) K u K K k ` ) k u e k k q y u ' ' _ ' ' ) | ' ' ' _ K f ) K _ K K ) ) ) _ ` _ _ | } Y L I K u e e 0 K 2.@.' L K K K K K K ` u e K K K L ' ' u u u u u ) K _ _ ) ) K K L L K L _ g s f q e u e f u u e e f K u u e y u u f u e y 0 , 0 e e 0 = w y ` _ { | ....X.| ) K K ) _ @.@.-.-.9.:.-.@.@.....X.#.@.#.........-.-.#.$.$.#...@.| | | ' ' ' ' ' ' L ' L L K f e q q q < , % , , , , % # % < 0 e e u q , u e # # # # # = = , , < 0 0 q u e e f K K K K L L _ ' | } | } _ _ K L I I I I I I I s u e f s K ",
"K L ' _ I I H K s K s e q q = 0 e q 0 = 0 q 0 , 0 y 7 0 0 u e u u w 0 0 = , 0 0 = = , 7 = 7 # # # # 0 7 q 0 q 0 0 y 0 y e f u e u u e e e e u K K u k u K K K u u f u u u u k u K K K ) K ) K K K K K e e e q e e u u u f u u f f f K K _ .._ _ _ _ L f K L _ ' _ _ _ ' ' ` _ ` K ) K ) K ) f K ) ' ' ' | X.X.X.X.| | ' ' f K K _ ) _ ` ) _ ) _ ) ) ) ) ) u u u y 0 y 0 y u k K ) ) ) { ` K ` { @.-...@.=.....' { ' @.#.=...{ ' _ ) ` _ _ ` _ u u K ) L _ | X.@.7.9.#.$.#.#.-.-.9.w.9.9.-.@.#.#.@...@.@.-.@.@.@.@.@.@...X.X.#.#.#.#.#.| } _ } ' _ _ L _ ..| _ K L _ L ' } } } } | } L L L L L ) K f u u u u u f u u u y u u e u f K e ) u ) e 0 [ # 0 # e e u y e e u u y e e e e e e e K K K f K u f u K u u e e 0 0 = # , = 0 = @ X # o # # # 0 q q q 0 w e u K k f K K u e e K k K K u r 0 7 7 0 7 7 7 = 0 7 7 7 7 y 0 = = # = 7 7 0 u ) { ) _ _ _ _ _ K f s s K ) ) K K ' ` _ _ _ ) K u f s q 0 0 w y e u e f | _ u e e e u K _ _ ` ) K _ ' _ ' | ' K u u g f e 0 < 0 # 0 u e k _ _ ' ..' ......#.@.q.q.=.@.....=.=.=.@.-.=.=._ | ..` ' ) u f K K u u ) ) =.X.-.:.=.@.#.=.| ' ' ' ' _ _ _ _ ' _ _ f f u e u K f K f _ | ' #.#.@.X.| _ f u u u u q e 0 0 , # 0 q q e u < e f s f g L I _ L _ _ } _ I | | O.X.X.| | | | ' _ _ _ ' ' _ L K K K L L ' L L L L K f f K f u f f K f f u e e K L I I H H L I s q e u e K ",
"0 e q e u f f f u e e q e q 0 e u e e e e u u e u u y q q e e e K K f f K K K K K f f y y q y e y 0 q 0 0 0 0 = # 7 # # 0 0 y y ^ { { ` ) ` ` _ u u y 0 e y u y y e K K f K K K K K L ' _ K u K K K K 0 u f u _ _ | | | _ L ' | _ _ | | _  .| _ X.' ' L K K K K f K ) f f u K u 7 q 0 y u ` ' ..' ......@.#.X.' | ' ' ' _ K K L ' _ _ _ _ ) K u u e e e u e u u u e e K ` _ f u e u u K K _ @...' ) u u u u ) _ { ..-.-.@...{ { ..@.#.=.@.@.@._ ' ....' ..X...@.#.$.-.#.#.-.-.-.#...@.X...| X.X.X.X...| _ ' K K u K y e u f K K K K u , , = 0 0 0 q e f K K K K u e u e q e q 0 0 , = 0 0 0 0 0 0 0 0 w e u u u q 0 q 0 0 7 , 0 0 q = 0 = y y 0 [ e K q ) _ ' { ' _ ' _ L ' ' ..} }  .} ....| | @.@.@.@.X.` _ _ K L K u e e e e e q q e q w w 0 u e e s K ) ` ' ) u e e e e y y y 0 0 0 0 0 0 = = 7 = 7 = y u e 0 0 0 y e y e y 0 0 0 # 0 e y 0 0 0 0 0 , = 7 = 7 0 u u K ) .._ ' ' ) K ) K K K k q q e 0 0 0 0 u K e 0 e f f f K u y e f K K _ K K _ L K s u f u = X   X   X 0 u K K K ...._ _ _ ..' ` { ' ) K K ) _ K u u K K ' _ ' ..@.#...| .._ _ _ ' | ` X...X.@.@.@.@.#.@.@.#.#.@.@.-.-.-.-..._ K ) K u u f q u f K K s K e u u K u 0 u e K K L ' ' | X.| ..| | | | ' @.#.X...| | #.+.+.#.5.$.@...X. .| | ' ' ' _ ' _ K L K K _ K K L K K K f K K K u f u y q e e u u u u q e e u K } I H I K H K s s u K u q e ",
"` ..| ..' ..' ' ) _ L _ ` ) _ ` ' ' ' ' ' ' ) ) K K k u u u K u e q q q q e u K g K f e 7 0 y u u u e q 0 q y e e u y 0 y y e e u K k u u u u u k ) ) u y y u y y u ) ' ) _ ' _ ' ' _ ` _ _ K _ ) _ ) _ _ ) ) ) _ L L } L L g K e q u 0 , _ 3._ L f f k K ) ) ' K u K _ L ' ..' K K K K K K f ) K K K ) K L K K _ K f K f f K K ) ) K K f ) ) K ) ) ) ) f K u e y 0 = w q e # q e ) { ..@.@.@.X..._ ) _ _ ` @.X.&.=.-.=.@.....{ ....@.@.....@...-.9.-.-.7.#.| X.| | ..' ' ' _ ' _ _ K _ e e e e 0 0 < < , q 0 q 0 q 0 0 f s u f K u e e f u 0 0 0 0 0 0 0 0 0 0 u e K f K _ _ _ _ _ | | | X.X.X.| ..| _ } } ' ..} _ } } K f K K K _ K ) e K f 0 [ _ _ f ' ' ............@.4.3.3.+.|  .|  .| } | @.3.3.#.@.| ..@.@.@.@.#.@.$.@.@.@.X...' | L K u u u u s y 0 y 0 0 = # # # = 7 w e u u e e u u y y e e e 0 e K u 0 = 7 r e y K K k K u u K ) ) ) ) K K K K K K u u k K K K K ) K K K u K ) u e y y 0 y u e e u ) ' ' | | | | ' ' ..@.#.-.#.X.#.#.@.{ ..' ' ' ..X._ u #     @ @ = = 0 0 0 q 0 # @ @ @ @ @ @ @ # # X # # 7   # = @ e _ _ K K _ ....' f u K ' ' _ _ _ L _ ' } _ ' f f K K K K L f u s q 0 u K g K _ ' L _ ' } _ L _ K K _ | ' ..X.@.#.9.9.9.$.#.-.#.-.X.@.X.X.@.X.X...X.X.@.@. .| } I K u e q q e e q e e u K f f K K K ) L K _ _ ' _ K ) ) K K K f f K K ) ) ) K f f K f f K I L L L L H H H g K _ K f e ",
"0 0 q q 0 q q y 0 e q e K g f K K K K f K u u u q , , = , , , = = # = # = # = q 0 q q y u K K u u f K K e e u u u u e 7 7 7 = 7 7 = = = 0 7 7 7 7 7 = # = = 7 7 7 y u ) ) K ) f K f e e e u u f f f K ' ) _ ' ` ) ) u g u q = 0 e e u u k ) _ u e u e u K K K K K f K _ L _ _ K f e u u e 0 , 0 # = # q u ` ' ' @.X...=.X.-.=.=.=...=...{ =.=.@.=.#.=.@.' ..@.@.) ) ` ' _ ) K ` _ =.-.:.-.#.@.=.-.X.{ ..| ' | ' { ..@.' _ f f u u f f u f K ' _ ..@...X..._ f u e e e q e q 0 e 0 , , 0 0 q u K K K _ _ I L _ ' X.@.X.| @.#.$.$.#.#.X.@.X.X.| | ..X.X.| ' _ _ L ' ' ..L _ L K K f f u e u f K u u e e e K L I _ H K L L s q u u s K f u 0 e q 7 [ _ _ f _ K L L _ _ L _ ' } } |  .}  . . .| I } ' I L K _ K K K K K K ) u f K f u K K K _ K u K K K u K y 0 y 0 y 0 = # = = 0 e e y e y 0 y y y 0 q 0 0 0 y k e y 0 q y e y k u u u u u u u e u e y q q u y y y e u u 0 = 0 u ) ) ) ` ..' f _ ) K u K ) _ ) ) ` ' | | ....@.:.=...#.#.@._ L L L K u u y 0 e k f u u #     X   O O               X   @ # # # y u u q q u f K ) ) ` ' ' _ L ' ' _ K u u K f u u q f s L I H L u q e 0 0 e K _ ' X.X.' ' ' ..' K K ' ..' _ ' | #.@.X.X.| | | } | | I ' I K u K ) L ' ' | ' ' ...._ ) _ L I K K L ' L _ | _ ) _ .._ ' ' _ { ..{ | X.@.X.#.-.X...| ..' _ ) ) K K K ) ) K K ) ) K K K K u u e e e K g s K K K G s u g u e e ",
"' | ..' | | X.| | | | | | | ' @.@.#.#.@...) _ K L K K f f f f f u f e f e u e u u u K u K ) K u 0 q 0 q 0 y y 0 y q q q y 0 0 q q r q u k e q 0 e u k u u u y e 0 q e e e e q 0 q y y y y q e u ) K ` ..` ' ) ) u ) K ) ) k e u q 0 7 7 u f k u u K K ) ) ) u u K ) _ ' _ L ' _ _ L _ L u = X @ # @ , e u u u K ) ) K K K ) f K K u _ K u K e e u f u ) _ { { ....| @.' K K _ | _ | | | @.@.@.@.X...| X.@...X.@.=.@.@._ ) K K K f K f u f L K u f s e u K u u u K _ | _ _ | @.#.X.X.X.| X.X.#.7.$.#.@.@.#.3.#.#.3.#.| ' ' } ' I L K ) _ ) ) K f K k K f K K f K K K ) K K K f u u u K K K K K u K f K L | | T T I I L L K f L K e f e k q e 0 7 ^ f K u K s K K _ _ L K K s f K K K K K s u w w 0 0 q q 0 0 , = = = = 0 7 7 # # 0 # = = y 0 = 0 0 q 0 , 7 0 y 0 0 0 0 0 0 0 e u 0 0 0 u u e e k k u u u u u k y q r q 0 y 7 7 7 7 0 y u u e u K u ) { @.,...@.@.=.@.{ ) K ) ' ......| X.| ..#.=.-.-.-.....@.' { ' X...' ..X.@.| | | ' ' ' } f 0 7 # = 0 0 = 0 = @ # @ O   @ @ @ @ # # % 0 , 0 0 0 q u s u u K ) K f ) s u u q u u u u 0 0 u u K K L f f u u u u _ | | _ ' X...' ' K ) ) u u K _ K u u f K K u q f K f s u s f u u K K L I K H _ H I L g f K K u u f ) _ _ ' ) K K K K s u s _ @.} } _ K _ _ _ K _ _ K f K K f f ) f f ) K e u _ _ ) ) ) ' | ....{ ` | @.X.@.@.' { _ _ { ..) ) K u u u u q 0 0 q w e u ",
"K _ _ ' ..#.|  .| I T I | _ _ | | @...| ' _ ....| X.#.#.-.X.X.@.X.| ' ..K K u u u u u , 7 0 0 = = @ = = 7 0 e e e u q e u y y y q 0 0 y k u 0 = = 0 0 y K K K ) K ) _ K ) ) ) ) k K u u e e u u k u e K K u k K ) ) e y 0 7 0 u u K f ) { | ..X.@...X...@.-.-.9.#...X.@...' ' _ ` L | | _ e # O # @ # = 0 # # = # # @ # # # @ @ @ O @ @ @ @ # # 0 q 0 K ' _ ) _ { X.| ) u K _ ' _ _ L L L _ } L f u u K f K K K f f K s u K _ L ) ` ' ' ' X.| ..| | ..X.@.X.@.@.3.7.9.9.7.@.@.#.@.=.X.#.@.X.X.X.X...X.|  . .| } _ H K K u u K f u u K K _ ) _ { ..| @.X...@.....' _ _ ) ) K K K ) ) ) K ) K u u u f K K K K I H I I L L L K _ K f K e K e u q 7 / , #   = = , 0 q q u e e 0 e 0 e e e e q e e f f K K K K K K K L L L L L I I K u q e u K K f e u K K e 0 = = , 0 0 e e e q e y 0 q 0 y q 0 7 0 0 0 r y u u K u q 0 0 0 y 0 q 0 e K ) ` ) ) f ) K ` _ ' { { ` ` ` ' _ u ) { ..#.#.$.-.9.#.=.-.-.@.@.X...| X.' ) K f K u u u 0 0 e 0 e K L s q , = # q 0 0 0 q 0 0 0 0 0 0 q e e 0 e e u u u f u f u u u f _ _ K u ) _ ' ' ..@.#...` K K K K f f _ X.....@.#.X...-.#.X...| -.9.:.{ _ _ K e e u f K f K f f ) _ K _ | _ ' } ..X.@.#.-.9.9.9.X.| $.$.-.#.@.X.' _ e K f K K K u 0 u f f K I _ _ ' @.@...@.X.#.#...K K K K e u u u e u e u K y u u K f K u u ) K ' K e u K u e u u e e 0 q u u 0 0 0 0 , = = , 0 0 # # # X ",
"_ I K K L _ L } } } | } } L L I K f f K _ e K u e e u u u y f u e e e u u e K K K u u e q y e e 0 , = = 0 e y q e e e y y u e y y q y y k e u e e u u u k u y u e u e e e y e u u K u u u ) ) ) y y y K ) ) ) ' X._ K ) ) K ) _ ) _ _ ) _ ' ' ' ' ..:.#...X.@..._ _ L K u K u 0 0 0 u e u 0 #   @   O O   O O O     # # # = 0 0 0 u ) K u u K K K _ _ _ ' _ K _ ` _ K K u k f e q q u K _ _ H I K f u q e u ) ` ..-.@.' ' ` .._ u K ' | _ _ _ ..| | | ' _ } _ ' | L K K f u f K L ` ' ....| ...._ ) _ L L f L } } _ | ' ) ' ..{ ' { ' ' ..' | ..@.| #.X..._ ' ..' ` ) _ _ _ ` _ _ ) ` ' _ _ ' ` ) ) ) _ ) ) K K K K K K f f K u f K 0 u 0 K u 7 ] ) u 0 u e u e e e e e K K K K _ ..} _ L ' _ _ ' | | ' _ K K f } I } T I I T L e u e e K H K e e e f q e u u u u u u u u k K K K K K K u u e 0 0 = 0 e u u K ) K K K K ` ' ' ` { @.....{ ' _ ' ` _ ) ) f u e e e K _ _ _ ' _ _ _ ) ' _ ) _ u u e e y q K u w 0 e e % % , , , , , q s L } } } _ _ I I K L | | g I K g K f u f f u K K f ) K | | _ _ _ K ` #.$.#.@.@.@.9.9.$.$.9.9.-.#.-.$.#.' L _ _ K _ _ _ _ _ _ K g g L _ L ) f ) K ) _ ' ' ' ..| | | ..X.X.| ..| | ..' L _ _ | _ ' _ | _ X.@.| ' K ) _ ) K ) _ ) @.=.-...X.@...-.-.| ` _ K f u y q 0 0 f K 0 0 , e q 0 0 = = 0 @ # 7 # = = = 0 0 0 0 # = 0 7 # @ 0 = = = # @ @   @ @ O O @ O O   O O O             ",
"K K K u u q u q u e q w 0 , , 0 = , 0 , , , 0 0 q 0 e 0 0 0 , 0 # , , 0 , , 0 , 0 0 = = 0 0 0 0 y e y y 0 e 0 0 0 e u y y e u u e u u u u y 0 7 7 7 0 # = = 0 y u ) u u K k ) { @.:.-.@.-.,.,.=.` ) ` | @.@.X.@.#...=.-.,.,.9.-.X.@.@...{ ..| _ _ | ' _ ` ` _ _ ' L u , # # 7 y 0 = 0 # # = # # = 0 0 = 0 0 0 q q e u e e u K K f K ) f K f K K u f K u u u q q u u K _ _ ) L ) K K { @.X.| ..#.-.@.X._ ` ) u e ) K u 0 u k L ) u u K K g K K K K K _ ' | X._ _ | | X.X.' _ ` ) u u f ) ) _ ) K K K K K g s L @.@.X.@.| ' ..| K _ _ K f K K K f ) u ) _ ) e K ' ` ` ) ` ....@.....{ ...._ ' ` ..) ) { { ) ) K k K u u e e q q e e u 0 e 0 e 0 0 ^ ..| _ @.| @.' ' ' _ _ I _ _ K K K u w 0 q 0 y e e q 0 y w e K } I I H H s K s u f f u e e u e e 0 0 # y k u u e e u ) K K K u u e u u e u u e e e u u u u u u u k f e ) ' ..' _ ' ` ' { { ' ..{ ' ...._ ) ) ) ) ' ' _ K _ _ ' ) q u 0 r 7 y 0 e K 7 y ' } L _ ' I L _ L L I L L } _ } } } | } | | X.#.9.9.9.7.#.| ..' _ ' ' ` _ ' ..@.#.q.J.9.9.$.@.L ..@.@.' .._ ) K K K f K _ ) g K _ K K ' | ' ) _ K K K s u u K K K K K K K K K _ ) _ _ K _ ) K L ' _ L K ' _ } ' @.....@.-.X...{ .._ ..' ' ' f ) _ ) e k u y K _ ) u u e 0 ) 0 u u % , 0 X O     X @ O O @ @ O   O O           O O   O   X O         O O     O       O @ O   O       @ X O O     O   O O # O @ ",
"0 0 0 q 0 e u u f g g f K K L _ } | ' ' _ _ K L I I } L _ _ _ u f K K L L ) K K ) L f 0 0 0 0 0 e e u e u e e u e e y w 0 0 0 0 0 y u u K u e y q u u u K u ) _ ` ) K k ) ) K ) ) ) ) K K K K K K ) { ' ..X.@.#.@.X.X...X.....' _ ' ) k u u e 0 0 q e # 0 0 0 g I g u u e q e e e e u q e u K e e u u u u u u u f f f e f K u K _ ' _ K ` ..#.-.#.-.,.@...` ' ' _ K _ @.} ' X.#.#...#.#.X.' | #.=.=..._ _ ) u u f K _ ) _ K L _ ' ' | ....X...@.@.-.#.#.$.$.@.X.$.@.#.@.@...' _ K _ _ _ K ) u u K K ` ' | | ' | ..@.@.....#._ _ K L K K u u u u u y e k K e u u u u y u u K _ u f f u k q q q 0 = 0 u e 0 0 0 , 0 0 0 , 0 0 = # # # @ #   @ @ y Q u u 0 K q f e f ) K L f K K K K K K K K ) ) ' ' _ K K K K K I T I I L T I I H K L L K s e u f u e e u e y q 0 0 y u K K K f e y w q e 0 e u 0 = # # = = = = , 0 q q w u f _ K e e u u e y u K u e u f u u ) u e e e q 0 e u K ` K ) _ ....@.@.-.#._ | -.9.7.7.0.9.9.9.$.9.$.#.$.5.$.$.9.9.9.5.9.9.9.4.4.#.3.$.#.X...@.@...X.X.....@...' _ | | K f f f f q u q q 0 0 u s K f u q u u _ X...| ..#.#.@.#.$.#.X...' ..| _ _ ' _ L K f L _ f ) _ _ _ _ _ X.X.X.....#.| _ K K ) K K _ u K K f u u u e 0 q K u q = 7 #   # @ X   X # o o X O O       O O @ # , #       O     O X @ # , 0 = # @ @ @ O X O X @   O X # = 0 , , 0 , 0 0 0 # 0 e , , 0 , = = 0 , = 0 , q e u u ",
"K f f K K _ K K K L K K K f u u u f f u u e e H H H L K s L K e u e e e e e 0 w e e , u K K K f u u u u K K K ) ) K u u u 0 0 q y e K u ) ) K ) K ` { ..{ { ..@.{ @...` { ..{ _ _ K u e e u ) _ ' _ ' _ _ K K K u e y u y q q 0 w K e q e u q 0 e f u u K L K _ } | | ' } } I _ | X.X._ | L K K f K ) ) K ) K _ ' X.#...#.@._ ` -.9.9.-.-...@.#.X.@.-.-.#.@.#.@..._ _ ..L K _ L L K K f f f K K K K K K ) _ ' { ..X.@...X...#.X...| ..| | .._ _ ' ..| ' ' ..' @.-.....) ) ' _ K ) ` _ ` { @.{ X.X.' @.` ` ) f K f u y q 0 u y q 0 0 e 7 7 = q # # O @ # 7 @ = @ # 0 O 0 # # = = @ @ @ O O O O O O @ # O O @ @ O O O O O O O O O   @ O O   @ # u [ { X...-.X.-.-.#.@.@.#.' _ ) K K f K K K K K K f f K K u u e e e u K f K g H G f f K u f e 0 q e K L K u 0 0 0 0 0 e e e e e 0 = 0 q e u f K e u e K u K K L K _ ' ' ' _ _ _ K u u K u u e u u k k K k K ) _ ) ` _ ' ` K u e K _ _ _ _ ) K _ ..X.#.#.-.-.#.X...X. .| _ _ ' _ I ' | }  .+.#...| ' ' _ _ L K K k k u u ) K e y e e y e q 0 e u u e u f K K f u _ ' _ _ | @.X._ | ' _ ' { ' _ K f K f f s f K H K u f s L | X.X.X.X.X.-.#.X.=.@.@.X.#.$.@.' _ _ K u K q q q q % < 0 , # # # # @ o @ @ o 0 , = # @ 7 # 7 7 = # @ # @ O O O O @ 0 , q u u q w 0 0 , , , q y 0 q y e K f e 0 = # 0 = 0 0 0 0 0 0 e K K _ ) u K K u e u u f K K K L L s s K K f f e e e u u ",
"K K K H f K K f f f e e e u u f u u u u u u K } T L I I H L g s K K e u f u u e e 0 , u e e y y u ) K K K f e y u u u u u y y q r y q q w e q e e y K _ { K ) ) K _ _ ) ` { ) ` { ' ` ` ` ) _ ) ) u K ) ` _ e u u u u ) K ) K e L X.| _  .| } @.| X.X.| | | | | | ..| | | #.@.3.4.9.0.9.3.X.#...' ..@.{ ..@.-.-.-.9.#.#.X.| ' ' ' _ ` ) ' f f f f f f f f u f _ ) _ ....' ' ..' ' _ K _ _ _ _ _ ) K K f K _ K K f f f u f _ _ _ K _ ..| ' X.@.| ' @.X.| ' ..` _ ' ) _ f _ _ ) e u y q 0 0 0 0 q q 0 0 , 0 # 0 @ O O O   X X O O O O   O O O O O @ # @ @ @ O @ O # @ O O O O O @ @ # # # # # 7 # @ @ # @ # = = # @ # # # = # = 0 # 0 # 0 # 0 # y [ ` ) f ' K ' ' K u _ ' _ ` ) ' { { ..| ' ..@.@.#.#.#.` ` ` ..@.) ) K K K u u q 0 0 w e e y y y q e u y 0 e w , w e u u f f K f K K u K K _ _ K _ _ | X.@.#.@.' { ` ) ' ' ..@.{ ` ` ' _ _ ' ' ` ' _ _ _ K K K ) ' ' _ _ u u f f u f _ K f _ K _ L K ) ) K K _ L ' | ' L L _ K s f L L I | X.' _ ) ' ' ' ` _ _ K f f 0 0 0 u u u u u K _ L ' #.-.#.-.#.@.@.#.@.#.@...' X.X.' L | @.#.X...X.#.#.@.X.@.#.$.#.5.3.9.#.@.X.@.#.#.' @.{ ' K f K u f e u K H u u < , < # 0 # @ % @ # = , , = = # # = = = = @ @ @ # # X @ @ # O X # @ @ @ 0 , , q H Y  . .H q 0 0 q s K s u u , # # # o = 0 # 0 w 0 q u u e e q 0 , 0 q y q w 0 y 0 0 0 u u f u s u s K s s f g s s u q q e e ",
"_ ' _ _ K K K K f f f f K ) K K K u e u u u f s G K g H H K K K K K f e e e e e u u f u 0 0 y 0 q f f K u e 0 q 0 q q y u e 0 0 0 0 0 0 q y u u e u u f K u y y e y 0 0 y y 0 0 e e q k e y u u u y y e K ' K ` ` @...#.-.q.@...$.9.9.$.7.7.3.$.X.$.#.@.#.9.$.3.9.q.9.9.9.9.#.#.#. .| ...._ ' ' ' ` { ' ` ` _ K ) K K K e u e e e % 0 0 e u g _ _ K K f ) _ ..#.@.' ' ..| ' ........_ I _ L _ | | | _ _ ' | _ | #.#.@...@.-.#.#.X.X.| ' K L K f K L K f u u e q q q 0 , f u q = 7 = # # @ @ @ # , # # # @ O O @ @ # 7 0 e 0 = # @ # # = = 7 = 0 e e q 0 7 7 0 # = = 7 7 = = 0 0 0 y e u u e y 0 0 y u q 0 e u q 0 e e e u e u k K K e k q K e 0 { ) k e ) e K ) ) u u K ) ) K _ ) { ) _ _ _ K u K K K u y 0 K 0 w 0 q 0 0 , 0 , 0 7 # , X @ # # @ # = X = f K q u f f u u f K K _ L f e ' _ K u K K ) _ ' ` K e u y 0 u u f K e 0 u e e 0 y w w e e e k ) _ _ ' =.=.=...{ @.#.@.=.@.#.#.-.9.#.F.9.9.w.9.9.w.9.9.-.9.#.-.#.-.#.| ..@.@.X.#.9.:.-.@.#.-.-.@.@.-.....' ' ` K { | @.@.X.X.-...X.@.-.#...' _ L _ | X.| | | #.#...' @.9.-.X...X.#.#.@..._ ' K f u K k _ u K u q , q @ # = 0 q # @ O @ < q , o # 0 u u 0 0 # # 0 r y y w e 0 0 0 0 0 y e u u e u k u 0 0 0 0 0 0 q 0 q e g Y K T H s u u q q f K _ | ..' I L f g f u q 0 0 0 u u e e e e , , 0 0 0 y 0 0 0 y e u 0 e e f u q 0 , , < u q e s f u e q e < q q ",
"' ' | .._ ) K ) K ) ) ) K ) _ ) K L ) K K K ) ) K K f K f f e e u e u K e e e u K ) u e 0 0 0 0 w e y e e q 0 e y u u K K u f K _ _ ) ' ` _ | ' ..X.' ' ' ` K ) K L _ _ { ' ' ` _ _ _ { ` { ' ..{ _ f e f ) ) ) ) f e K _ | ' | X.' _ _ _ } _ L f K f f f L L I } | L K K K K f K u u e u e q w y 0 0 0 0 0 e e u f _ _ ) ' ' ' ..| | X...| @.#...' X.' | ' ` L _ K K K K K K _ } | _ L _ ' @.#.7.-.-.#.-.=.......' ' @.} } _ f e u y u u 0 , # , < , # @ @ @ @ # # # @ = # # # # # = = # # # @ @     @ = = q u L H K q e 0 u e q e u u e u e e u f q w 0 0 q y e e e u y e K ) ) _ K u K K u K ) K ) _ _ ' | L K L K K K u u e e e # 0 # u q 9 [ u 0 , 0 # y = 0 7 0 , e y 0 u 0 0 y y q y 0 @ X O   # # # @ O O @ O O   O O O O O                 O   o 0 q , 7 = = 0 0 0 0 u u q w 0 L K u y e u u u K ) K f _ K ) ....#.X.) K _ ' ' X.' ' _ ' | ' ..=.X...{ =.-.X.X.$.7.7.,.@...@.X.@.7.=...X.| ' K K f g f f f f f f K g f f L _ ) L _ ) K K ) K f f K _ _ ) K K u u _ f K _ | _ _ L | ..' | _ _ | X.-.5.0.0.9.9.7.#...| ..@.' K ) K u u 0 0 q q 0 = @ @ X   ,   O O O o O # # @ # # # # = , 0 0 0 q u e e w 0 , 0 0 q e e e e f u e e e u e e e q 0 e f y y y e u e e e e u q < q T } _ K L H K L K ) ) K L f K K K K K f e e e u e e u u u q 0 u u K K u e e e 0 e 0 u K e e q u u u e K K K K K s u q u < , < ",
"f e ) _ ) ) K ` ....' ' _ { ' K _ _ ' ) ) ) ' K K K u u u e e y 0 0 0 0 , 0 0 0 0 0 7 e u u w u f ) u ) ) ) ) _ K K K _ ) ) _ ` ' { ..@.` ) _ K k K ) ` ` ) K ) K u u u u k u u u u u u f _ ' _ K u K K K ) _ ' ` _ ......| { ......@.@.#.-.@.@.| X...' _ } } | @.9.-.=...@.#.-.@.....` ) K K u u ) _ ' ) _ ....{ #.q.q.,.#.@.....| ..| ' _ ..| _ K ..-.7.$.-.-.9.9.,.-.9.-.#.$.$.@.$.@.| X...{ _ _ _ f f ) K u u q q f u u , q u q 7 0 # = 0 0 0 q e y y 0 0 0 y q q 0 0 0 r 0 = 7 0 0 = = 7 = 0 w f K K K I T ' L e 0 u e K _ L K g 0 7 = = # = 0 , e u u u u u u e e q 0 0 0 0 q q e e 0 w u u e u u e e K u e K K f f f f s g K u f < s e 0 { u     O   O O O       @       O O O O   O       O @ O   O     O @ X O   O X @ @ O # # @ # # # 0 # , , 0 e e w y e e e 0 0 e f K K K u K ) K _ _ _ _ _ ) ` _ { =._ ) ....@.| _ { ..| ..#.#.#.#.#.X.....' ' _ _ ) K f ..@..._ ` ) f K ) ) _ ) e K K g ' | | ' ' _ _ ' X.#.@..._ ) _ _ ) _ K f u u ) ' ' ' ..@.#.#.X.X.#.#.9.9.9.9.#.-.-.@.@.#.| @.X.#.#.@.| ..' f u u f e e u u K w 0 # X O O O O # = # # = 0 0 e y 0 e 0 q e 0 e u q u u e e u u f K u K K K ) K K u f f K K ) ) _ X.' K L _ ' ' ' ..| ) ' X.X.X.| | | ' ' ' ' ..|  . .2.#.@...} ' L f e u u e K e s e e f u s u f K K f f f u s q e u u K K u e e e y e f _ f e u f K u u s K K K K K K s u e u q q ",
"u e u u k e e e u ) u 0 u u 0 0 0 0 0 0 0 q 0 = 0 0 = # = # # = # @   O @ @ @ @ O @ O , e e 0 e e y 0 e e u u f u , K ' u q e e u f ) K u e u e u K K ) ) e u f f f K K u f ) K ) ' | ....=.q.:.=.#.:.-.q.,.@.,.-.,.q.S.@.-.-.9.$.#.-.@.-.#.X.X.' ..| ' L } ' ' } X.@...{ { ....' ' ....{ ' { ) _ { ' ..@.X.X...| ......' _ _ _ ' #.9.9.9.$.9.-.#.| #.q.#...K K ' ' _ ' K K f u q 0 7 u e 0 0 # = = 0 # # , # O @ # 0 q , , 0 e u e w 0 # 7 y e e y 0 q q 0 0 w y e u u e u f K q 0 w e 0 y e 0 e u u u s I H s u u e g L ' @.@.| } ' _ _ K K f e u u f u e e e q 0 0 e e u u u e k u K u u K K f e 0 0 0 q K u e f K e u e e , , 0 < q , e 0 9 [ 7     # @ # @ @ @ O O X   X O O   @ # = , , , 0 = 0 0 0 e e = # q 0 = = q , 0 , 0 e u f u e e e u u e q 0 0 0 u e g K e e K _ K u u K ) ) '  .| ' f K K K _ _ | _ ..#.@.@.-.=.=.@.....-.X.' ' #.X.{ ` _ ` ) L _ _ _ 9.9.X.' | _ ) ) ) ) _ K _ } L L ..X...| | ' ' ' K K L e 0 0 , 0 0 0 0 0 q q ) X.@...' _ _ _ _ ) ' | K K u u K K f s q e u , u 0 O O X # @ @ # % #       # @   @ # # 0 % < , , u u s u u _ _ _ K L I _ K u f K f K K K ) _ _ _ ' ' @.X.' ' .._ f K f K u K u u u u f f u u u f K f q u g K _ s s f s e e q q q e s K g K K K K K f K K L L  .H I K K s f f L L L H f s s u e y 0 w e u f f u u k u y 0 0 e u e 0 < , # # # 0 y 0 q u u u u e , , ",
"# @ 7 # # 7 = @ # # = # @ O O O O O O O X @ O O @ @ O     O O O O   O O O @ @ @ @ # @ 0 q e 0 0 0 0 0 0 0 e u e u e f L u u K K K K K ) ) ) ..' ' =.-.-...) _ ..{ X.@.@.| ....{ ' ....| ' { ` ) ' X.#.X.#...' | ' { X.` ) f f f u f f u f u f K _ ' ' _ K _ _ ' _ _ ) f f K f e K K _ _ _ L K f _ ..' ..#.@.....@.-.X.#.#.X.-.#.#.7.#.#.X.| #.......@._ ) u f e q y 7 0 q 0 0 # @ # = , # = # # 0 = 0 y 0 q q 0 0 e y u u e e u k u u e e u u u K K f _ _ K f K K _ ) ) K K K ) K K K ) ) K K K L L L L | #.#...' } } _ K f k u f u f f K K _ K u u f f f K K K K u u K K ) K u y e 0 e e K L u u u K K K L ' ' L ' ' L K u K u e q 0 e 0 e 0 7 [ u 0 0 K e 0 = = = # , 0 0 0 0 = 0 f K ) ) u K K u e u k K K K L I I f g K K f K e e e e 0 # = , e s G K ) K K K K L _ f y u e 0 0 u ) ) ) ' #...| ) ` ' _ ' ` ` ) ) _ u u u e e y 0 e y y y y e 0 0 y y y u ) ..=.-.-.#.@.X.-...X.{ _ _ _ _ K f e e e u f f u y y y y y 0 0 0 y q 0 0 y y 0 7 = q e u y u e # y 4 7 0 # # # = # @ # # # # # = 0 0 , 0 q u q q s u f u q q e f f K L ' | } | _ } X.X.-.$.@.| | _ K K K ) K K f K K K f f f f f _ _ _ _ ' _ K I _ L K K g f K K f K L ' | ' L ) K ' ' | X.' ' ' | ' ..X.X.....@.' | | @.3.| | | _ K K K K K L K } L _ _ _ _ _ s g g K u g K f u u e < < 0 0 0 q q e q = , , 0 e _ ) f f f K K K ) ) ) _ _ _ _ _ ) K e ",
"O O O @ @ O O O O O @ X @ # # # # = # @ @ @ @ # = = # # # = = = # 0 0 q 0 0 0 0 0 q q e 0 0 0 e q u e q e K _ K K f K ) K ' ' ' _ _ ) ) _ { { K _ _ ' | ..| X...| #.#.$.#.$.#.X...| ..' _ ) K K @.$.X.K ) K u u u u K 0 u L K _ ..@.X.X...' ' X.#.@.' K f f f f f u e e e _ ..@.@.X.@.X.@.X.#.@.-.-.X.@.| #.X.| _ ..K K ) _ L K e e q q e e , q q # % = # # O O O @ # # = = 0 0 y e u u e u e e u y u k u f K u u K ) K ) K _ _ ) _ _ K f K K f K ) K ) K ) L K K _ _ { ' ) ) ' | X.' _ _ K K K f L K I Y } } I L K L K u f K K } K g e u e u u K K L K f f u u e y e u u K ) K k K u k u K K u e e u q 0 0 w e u K f f u u u q 0 w 0 e e u q y [ q # @ q 0 , 0 0 0 q e e e e q 0 0 y e e e 0 e 0 0 q u u f e s e s K e f K f s s u e e s s q q 0 s u s e q 0 % , , 0 q 0 0 e e e q q 0 0 0 0 _ q u y e u u e y y q q 0 q q e e e e u u u u ) ) ) ) ) ` _ _ ) _ _ ) ) f u e e y q 0 0 , # # 0 = 0 , # = = 0 # # = 0 # @ 7 # , , = , = , 0 0 0 0 0 q q < 0 0 0 , = # # # # = # , q 0 0 0 = # = 0 0 0 , y u f u f K L L f f u u K ..| } #.#.| X.X.| ' L L f q q q q < q q q e u 0 q e u u f _ u u _ _ e f u u K f K ' K _ _ _ ' g g | L I L K L ' ' _ e e K _ L K L ' K K _ K q K K _ K u K y e K f u K ` u _ _ 0 0 s e u u f f q , , q < q 0 0 w 0 , 0 < 0 0 0 u K K u e u u f e u K K e e e u e 0 0 w K ) K ) ` ` u 7 ",
"# # # # # # # # # = 0 7 e e e u y e 0 q e e u 0 f e e w e u u u e K f K u 0 y e u f s e e u s K K _ K e u K u e e ) ) ) ' | | _ k u K K _ ' { ' @.@.......{ @._ ` @.' ' ) ) ) K K K ^ u k ` ..{ 9.q.9.=.-.=.@...........X.' _ _ ' ' f _ _ ) K u u ) u 0 q 0 q q e e e q y K K ' K ) e y e ) u u ) u u u e e e e y 0 # 0 = 0 , @ @ # # # 0 0 0 = # = 0 0 0 u u u u u K I _ ' L X.@.X.@.@.' ......' K _ _ ) _ _ _ _ _ | { ..X.-.@.{ ..' _ K K K K K f e u u K _ f u u K f f f f f K _ K K _ _ ) ) f K f L I ' L _ ) K K K K ) ) L | } | } ' L L K ' | _ L _ K K K f u e u u u u u e u e w 0 0 e K K f u e e q e u K f K ) K K K u e e y e e k 0 y / y , # , , 0 u u u u e e 0 0 q 0 0 0 , 0 y e u e u e u e q < 0 , < s q e s e u q q q , < , < , , q 0 1 , 0 0 # @ @ = @ O @ = @ X # @ X @ = # # O X @ # 0 0 q 0 q e u y L u K _ K u ) u u u K k e e 0 = # 0 0 r 0 0 # # e 0 % 0 K q u K e u ) q ) K K e ) L K u 0 u q e @.e = K K K ) K .._ K | u u | K K _ u u ' K ' ' f _ K e K q f _ 0 q e e = = L | < % K _ # 7 # = K } g K s , 0 u s e 0 e q @ , ) e y _ f 7 @ 7 O O # 7     @ = , 0 0 X # e _ 0 0 0 q u = 0 _ 0 e u k ) y , u , = , # u L _ q     = u f e 0 K 0 , u 0   0 e u 0 X 0   @ u 0 0 e ) , ) f # 0 } ' _ | L I _ | | L ) _ L _ ' _ _ _ _ ' ' K u u u f f f u u f u u y = 0 0 7 # # @ # 0 0 0 q y q 7 7 ",
", 0 0 0 q y e y q u K K ) f e u u u u K f K K K K ' H K L f u e q q e e q , , 0 e K s K k u q q q u f 0 w e y y e K u k _ ) _ K ) { ' ) K K u e e y 0 q 0 0 0 7 0 q 0 0 y y y q u u u ) _ ..@...' ) ) K _ ) K f e e q e 0 0 = 7 = 0 0 # # 0 7 = 0 = 7 0 0 q 0 # 0 0 0 7 = 0 , 0 0 7 4 # # @ @ O @ @ @ # @ @ # # # = 0 0 e e u f K f K L _ K f u e f ) | ' ..@.| @.7.@...X...| ' L K K f u u s s f u f f u u f K u f _ K K L f K K _ ' _ _ L L L L I ' | +.@.X._ ' ` X.X.@.-.@...| X.X.X.#.@...#.#.| @.@.#.#.| @.' L L _ K _ _ f L K L L L K L u e u u u s u u q 0 , = , , 0 q f f f e q e u u ) _ _ K K ) ) ) ) K K ' ..' ....{ ) e 0 0 # 0 @ y [ K L u K e f u e u u u q , q e f K f u e e y e e f K e e e u e s K L L K L L K s e u q q 0 0 0 0 q 0 q , y K e u e u q 0 K k 0 % _ u $.| K ) _ e u u u K u e y e e q < R Y L 9.L s } Y I s H _ u K #   @ e K _ ' @.K K 0.} u u -.' ..} q e _ q ) ' ) 0 ' $.@.K 0 ) 0 y @.K = f K ' ' f -.' _ @.< 0 ' K -.` 0 = L ' -...u ..f 0 ) 7 e _ 0 u _ f 0 , L | q , K X.0 0 O   _ #.H L K 0 # e f K u 7 @ @ y { f u #.K q # k = O 7 y O O # 0 y y u = 0 K @.u q e e K = K ..0 y u f ) e 0 K y 0 0 q f _ ' f 0 o , u f f , f 0 0 f k # 0 e K f # y X , K y = 0 u y ' _ q 0 ' @.....| | ' ' L K ` ' ) _ ' { #.@.` K ) ' _ _ K ) K _ u e u _ ' K e f f e K K K K k y 0 7 0 u u u ",
"e e e u e e q q , , = , = 0 y e 0 0 e e u q q 0 < e < u s f u e e e e e e e q q u s < q , = # # 0 , = # 0 q 0 = # @ @ @ 0 0 = # # 7 q 0 q q q e e u u k ) K ) ` ) ] ) ) ) ) ) f K K k u e y q 0 8 0 7 0 7 0 7 0 q e u u e u e y e e e q w u 0 , u y e u e e u e K u K ) y ) f K ` u e f u u K e f u e K u K K e q e e # q f K 0 u K K e f q e ' K f K K u _ ' _ K u q y e ) u q f e 0 0 q 0 0 e e 7 0 e u u f f e u ' K e f u K u e _ K ) K _ _ f u K u u u u K ' _ e # f u ) ) u K K q u K 0 e f k u 0 0 @ 0 e 0 q u ) 0 ) u @ q f g K K f K f K f f u f u K K u u f K K u u K K ) u u u K u u K u y q e y y 7 = , u k K ) ) ^ u 0 @ = # = @ y [ K K e K u K f f K K f u e u f f ) u u e u e e u ) K e e u u e e e e s f K K f e e e 0 0 0 0 e u e e f w u ` K ) e f e e _ K e 0 K #.9.@.u ) _ 0 u u y K u y w q 0 e e  .q K 9.K e _ I f u K L , K 0 O O e K e K ' f u #.K , s | L _ _ # y ' u ) ) e # K ' ..u = u 7 7 9.) @ u f _ ) u @._ _ ' # 0 | u ..) = # _ ' $.' e ' u 0 K = e L # u f < # # K  .q o s ..u 0 O # g | H g g , X e e u f = O @ 0 ) K e =._ 0 O y #   # u @ @ 0 0 , 0 q @ , u _ u , q e e = u X.0 , u K f 0 0 f 0 , 0 0 u K ' u     = u f K , u 0 0 u u @ 0 0 u u 0 e # , _ q # = 0 , u y 7 @ g g q u , 0 = 0 L _ f e q y e y y e u # y u q e 0 0 0 , # # q 0 , 0 0 s s , , % # @ @ @ X O @ # # # ",
"e e e 0 0 = 0 0 e u u u u f u u 0 k s u q 0 0 0 e s f e f K u e q q , , , , , 0 0 q , 0 e e e 0 y 0 0 q y 0 = u _ L K , e 0 = 0 0 y e e e y e e 0 H I u ' K e f K K e K L u u # @ # y u f K K 0 K _ q q K ..g L f y ) e K _ _ y K | | k 0 ^ y u @.u # k _ ' _ ) -._ -._ 0 | ..' =._ 0 { ......K ' _ e K 0 e ' e f _ K 7 q _ I < e | _ # 7 O 0 | } L L e # q u K u 0 @ # e ` ) u ..) r 0 y # O q 0 O @ 7 0 y y 0 = q ` K 0 e y k q 0 { e e u ) ) u 0 K y q 0 e K ' ' f @ # e K ) e u f 0 u K 0 0 u K K , q = = ) e 0 u ) e | ) 0 u @.@.@.#.....X.#.| ' ' | ' X.@.@.#.X.{ @.{ _ ) K _ _ _ K K k ) ) K y e u q e e y e e 0 0 0 y y q y 0 u e u 0 y [ K u q L K L K f s s u w 0 0 q u K K f u K u y 0 0 e f u q q 0 = # 0 e u u u K K K K e 0 w e e e u 0 e 0 u ) u K 0 f e 0 ) ) e 0 X.3.q.X.u ' ' 0 u e 0 ) y 0 y r q I T T % e #.' f } ' u u f L   e 7 O O , K u _ ..K g #._ , q | I _ ' = u ..K ` K e = f | | K 7 ) r 0 -.K # u _ ' _ u @.L ` ' # 0 ..u -.@.0 # @.@.0.' ) ' u e ` 0 u ' 0 K _ u 0 7 | #.s o e | e 0 O o L  .Y g L q @ e f ) ) q @ # q ) _ e -.' u @ y 7 @ # ^ # @ 0 e 0 0 0 @ 0 K _ u 0 e e u 0 y @.7 q K ) K 0 e _ e 0 q 0 u K ' u # X , u f K < u , q s u # e q e K K K # , ` 0 = 7 # @ 7 # = , Y  .T Y , , e u 0 7 # @ @ @ X @ @ # O O @ @   O       O O O O O   .   @ @ O   O         O O O O O @ ",
"u f f f u e f f K K e 0 0 , , e u _ s e u K K K K L _ L _ _ K f s K e u u e e e 0 e q e K K K u f e e _ K e q ..@.$.' e ` K e u e u K e y e y q % Y Y u $.' u L | K s K ' q K q O @ u K K ' { u _ #.f 0 L | K @.e 7 ` u K ` ) 7 K @.@.f 0 K 0 0 @.K # K K ' ) ) -.K #.K = _ _ ) =.f O K | ..@.u ` K 0 ) y e _ 0 u f u = 0 ' | , 0 ' ' q 7   = I } H K e @ 0 f f K q @ @ 0 _ ) y @.` u # e 7   y r O # 0 0 y y q 0 e _ ) 0 q y k 0 7 { e 0 e f K e , f 0 0 q q u _ ' f   @ w u K e y e = e f 0 = e f f q 0 = = ) e = 0 q q ) u 0 y ' ..K K K ) K K _ _ _ ) f _ ) ) { ) u k K _ K u k k u e q w q u K u K L u u K f K u y 0 = q y y y 7 7 # 0 @ y ] L L u L g H f L K K u u w , 0 0 0 e q e e , 0 0 0 e _ ` K K K ) ) ) K K f ' ' ' ....` f 0 , = # =   # # k ) e ) 0 s u % u ) 0 0 ..@.-.#.e _ ' 0 u e 0 k y 0 e 0 0 f Y H   _ #.L e L K q f K L @ u # O   q f u ) X.) f #.K = 0 ' L K L X u ' f ) K u # K | | u = u y 0 ,.K # K _ ' K u @.K ' 9.# f ..u @.{ 0 # f ' 9.L K _ e e _ , 0 ' = f _ e 0 = ) @.s # < } q =   X g  .I s g u # e f K u 0 @ @ 0 e ) e -._ e # y 7 X @ ^ @   # 0 0 0 0   0 K _ e # q q u 0 e ..7 q K e K 0 0 _ e , 0 q f K ) q   X = e u f 0 e = q g q @ q 0 u u u 0 # # y # = 7 # @ = # = @ q < H  .s 0 0 0 # 7 = # = 0 7 7 7 7 , 0 = @ O O @   @ @ @ @ X @ X @ # O O O O O @ # = O @ @ @ @ X # ",
"f u e e y 0 e u u K K K K K u u u u u y q w , # # # , y q e u e u e 0 = 0 y u K e u e u ) ) K e f u y ) ) q 0 ..$.F...u { K q u y u ) y u q y u L 2.H 0 ....g _ | f u K L # u 7 @ @ u k u ` { f _ #.K # K | K @.e = { K ` ` u # K ....K 0 ^ y r -._ 0 u K { K K @.K #.K # _ ) _ -.K @ ) #.#.@.K { K 0 ) y u ' 0 K ) u 0 0 X.X.q , _ _ u 7   0 _ | L L f @ q K K ) e # 7 0 _ _ e -.' y # u 7 @ y u # = e e q y q 0 u _ ) e e u k e q @.y 0 K ' ) e e _ e q e e f ' ' K   = e u ) f u u 0 s K 0 y u u u K K 0 0 ' u 7 8 0 7 u 0 0 q d Y s s o # 0 e K e y u 7 7 7 7 8 0 # # 0 q = 0 0 = # # # # # = = , 0 u = # # @ X O O @ @ @ @ @ # O @ O @ O r [ L K % 0 , , , q , q 0 0 0 0 0 0 0 q f K K e e u u e u K u e y e y y = = 0 K u K ) ) k y # O # # # @ # # K ) e ` 0 u q # K _ e 0 ' | $.q.u ..L 0 e w w k 0 0 e y u u L , @ K @.g K | K e K f L X e 7 X O 0 f k K X.f u -.K , , ' L _ L o u ' ) _ _ K # e X.X.u 0 ) u y ,.K # K ) _ K e ' f X.,.# f #.f ,...e = u ' -.K ' _ 0 K ) 0 0 ' 0 K | s u = u 9.I % , L K 0     e #.} g K K e 0 f K u 0 @ @ 0 y ) e ..' u = u 0 @ # ] 4 @ = 0 q q 0 O 0 K ) 0 # y q e 0 y @.0 e ) e K y 0 f u 0 u u f ' ' e o @ 0 u u u < u # < H q # 0 e f u u 0 # # 0 0 7 7 7 # 7 # 0 = s 0 0 e e e e u y y 0 0 0 e y 0 0 0 0 q 0 7 = # 7 = 7 7 7 0 0 0 7 y u = # = = 0 0 0 y e y 0 0 0 0 0 ",
"K K K f u e q q e u e y e q , = = 0 f K f u u u u u K ` K K _ _ _ _ K f e y 0 y 0 0 = y k u K 0 e u = u k 0 0 _ @.-.' e ' f 0 u 0 e u 7 e 0 y e Y | < 0 @.' s K L u e f K @ e 7 @ @ 0 k f ' { u L @.u @ u X.f ' 0 # | ) _ ) u # f ' | K 7 k y 0 @.) 0 K _ ..f f @.f #.{ = L K _ ,.u X u | 3...f ' u e ` y q ' 0 K ` u 0 7 ..| g # K L q #   0 | | L L f = 0 u K K u 7 7 q u ) u -.| e # u 7 X 0 u # # 0 e 0 y 7 # u ` K 0 0 e k y q ..y 0 ) K K q y _ u 0 e q u K _ e O # 0 e ) e e e , s K , 0 u u u u e 0 = k 0 7 0 # @ 7 # 7 q I I Y 3.s e u u 0 # = # # = # # 7 7 # # @ O @ @ @ O # @ @ O @ O O @ O O O O O @ @ = @ @ @ @ @ @ 7 O # # # O y [ _ L f ' L K K _ ) ' ' _ ' _ ' ' _ f K u K K f k K K ) K e 7 q y 0 0 = = 0 0 7 0 0 r 0 0 q 0 y u u r u y K ) u _ 0 u e 0 K ` e # _ _ @.q.u | @.0 u 0 0 u 0 0 y y f y u q o K @.K f ' K u _ f K @ u 7 X   0 K K K #.f u ..) , = } L _ ) # f ' f _ _ y @ e ..| u 7 K y u q.) # e _ ..) k ..f ..,.# K #.u =.{ u # u | 7.K { f 0 ` K 0 7 ' , u ' s u # ) =._ < # _ _ e O   f | } H H K e # u K u q @ @ = e ) 0 | ..f # y 0   # k # @ # 0 0 0 0   0 ) _ 0 O 0 0 q 0 e { 0 0 e q u 0 0 f f 0 e 0 u _ _ e @   , u f u 0 f = < K 0 X = e f e e q 0 0 f e = = 0 = = @ 7 # q e , 0 0 e u u u u u e e u y y q 0 0 0 0 7 0 7 0 = = 7 7 0 0 y 0 u K w q y 0 y 0 0 e K u e e k K K ",
"u q 0 0 , # # # = , e u u e w e e u u K K K u f f u u e e K ` ) ) { ` u = @ @ # @ @ O u _ u ) 0 u u , f ) e 0 ) | 7.#.e @.K q u y u k 0 u 0 y e H K # u #._ u L L u K f _ # e 0 @ @ 0 K K ` { u _ X.u @ u X.s ..0 0 ' ) K _ K 0 e ..@.f 0 ) u e -._ 0 K ) ..K f ..f q.=.4 | ) _ :.) # k ' 9.| ) ' u u ` e 0 { 0 K ' u e 7 ) @.K # u | u q   4 |  .L K K e q u _ u e # # 0 u K u @.' u = k 0 @ 0 ~ 4 # 0 y q e 0 # u { k 0 q e k y q @.e y _ u ) e q ) u 0 e u ) ' ' e   0 e u ) u e e 0 K H , 0 e f K K e , # e 7 7 0 7 = 0 = q q < , , _ f e 0 y y y 0 0 y u e 0 y q y e q = # 7 7 = 0 7 0 7 7 7 7 y 0 # # # 7 7 0 y 7 0 0 = 0 7 0 @ 7 0 = @ y [ | ..I | I _ { ` _ ' ..` =.) ) K ` _ _ K ) K _ u 0 e K ) K u K K e K L K e u 0 0 # 0 w y 0 7 # = = @ @ # K K e ) , e K u _ ` e 0 ) ' #.0.e @.#.q u 0 0 e 0 0 u u K 0 0 f @ K #.L 0 f f e K u e   e 0 o   , u e _ -.K u @.K , 0 ..K _ _ # K _ K ` _ u X e ....u = ) u ) q.` # 0 _ =.{ _ :.K ....0 ) @.K =._ k   u @.9.K ..e 0 ..K 0 0 ..0 u | f q # u @.L q o K K e O o s | } s K L K # e K u e @ @ 7 e ) e _ =.u # y 0 @ 4 ) # # 7 e y 0 e @ 0 K _ e # y q q = w ) = 0 u q ) e 0 u k 0 0 q f _ _ u @   0 K ) K q K 0 q s < . # e e e e e , , f k 7 = 0 # = # 0 = 0 e 0 y 0 e e y e K K k K K u e u y y y y = 0 0 q 7 7 0 0 0 y q 0 e K e 0 0 = = # # , e 0 0 u e f e ",
"u e K K f f K K K u u u f u u u u e u u u w 0 y 0 0 # # # 0 y y e y y 0 7 7 0 y 0 y 0 u K e ` y u e , f ) y # K _ #.$.u @.K 0 u 0 y u , u 0 u u e u X f ..L s ' K e ) f ) @ e 0 @ O 0 K u _ ..u ) ..K # f ..f | e 0 _ K ) ' _ 0 e ' X.u 0 ) u e 9.) 7 u K ..u k { f q.{ 0 ..` _ -._ = u ' 7._ ` ` q K _ e 0 ' 0 K ' f f 0 u -.L o q X.y 7   # L +.I L L K 0 q _ u e 7 # 7 e ) e ..@.f = u 0 @ 7 ^ 7 # 0 0 q y 0 # u ' u = 0 q e 0 0 ..e q f y f e q f u 0 e q u _ _ q O # 0 u K e u e # f f , = e K K u y 0 = e e 0 0 q 7 7 # 7 0 u K < u y K K K k u e y e u e y y 0 0 y y 0 0 q 0 0 q 7 y y y e y ) e 7 y y u e y u k k e e k u k 0 0 = 0 , 0 [ 0 0 # f L _ f e y e y y u y y 0 K = u y y 0 , = # = 0 , 0 , u u % , # X X   O O O @   # X O     O     0 _ _ e f # 0 f ) { ` q # ) K X.9.K 9.@.0 e 0 0 u 0 0 e y K y < L # u #._ 5 f L K f q u X e e #   # e K _ -._ f #.K , , ' K _ _ @ ) ) u ` _ e o e ' ' K 0 _ u k ,._ = u ) @.' ` X.f ..@.q ) @.) =.' u   u ..#.K ..e 0 { u y 0 ..0 ) #.H e   q -.| s # u u w   X u } } g _ I K # y k u u # X 7 e ) u ) :.K = q 0 O # ^ @ @ 7 e y 0 y @ 0 f ) u # e 0 w , u ` 7 0 e < ) e , u u < 0 q u K _ u O   0 u u e , u e u e e @ # e K 0 u y , = e K 0 0 y = 0 # # = u u q y 0 0 w 0 0 0 y q w y 0 7 0 0 0 0 y 0 q q y y q u u u u e y q y 0 = = = = # # 0 q w u e e s e ",
"_ _ ....X.....' ' _ ) ) K _ ' ) u e K _ ) u e u e u f K K k e q 0 y u u u q 0 y 0 0 # y _ u _ e e u e K ` e , K ' #.-.u $.' q k 0 y u 0 e e K u = f 7 u ..' u g K u K f K @ e 0 # O q K u ) -.u ) ' q , f | K ..e 0 ..K ) _ K 7 0 ' @.K 0 ) u K ,.` 0 K ' -._ ` @.f ,._ 0 X._ ` =.K # 0 ' D._ _ ) 0 ' ) e 0 ' y u ..f e # ) q.} , 0 | _ 0 O @ _ +.L K L K q 0 ) f k 7 @ 0 e ) e _ =.u = e q @ 0 Q # # q e y y 0 # u ' K 0 0 q u 0 q _ y 0 u y K u w K ) y e e K ' ' e   # u _ _ K f u = u f % # e u u k e e 7 k K 0 7 y 7 7 # 0 0 0 u 0 y 0 e u e u K K k k k u e u y q q 0 7 0 r 0 7 0 8 0 y y q e _ k e y q r 7 0 y k e e u K K K y u e k e 8 [ < 0 0 u 0 0 = @ @ @ @ @ # @ O O @ @ O O     X O O       O O @ X     O O O     O O O O @ # O @ @ @   O 0 _ K e K , s ' _ _ ` 0 # K f ' -.e 5.@.= e 0 0 u 0 0 u e ) y 0 e u f X.| % s ' K f 0 u # f K #   = u u K $._ e -.y 0 , _ K ' ` , ' _ u { _ u # u _ ' e # _ u u q.' , _ _ | _ ..X.K ..{ 0 ..@.K =...) @ u _ @._ ..e , ' f e y | s ' #.L e   # ' | K < q u 0   @ q | | K } I K = q K K k # @ 7 u ) ) u =.f = 0 0 O @ k @ # 7 e y 0 # O , u ) u = 0 0 e 7 u _ 7 0 u 0 K u 0 u u , 0 0 u _ _ s O O # K K K 0 e e e q u # # q f 0 u q # # q u = y k w y @ # = f k q y 0 0 0 0 7 , = , , 0 # = , 0 = # = # = 7 = = # 7 7 = 7 7 = 0 0 0 0 0 0 0 0 0 u L _ _ ' ..} } ",
"u u u ) u ) e y e ) K e q 0 q q 0 , 0 e q e u L u q q 0 , # # # @ # = 0 # @ X # @ @   u ) u K 0 0 u K ` _ e 7 K _ #.9.e 9.| 0 e 0 e u 7 e e f u # K q 0 | | q e K s K u u @ e y # O = u f ) -.f _ | u = u ..u ..0 0 ' e ` ` K = 7 _ ..K 0 ) k ) ,.` 7 e _ =.) { ..f -.) 0 @._ ' @.) # , ..q._ ` ) , ' ) e 0 | q K #.K e X k @._ 0 , K K 7 O @ f X.L L I L q 0 ) u u 7 @ 0 e ) u ) -.K , e q @ q u 4 # r u y e 0 @ e _ K q 0 e u = e ) y 0 K q K f 0 f K 0 q e K ` _ e O # e K ) e e u u g u 0 # e K e k e e , u ) q 0 y = y # 7 y u u e u e u u u u u k k k K k e k u u K u q y e u e u k u u u y y u y 0 0 0 0 7 7 0 y 0 e e e u e , y # 0 0 9 [ s q , e # 7 # # = 0 0 7 0 7 7 7 # O O @ @ @ # @ # @ @ @ # 7 # O O O # @ 7 0 # 7 # # # # = @ = , # O O # ' ) u f , L #._ _ u , # K f _ =.u -...e e q 0 u = 0 u u k q = = _ K | ' < g _ K f , u # e e #   @ y u K @._ e @.u q 0 ' L X...q { K e { ) q # K @.X.f # ) k K ,...y ' { ..` ..@.| ..) 0 ` X.f @.@.` @ q ' #.' ..f , ` u e q } s ' #.L f o @ K | K , # e e O   0 I +.L _ L K 0 q u u u # O # 0 _ ) 0 X.K 0 0 y # # u @ # = e w 0 # @ 0 u ) u , 0 q u # u _ 0 0 u 0 u e 0 e e , 0 0 e ) ' u O   = u K u y u q e 0 u = # e K y K u # = 0 e # q u = e # # 0 u u y u e e e y e e e e u e e u e e e 0 y 0 0 0 0 0 0 0 = # # o @ o @ # , q u u e e q u s q u q 0 e ",
"= = # # # 7 # @ # 7 0 @ O O X @ @ @ @ @ @ @ # = @ @ @ O   O O @ @ @ @ @ # @ X # O @ O f _ u f 0 w K ) ` ` e # ) f ..#.e 9.| 0 e 0 w u # u y k k 0 e e q ' X.0 u ' K f q K # u K = O = y K ` 9.K K X.q 0 f ..u ..e q ..u ` ` f = q ) | K 0 ) u u ,.' 0 K _ @._ @.{ f @.) 0 .._ | X.{ y # _ -.' ..L = ) ) e q X.s ' 9._ u @ q @.X.s q u _ 0 O @ f X._ _ } L y 0 ) K K 0 @ 0 u ) ) u -.) 0 q 0 @ 9 Q # = 0 u y 0 0 = u ) K y q 0 u 0 e ` y 0 f q u K 0 u u 0 0 q u _ _ e O # y K _ e e e e e f y # 0 K e u u 0 = y ) q y k 0 u # = y u u 0 y 0 0 7 0 = = 7 = 0 0 = # = # # 0 0 7 0 q r 0 r e e e e q e e e q q q 0 7 0 e K K K K _ _ ' K _ K _ f 8 ( e y 0 u 0 w 0 0 q e q 0 0 0 0 y 0 = # 7 7 7 7 7 0 0 0 0 0 u 0 # 0 0 q 0 y u u u 0 y e e e = = = 0 = = = K _ e e , _ @.' _ K = # K u _ ..) #._ 0 e 0 w u # 0 k K e 0 0 # K L _ _ q s L L K e e # 0 e #   @ y K ) 7.' u ..y q , _ K @.@.y ..K e ..' u # q K #.K @ ) u K q._ q _ ` ..K ) ' K ' ) e #.| e =.@.` X 0 X.X._ X.K 0 _ u u e L s ' @.L f 0 , g I K e # u e O   0 K X.L L f f = 0 u K u # O # q _ ' q @._ u @ e # # k @ = # e 0 0 # # # f ' u , 0 0 u 7 u _ e e u q u u 0 u q 0 0 , u ) _ e     # k y y 0 0 7 e 0 y # # u K e u u , # 0 y @ 0 u # ) y @ 0 e e , q 0 0 0 0 0 0 0 0 0 = 0 0 # # q 0 e K ) _ K K f u u u u u u e e u e K K K e 0 = # # # @ # # @ ",
"# # = = = 7 = = = @ O @ @ @ # @ @ @ @ @ @ @ # @ @ O @ @ # 7 @ # # @ @ @ = @ # 0 @ @ @ K _ u K 0 s | _ ) ) 0 # K u _ @.f -._ = e q y y # u e k u 0 0 f K _ X.0 e ' K f q u , u u = O @ y e K #.f K ..0 0 K ..K ' u u ..e _ _ u = e ' X.K = ) K K 9.' y ' ' ..' =.@._ ..) q @.K _ @.) = # _ -.' .._ 0 ) K u q _ g _ #.) f @ # K | f 0 , K 0 O @ K X.| L _ _ y 0 u f K 0 @ 7 u ) _ q X.K 0 0 y # 7 u # = r e e 0 7 # e ) K e 0 0 u q q _ e 0 f e u K 0 u e 0 y q f _ ' u O # 0 k ) u u e u 0 u y @ y K e K K 0 = w K 0 y ) q u # # e f K u ) k u u u u u y u u u e u u u e y 0 0 0 7 = = 0 7 # # # @ # = = , q e y y y e K ) _ ' _ L L u e q e 0 0 [ e u u k e k e e e u y y q 0 0 0 7 7 7 0 0 = 7 7 0 0 y q e ) e 0 y 0 0 , , e K e q u K K u 0 e e u e y , ` _ e u 0 K #.{ ) K = , K u K _ @...K = y q 0 e # y ) K u , 0 # u ' _ K < u K L K q K 0 = 0 # O = u K _ 9.' e @.e q q L K ..) y ..K q | ' u # y ' X.u @ u y ) ,._ q ) _ ..K K @.} ' u e -.' u -.@.{ X 0 @.X.K X.K u _ 0 f K s u _ @.K e q 0 L ' ' u @ y e @   , f | K L K f # # y ) u = O @ 0 ) _ , X.' u @ 7 O   u @ # # e q q 0 # # f ' u , 0 0 0 7 u K 0 0 u e u e q 0 e 0 , q e L ' e #   # K , , e 0 # e 0 y # = u K e u K 0 @ e e @ 0 u # K r O 0 e u q u y u e w 0 y 0 q y u u K f u K ' ' ' ' _ L K f f ) ) _ ' ' ` ' _ y 0 0 = # # @ # @ @ @ @ @ @ ",
"7 q y y 0 q q y y 7 # # 7 = 7 7 7 0 7 0 0 y y = 7 = 0 0 0 e q e 0 0 q q 0 7 = 0 # 0 X ) ' f f 0 f #.' ` ) 0 = u u ) { K $.L 0 e 0 e y = u u u e 0 # u _ L | u e _ L K q f , q e 7 O # e K ) -.u K ..0 e e ..K -.u K ..q ` ` K 0 y K -._ 7 ) k k -.' q ' ' @.K ' ' K { K u #.K _ @.) 7 # ) #.| ..` 0 ) f u e L H ' #._ f 0 # K _ K q 7 ) 0 O 0 f X.| L L ) e 7 u k K 0 @ 7 y ) ' e .._ y = e = 0 k # = 7 e e 0 = # e ) ) e 0 0 u y e { u e u e e f q u e 0 e q u _ _ e   # u k u e e y e e u y @ y ) u u u 0 = q u # 0 K = K y # e e u 0 e w 0 q w q e y y y 0 y e 0 0 w 0 e u K K f f u u y u y q 0 0 q y u K K f e 0 0 0 0 0 0 0 , # #   @ @ r ] e w 0 u e K k k K K e u u e y e 0 7 0 q 0 0 0 y q y y 0 q f e 7 7 = = # = 0 0 0 0 u e e u < 0 , 0 , 0 , ` ` u f u _ #.` K u = = u u u u =.@.' , e y 0 e # y K u q = = @ u _ | K , s L K f q K y = 0 @ O @ K _ ) $.L u #.e q s ' L @._ e _ u u .._ e @ q _ ..u 7 u 8 k :.@.0 ) _ @.K K @.X.| e y ' _ e -.=.{ 0 # @.@.K ..K K ) , _ L < K | $._ e q 0 K K | f @ w u     # K L K L K f = # e { K 0 O @ 0 ' { e X.@.K 0 7 O @ k X @ # y e q q # # e _ u , 0 q e = e ) q q e f K u 0 0 u 0 , e s K _ e #   0 K , w u y # q 0 q # # e _ u 0 K = X q 0 O y u @ u 0 O 7 e u 0 e e u u e u y e e K ) ' @.-.-.-.@.{ ) K u u u K u 0 0 y e e e e 0 = = = = # # # = # # # # @ # ",
"q e u y 0 0 0 0 q 0 0 0 0 0 0 7 0 0 y y q f u 0 0 w e y 0 y K u e e k K K y 0 e 0 k = u ` f u q _ #.' _ K 0 0 K u ) ` { ..u 0 e 0 y y = k k u y 0 = q _ _ K e q L L K u f 0 0 e = O = u K _ q.K ) X.0 e e ' K -.u f @.q _ ' K 0 0 _ #.K # u e K 9.' = ) _ ..u ` | _ _ u f 9.u _ -.@.q # K -._ ' ` u ) u u K g s _ @._ s y 0 L ' _ u # K 0   0 e | ' K K K q # y ) K y # 7 e K { 0 ..' e # r @ = u # = 0 e y 0 q # q _ _ u 0 q e 0 y ` u e u e u u e e e 0 0 e f _ ` y   @ 0 K 0 y e 7 y y u 0 # e ) f u K y # q u = 0 K = ) y @ e u K e K u u e e y u e e y 0 e u y e K K _ ` ..' _ _ K _ ) _ ' ' ' _ ' K e e e q 0 = # # # @ @ # # # = @ @ @ y [ 0 0 0 y 0 y y y y e 0 0 q 0 0 q q 0 y y y q e u u u u y y e w 7 7 7 7 # # y e e f f K K K K K K L s k 0 ` _ e u e @.X._ u e = 7 e y 0 y @.:.X.e y y 0 u # y K u e 7 = O u K ' K q s L u f q K e # , X O @ K K K #.' u ..0 e K X.L ..{ 0 ..u u .._ K @ q _ | K 7 u 4 ) ,.k 0 ) _ | u ) #. .| q 0 ..K e -...` 0 # | X.K X.K K _ <  .} , L @.@.L u e , K 0 K K = e e @   # e u e L K u = @ 0 _ u 0 O @ 0 K X.q X.@.) y = O @ ) = # @ y q 0 w 7 # u ' K 0 , 0 f # y ) y 0 w u K u 0 0 e 0 0 e u _ ' K     = K = , e e = e 0 0 @ @ 0 ' f 0 K # # < , O 0 0 # K 0 @ 0 ) ` _ ..X.9.#.$.#.| ' @.:.q.-.@..._ K u e 0 , , , , 0 0 # # , 0 0 0 0 0 7 = , = = # # @ @ @ @ O O # ",
"k u k y y e q q q 7 7 0 0 7 7 0 0 7 q 0 q u K e q 0 0 = 7 0 e q y u u K e q q e 0 u = k ` K u e K #.' ) k 0 0 u u f K =...K 0 e 0 y y # k k u 0 0 # = K | ` e e L K K e K e 0 0 # @ # K _ ' -.u K .., u f | K 9.u u ' 0 _ ' K 0 = K ..K 7 y r k -.@.y ) ` @.K _ @.| _ e K 9.u _ -.@.q = K @._ ' ' f _ e K _ q K | #._ u y 0 L ' ' u @ u q @ @ y } I K L K y = 0 ` ) q @ # q u @., X.X.K 0 7 O # u @ # 0 e e e y # 0 K ) e 0 e e q q ) u 0 e u K f e y u 0 0 u f _ _ e   @ , K , e u 0 0 0 u 0 @ e _ K y K q # e u # q u # k y @ u e e , e 0 e e q y 0 0 q u _ K _ ` #.-.=.=.' _ K K K ) f u u K K K K u e 0 0 0 7 7 = 7 7 = = 7 = = , 0 # = = 8 [ 0 0 # 0 # = # 7 , 0 # = 0 7 # = = = 0 7 = # 7 7 # # = # = , , 0 0 q 0 0 0 e I _ ' ' ' } _ K K u u q e 0 ` K u u e X...' K u = 0 q e q 0 ' -.,.u y 0 0 u = e K u y 0 0 O 0 K ` K < s K e K e f 0 = 0 @ O # e e e @...u X., q K | L ' ' 0 X.f e ..L q X # K | u = y # y @.) r ) _ ..e K #._ | u u #.L e #.' ' o , ) | q X.K K ' q @.| , k @...K q u 0 L = K K # 0 e @   e u 0 q K K u 0 # 0 ) K q O @ 0 ` | # ' ..) e = O @ k @ @ @ 0 e q y q # u _ K e , 0 f # q K 0 q y u K e 0 e e , , u f L ' K O   # u @ # , y 7 u e e # @ u ' u , H o , q 0 7 k y = k 0 # 7 e e u u u f k K _ ' -.{ @.' ) K u e e e u e q 0 0 , 0 0 q q 0 0 0 0 # = # = 0 , , 0 0 0 0 = 0 = # 0 ",
"e u k e y e e y u y 0 y y y q u u u u u y q e 0 7 = 7 = # , y e e e u K u e e u e s , K _ K u 0 K X._ u e 0 0 e e y e { ,.' 0 u y e e 7 u k u 0 0 # = u ' _ u s _ e K e f u = 0 # @ # ) K K -.f K ' = K K X.K 9.e u ' 0 _ ' K q @ K ..) 7 u 0 r :.) q ) _ ..u _ #.| _ 7 u #.e _ =.@.y # e @.) ' ' f ' q K | q K X.$._ u e q K e ' f = k y @ @ = f f K _ f e # 0 ) ) y @ # 0 k @.0 X.-._ y 7 O 4 k = 7 7 e e e y 7 0 K _ u = q f q 0 ) k u e k ) K e y u e 0 u K ' ' u #   q K 7 u u y y y u 0 @ 0 _ _ y K 0 @ q q @ 0 y = k y = u K _ K ..| ..@.@.@.| K ..-.q.9.:.-.@.' K k e e e e e e w 0 0 0 q 0 q y 0 0 0 0 7 0 7 = # # # # @ 0 e e , q 0 4 [ e e y u w u y e e e e u e u e q w y y 0 0 0 0 = # # # # # # , , e K f e y 0 e w e e y 0 , , @ # X O @ 0 ` K e q q ..X._ u q @ 7 q y 0 0 ) @.q.' e 0 0 u , e K u e y 0 @ 7 K | ' 0 u K e L e s q , 0 X O = u K K ..| e X.0 e K _ _ ..{ 7 X.f e @.K u # 4 ) @._ = u 7 q @.) @ f _ @.e f #.K I e u @._ u -._ ) w @ K ' , } K e L 7 O.| # u #.@._ y ) 0 K # ) _ = 0 f @   , e 0 e K K f q 0 0 ) K 0 @ # e ) ` = ' @.' u 7 @ @ u O @ @ = 0 0 e e # u _ K e = 0 u # 0 u w e 0 u ` u u ' e , 0 f K ' ' K O   = K = 0 q e # y e K 0 O q ..f < s X o 0 0 7 0 # # y , @ u  .#.' #.#.9.9.#.@.{ _ e y 0 0 7 = # # = 7 # = , = # # # # = , , , = = = = # @ = 0 e K K e K K u u f ",
"# 7 = @ # = # # = 7 7 0 0 0 0 q 0 0 0 0 0 0 0 0 0 0 q 0 0 q L ) _ ' | } ' _ K K u K e ) ` K u 0 K X.' K u 0 7 y e q y ) ,.@.e e q e e = u k u y 0 # # u ) ` e q _ u K u f u # 0 @ @ # u e _ #._ K ' # K L ..K #.u K ..0 _ ' f 0 @ K ' ) 7 y 7 u @.` e ) _ ..e _ #.} | y ) #.u ) @.@.K # e @.f _ ' K ..u ' @., e @.X.L u u e K , _ K = u q @ # u 0 e u _ f e = # K K e # @ 0 u @.q ' ..) u 7 @ 7 u # @ 7 y e e e 0 0 K _ K 0 e u q 7 ) u e q u ) u 0 u e 0 0 u K _ ' 0 X O 0 u @ 0 y 0 y e f 0 O 0 L _ 0 K 0 = e e 7 e e 7 k y # e e u e K f L _ ' ....@.q.{ -.{ ` _ u f e y y q 0 0 0 0 0 0 q q q q 0 0 7 7 0 0 0 0 0 0 = # # = # 0 K L u L f 4 [ 0 , # 0 , q 0 0 0 0 0 0 # , q q u L _ L L K f k u f K K f f f u u f u e 0 # # @ X O @ @ @ X O O O   O # ` K u e y ..@._ u e @ 7 q q 0 # K ..q._ u , 0 y @ e k e y 0 0 X = ) X._ 0 u K q ) e e y 0 # O O = f _ ' @.| e ..q e K K _ | ..w @.s s @.| f # # e #.K 7 K 0 0 =.) @ u ` -.u K 5.H ' u u .._ u -.k ' q X K ' q ' u e _ 0 @.X., e _ @.' 0 ` u K = ) ' q 0 u @   0 f 0 u _ K u 0 # 0 _ ) y @ @ 0 _ ' 0 ..X._ q = O @ u O @ @ # 0 e e w @ u ) K e , 0 u = 0 k e e e k ..e e I 0 , 0 K K ' ..y     = K 0 e u e # y 0 K 7 O q | f 0 s X X 0 y = # @ O 0 e 0 u $.-.7.9.@.#.@._ K K u 0 0 0 0 0 7 0 0 0 0 = = = # # # # # # 7 = = = = # # X # e e e y e e u y y e y ",
"e e e e e u u y q 0 0 0 0 , , 0 = @ @ @ # # # = q u u e e w u u q e q u e 0 q 0 # 0 @ k ) u u < K ..' K e = 7 q e 0 0 _ :.@.) e 0 e e 0 u k u e y = # e _ | e q _ u K e e u 0 0 # @ 7 k u K @._ K ' , f L | ) -.u u X.0 } ..K 0 @ u ..' 0 u 0 u ;.) @ K ` @.e K @.K ' e K #.K ` @.' k @ y ..u K _ u ` e _ @.7 y ..#._ e ) q K = ` K = y e @ # K q y u ` K u 0 = k ) u = @ y ) { 0 _ #.) u 0 @ = u @ # 7 0 e e e 0 0 ) _ K y 0 e y = k e u e u ' k e ) e 0 q K K ' ' 0 @ O y k # y e q q e K u # 0 I } 0 L , @ 0 e 0 u r 7 k 0 = u X...` @...@.X...{ ' { ` K u u q 0 0 0 y q q 0 0 0 0 0 0 0 0 y 0 0 7 7 = 7 , 0 y e u K e u u u e K _ ' K L K 7 [ y e 0 e 0 y 0 e y e u f u K K ' { | ' _ L K K K ) ) ` _ _ _ ) e 0 , = # # @ # # # @ @ @ # = = # # X # = _ K e 0 u =.@.) u , o 0 q q 0 # f { ,...f 0 e e @ 0 e y y 0 0 @ 7 u X.' 0 q K q ) e e e q = O X = u _ ' ....e ..e 0 K L ....' 0 #.K s  .| u # # u X.u # e 7 7 -.) = k _ #.f L 5.L ' k f | _ y @.u _ e @ _ | u | f e ' e | | , e X.$.K 0 _ f e # u _ y = K @   , f 0 e K K f q # 0 ) K e @ O 0 ) { e ..#._ u # @ @ u O @ O # 0 e u e @ e ) K e 0 0 k = # u e q y e L 0 u L , , 7 e K L L k O   # e 0 e e e @ 0 0 K 7 @ u _ 0 , e O X e e 7 # @ @ 0 u u y  .| X.#._ ' ) ) f f u e y r 0 q q q q 0 0 0 = 7 7 = # # # # 0 7 # # = # # # , y 0 7 = , 0 0 # 0 q 0 ",
"y 0 0 q q 0 7 0 0 u K K K K f u u e e e e e e e u K K f e 0 = # # # # # # @ O @ O @ O u ) u u 0 _ X.` K e = 0 y y q , _ @.9.K u 0 e 0 = k k e y y = # e { @.u q _ e K u e e < 0 @ @ 0 K _ ' @._ u | q f K _ K -.u K X.0 | #._ q # e ....q ^ y 0 =.) # u ` #.f L 3.g ' y K @.f _ @.K ) # y #.u K _ y _ e K +., q _ #.K q _ u K # _ _ 0 y u @ @ u u e K ' f u 0 = K _ K 7 @ 0 K { 0 _ #.' K 0 @ # u X # # 0 e e e 0 0 K _ K y w u y # u u u e u ..K e ' e 0 q K L ....e @ O 0 ) 7 k u y 7 0 K u # = s | 0 L 0 O 0 u 0 7 # @ q y 7 f 9.9.9.F.9.9.9.#.' _ ) q 0 0 0 0 0 0 0 7 0 7 = 0 7 = = = # = 0 0 0 7 7 7 = # 0 e u u u u K u u u u u u 0 u q 7 / u e 0 y u q 0 e K K ' =.#.-.-.@.{ K K f u u u e 0 w e w 0 y 0 = = , = = # # = # # # # @ = 0 0 = 0 , , 0 _ K q 0 0 ..@.) u # # q y q 0 # u ' ,.=.K 0 e u @ e u e q 7 0 @ 7 _ @._ 0 q K 0 f q e u q = O @ # u ) _ _ _ e | s 0 f _ X.| ' = @.K e  .} K @ @ u | e = K 0 7 =.{ # u K ..K _ 3.L ' ) f _ K 0 ..e K K O ) _ q ' f e _ e _ | , 0 X.9._ q _ K e 0 q L q o e @   0 u # 0 K f u 0 # 7 u K e @ O = u _ q | @._ e = @ @ e   7 , @ 0 e u e # q K ) e 0 0 K # 4 f u e e u _ e u L 0 0 = u _ L L u @   # K e K u u # 0 q K , # 0 L w 0 u O X w y 7 = @ @ 0 u e 7 e e e f 0 0 0 0 0 0 0 0 0 0 0 0 y q q q q q 0 0 0 , = = 0 u ) K K u e e y y y = # # # @ @ # # # = 0 ",
"y 0 0 e e y u f ) ) ' ' _ K K K ) _ _ ' _ ' ' K q 0 0 0 7 # # # # # # # # , # 7 @ # @ u ) u u q ' #._ f 0 # 0 q 0 q 7 f ..:.' u 0 u q # e u e y q 0 # ) { X.f 0 K e K u e e q 0 @ @ 7 f ) ' @.' f | w u K ' _ #.u K @.0 } #.u 0 @ u ' _ 7 y w 0 -.` 7 ^ ` #.f _ 5.L ..u ) @.f ) ..e ' # 0 ..K _ _ e ` K L @.y 0 ..#.K 0 _ K u = K _ y q u @ @ e e y K ' K f , 7 K _ K 0 O q ) ..u | #._ e 7 @ = u X # # 0 e u u y = K ) K q y u e @ u e u e u ' u e L q 0 0 e K ' ' y @ O 7 K 0 u e q 7 0 u u # 0 K H # L < @ q k 0 = # @ 0 u e u 3.X.X.9.| ' .._ f f k e e e q q y y e y q 0 0 0 7 = = # 7 0 0 0 7 7 7 # # 0 u u y q y y 0 7 0 0 0 7 0 @ # = 8 ^ | $.| @.@..._ =.,.q.-.@...) K u y 0 0 , , 0 0 = = = 0 0 0 q 0 7 = , = = # # # @ @ @ @ X 0 f f e K u K e ) K e 0 0 #.@.K e = # y y q 0 # y K @.@.f # q u # u u y 0 0 0 # 0 ) @._ 0 < u , u , w e e = O O = u ) _ _ ' u ' K 0 e _ $.3.| 7 @.L s +. .K X # e @.K = ) y 7 { { y K k ..f I #.f K y K _ K 0 { 0 u e   K _ u ' k e ' u _ | e = ' 9.L , _ K u e 0 K e @ u #   0 K 0 y ) f u w @ = u K u @ O 7 u ' q _ ` f u , @ @ 0 O 0 q O 0 q e e = 0 K _ q e q u # 0 K k e e u _ e < L 0 0 w q K L _ y # . @ y 0 K f u # q u _ , @ , K e q q O # e e 0 @ @ @ 0 e e = , 0 , q 0 q 0 , = 0 = = # # # # # = = # = 7 0 0 , , # # 0 k y q f e e u e e e q y e 0 0 = , , = # = ",
"0 e _ ) _ ..@.#.=...) K K f K f e q e e e e e q 0 0 0 = 7 7 7 = # # # # = w 0 0 # 0 # u K u e 0 ` #.` u 0 # q e q 0 7 u { -...u 0 u y = e u y 0 0 7 # u X.' e = K q u u e e e 0 @ # # f ` _ ' _ u | e e K ..| #.e K #.q ' @.K 0 @ e ' K 7 u y 7 { { 7 u K @.K } $.K ' u K ' u u ..0 ` # # ..s K _ q ) K K X.y 0 _ 9.' e _ K u 0 e K y = u @ @ e e , u _ u e 0 = u K u 0 O 7 u ' e ' -._ u 7 @ # u @ 7 # = e u u y # k _ K 0 y u u @ u u u y u _ u e ' e 0 0 f _ _ L u # O 0 K e ) K y 7 y u f = 0 K K # I < @ y k 0 = 7 # y u u 0 ) K f ' ) K K u u u u e y q y y e y y q y 0 0 0 y 0 0 = q u k u u e e q q e 0 = # 0 = = 7 0 0 y e y u 0 e 0 0 ~ e f e ) ) | #.@.{ ' ) K u e e e e e q 0 0 0 0 q q 0 0 0 0 = # # = 0 0 0 0 e e 0 0 q 0 , e _ _ L I f L u K u y 0 q #.#.K y # # 0 y q 7 # q K ..#.u # y u @ u u 0 = 0 0 @ 0 k ..' < , e 0 e 0 q q e 0     = e K _ ) ' u ..L q u _ @.3.@.u @.L e  .+.e @ # u { e @ u 8 4 { { e f k ..f L 5.K K u _ _ K 0 ' 0 e e X K _ e ' K q _ K K | e = ' 3.' 0 K ) y u 0 K u # u =   0 K 0 0 _ K u e # = u f u # O 0 u ` y K ) u u 0 @ # 0   = 0 O 0 y y y # 0 K ) q u u u @ # k e u e e K q 0 _ 0 # 0 , K L L e X   # 0 0 K e u 7 0 q K # X q I e 0 w   # y e 7 # @ @ 0 e u q f ) K ) ) ` _ _ u ) u q y 0 , # = # X @ X @ # @ @ @       @ @ . # @ # # # # @ # = 0 0 0 y y y y q y ",
"' @.q.-.-...' K k e q 0 0 0 q 0 7 7 0 q 0 0 q 0 0 0 , = = 7 # # # # # @ , u e e u f u K K u e = ' #.) u 0 = y y y 0 = e ) -.@.u = e y 7 u u y q 0 7 # u =.' f = f q e q 0 u e 0 @ @ # k ` ) { _ u ..u y f | +.5.u k #.u } +.K e @ u ' ) = k u 0 ` ..q k K ..f } #.f K e ) ' u u { # _ # 0 { f K _ e ) K K #.u , _ 9.} 0 _ ) u e e K y # k @ O e u 0 u ' u e , # y ) k 0 O = e ' e ) { ) u 0 # # y @ y q # q e e e # u _ K 0 e u e @ ) K k e u _ u 0 ' q 0 0 e L ' _ u # @ , u y ) u e 7 u K K # = K K 0 ' , @ y k 0 # # # y u u e q 7 # q 0 0 0 0 7 7 7 0 7 7 7 7 q q 0 0 0 y u q w 0 0 0 u ` ) ) ) k K u u k e e y q 0 0 , = # # = @ # X # # y / #.9.@.$.{ ..` u y e 0 7 = # = , = = # 7 # # # # # # 0 0 = # = # # # # 0 e u k K K ) K K K K f u f q K e ) u 0 0 e ..X.u 0 @ # 0 q q 7 # w e ' -.) 0 e e X q e 0 0 0 0 O y ) ` ' , , u e K e q 0 e 0 O O 0 e K _ ) _ u _ K y f I @.#.| e X.L e T  .f @ # e ' u @ y 7 7 ` =.u K ) X.e K 3.I f e _ ' _ q _ w y e . K ..K L K u ' L K ..u @ K ..' 0 u K e e # u f @ e =   0 K , 0 ' K u e # , e K K 0 # y e ) e u K u e 0 @ # , O @ = @ 0 e u y # , K ' e 0 , K # # k w e e e K w 0 K 5 # 0 0 f _ L e @   # y q u e e = y e K # O , L q e w O # 0 0 = # @ # y 0 = 7 f ) e u e f ) _ _ ` ) f ) K f u e y 0 0 7 7 7 = # @ X @ # 7 0 0 7 # @ @ @       O # # = 0 7 , 0 0 0 ",
"-.{ ..` _ f u e e e q w 0 0 0 0 q q 0 0 0 0 7 = 7 0 0 0 0 q y q , 0 0 = 0 ) K L K L K K K e e 7 ..-._ u 0 7 q y q 0 = q f @.@.e # e y = u u 0 7 y 7 7 ) =.' f = e w u e 0 e e q X O 7 u ) ) _ _ K X.f e u | +.9.f u #.u L 5.L u # u _ K 7 u y 7 ` { u K K ..f _ $.K ) e ' _ f u ' # _ 0 , ' f K _ y K L K @.) , _ $.| 0 ) ) e f y _ u = K # O e u , u _ e u 0 = y ) u q O 9 u { u u ) f u y # 4 0 O 0 0 # y u e e = u _ K e K K e @ u u u e u ) u q _ e 0 y w K _ I e @ @ # y y K u e 7 e K f # = K K 0 K # @ y u 0 = = # 0 u u e u K u ) ) ` ) ) K K u e e q 0 = = = @ # # # 0 = = # # @ = 7 # # 7 7 0 0 0 0 7 0 y e e e u u u e u q u y e q 7 / @.$.| | f ) u 0 0 0 7 7 7 7 0 0 7 7 = = # # # # = = , = # = # @ X = e u u 0 q e q 0 0 , 0 = = o # X # # ) u , = u @...u 0 @ @ 0 q q 0 = e e _ ,._ q 0 y @ y e 0 7 0 0 O = u ` ..0 0 u e K u q 0 0 7 O O 0 K ` ' K _ u L L 7 K } +.3...r @.L q I 2.s X # u ..K # y 0 @ k @.u u f @.e f 7.L r # L } L 0 ) e 0 0   K #._ K K e _ _ K ..u # K ' ' 0 e K 0 e = u u O 0 ,   e ' , , | K e y # , y ) K 0 7 0 , u u u u e e = @ X # @ = #   0 u f e # , _ ) e , # e # @ u 0 e 0 y u q q _ 0 = e 0 s L L e @ @ @ 0 0 e e , # y q e # @ < L 0 e e O # 0 0 @ @ # # 0 = # 7 q e 0 q % y K _ ......| ..| | { _ _ _ ) K u u q 0 0 0 7 = @ # # @ = 7 0 e y 0 q u ) ) ` ` ) ) ) ) ) ",
") u e u 0 0 , 0 0 0 0 , 0 7 7 # = = 0 0 0 0 , = = # = 0 e u K u K K K k K ` K K s K e K ) e y 0 { #.) q # = q e q 0 = y u { #.f 0 u y # e y 0 0 y = @ u ' ' f # e e f u 0 e e y # @ 0 u K ) _ _ u ' K u K |  .5.f u @.f s 4.L 0 @ e _ K * y y = ] ,.^ u ) @.u K $.f ) u ' _ K e ` = ) 0 0 ' _ K ' u ) ' u { u @ K X...q u K e u , K u # k # O u K , u { K u 0 = y ) K u @ y u ) K u ) u u 0 # 7 0 O = 7 # y u u y @ e _ ) y 0 u u @ u u u u e K e q ) 0 = q 0 f ' _ y @ # = e e f u e 7 u K u @ # K K y k # # 0 e 0 7 # # 0 q y y K _ K ) u K ` ` ` { ) K K K u u u y 0 0 0 0 0 # @ @ @ @ 0 0 q 0 # # @ X X       @ # # 7 7 = 7 7 0 7 y = e y 7 ( _ _ _ _ s K e e y q 0 q y q q 0 0 = 7 0 = # # # # = 0 0 0 , , = # 0 0 0 = = , 7 7 7 q u u u e 0 y = y 0 ) u , = u -.' u = # # y 0 0 = # e 0 K -.` y 0 q # u e 0 0 q 7   0 f ` ..< 0 u u K u q , 0 = O O # u ..{ k ) u L ' 0 f |  .#.} 0 ' K 0 ' +.s @ @ K ..f @ y 0 = u =.u u u @.e u 7.g 0 @ K _ K 0 ) e @ y   e @.' g K e _ | u @.u # K @.' e e ) q K , f u O w 0   q _ , # ' K u w @ # 0 ) k 0 u 7 # e u e u u u = O X @ 0 u 0 O y k K u # , ) u e 0 # w = # e = 0 y e e 0 q _ q , e 0 f K K e # @ # , 0 w e 0 = e q e , o , L q q 0   @ = 7 @ @ O O = = = , f u e u q e e K | | X.@...{ ..@.@.#.=.-...' _ K u u w q 0 0 0 0 0 0 0 , = 0 K K K u w q y 0 0 0 0 0 ",
"e 0 0 7 0 7 7 0 0 7 = = 7 = # # # # 7 0 0 = 7 # # # 0 e u y e e e q q q q q , , # = # e K q 0 0 _ =.K y # # q q q 0 0 u e ' -._ y e 0 # u y 0 0 u = O 0 ) ..K , u u f K q q q q @ O 0 u ' _ ) _ u ' K 0 L |  .9.K f @.K u 3.I 0 @ e ' _ = y y # u @.) k K @.u f 7.L y 0 ' ..K q ' 0 k 7 # ..' K L K ) ..f { f # K ....e u K y u 0 K u X u #   K ) = u ..u u 0 7 q K K u 7 e 0 u K e K u e 0 @ # = # 7 = # e u u e # e { K y # y e @ e e e u e u e q _ y , e q K L L e # # # y y k e 0 0 e s e # # f K y K = # 0 y 7 # = 7 y 7 7 q u u 0 e # q f _ ' ....' | ' ' ' _ _ ) K u u u q 0 0 0 0 7 # 7 7 7 0 0 e y q 0 e u ) _ ` ) ) ) K ) k ) y ) y 0 [ e q 0 e < e q q 0 0 0 q y q q 0 q 0 q 0 0 = = , e ) ) ) K u u e e e 0 = = = # @ # @ @ # # # = # # X @ 0 K u 0 = ) =.) u = @ # e 0 0 = 7 e q u @.| u q 0 # e y = 0 0 # O e ` _ ` 0 0 f K K K e = e 7 O O # ) ..' u ) e L ..0 K | I O.} 0 ' K , I  .s O = K ..K @ y y 7 u ,.u u e @.u u 9.f q # K _ K , f e # 0   e | ' L L q K @.f @.k @ u @.` u e ) y ) , u e O w 0   e K < # _ K u q @ # , K u y K # @ e u q u u f 7 O @ @ 7 u q X w e u u # 0 ) K q = # u y # y 0 0 0 0 q , q L 0 = q e K K f e # @ # 0 = 0 u e = e 0 0 @ @ % K q 0 0   # = @ @ @ @ O = 7 = 4 K u 0 y 0 e , < q w u s f u f u u k u ) K ' _ ` ) K e e e w 0 = 7 7 = = # = 0 0 0 , # # # O O O X O ",
"y y q q q q y y q q 0 7 0 7 = = # = 0 0 7 7 0 = = = y q 0 0 0 0 0 0 0 y y e y q 0 0 = u K e 0 q { ..f q # # y q q 0 7 e y k -._ y q 0 7 u y 0 0 e 7 @ 0 ) ..K # u u u K e 0 0 0 @ X # u ..' ) ) u ' _ 0 L +. .3.f u ' s u 3.| , X y ' ' = 0 y 7 y =.k u u @.e f 9.K 0 , _ ' K 0 ` 0 q = # ' @.L L u K X.K ' _ # K ..@.u e ) e K 0 K e @ u =   K ) # e ..u u 0 4 7 K ) e e y = y K u u u u 0 @ # # y u q # u K ) u # u ) u e = q e # 0 w 0 e y e e 0 ' u 0 e 0 f L K e # # = y y u e 0 0 u e u 0 # s K 0 k # @ 0 0 # @ # @ 7 7 7 0 K u e K e u u K | X.@.#.@.X.=.-.#.-.-.=..._ ) k u e y q q 0 q q r 0 0 q w K ) _ ) u u k u e u y y 0 y 7 y 0 y [ 0 0 # 0 # 7 # = # # # # , = = = = 0 y , , = 7 # y e 0 0 e e e e e y e e e e 0 0 0 0 0 0 0 7 , 7 0 = 0 0 K K , # K @.K e = X = e 7 0 = 7 e 0 e ' ' K e , # y 0 = q # @ O e ' _ K 0 q u K u K e # u 0   O 7 ' ..{ u K u K ..0 e | T | } y ..K q I } e O # w X.K # y r # y @.u k e @.u e 3.K u y u ' _ 0 u K 0 0   u | _ s K 0 K $.g @.) @ e ' ` u 0 K q K 0 e e @ 0 ,   e f , o I K e 0 @ # 7 K k e u @ O 0 u y K u u 7 O @ X = u q O q y e e # 0 K K e , 7 e u # 0 w y 0 , 0 0 u L 0 # , 0 e K f e = # # y # # w e # e w u # = 0 f 0 e e   # = 7 = @ O @ = = # 0 _ K k ) K ) f u u u f u u 0 q 0 w 0 = = , # # = # , y q e 0 0 = 0 # # = , # # = , 0 0 0 0 , , # # # ",
"y y 0 q q e 0 q q q 0 0 q 0 7 7 0 u ) ) K u u e e e y 0 = = = # # # # 7 0 0 7 0 = 0 # e K e 0 e @.' u 0 # = y 0 0 0 7 e q k =.' u y 0 7 u r r 0 0 # # u _ ' u 0 u ) K K u 0 y 0 @ X # u ..' K ) u ' ' 0 L | I $.f u | u u 3.} 0   q ' _ 7 y u 0 y =.K u u @.u u -.f q 7 K ' K q ) 0 0 = = _ @.K _ u f X.K ` ' = u @.' f y ) e ) 0 u y @ e =   f K , q | f u 0 # # k K u k q @ q K q K u K 0 @ # @ q k y @ e u K u # u ) u y # y k 0 y y y e e e q 0 _ u 0 e u K L K e 7 = = y 7 e u y r e u 0 # # e K 0 u @ @ 0 = # # @ @ 7 7 7 0 _ K 0 e 0 e 0 0 u e K K K K K ) K K ) ) ' ..@.) ) ) u u u y y 0 0 7 7 0 , 0 q y w 0 = = # @ @ @ @ @ # O # = y [ k _ ) ` f ) u e q 0 , # = # X @ X @ # @ @ @   O @ @ @ @ @ @ # @ @ X @ # # # = 0 0 0 0 0 q q w q u q u e f u , # ) ' k u = @ 0 e = 7 # 7 y 0 0 K { ' u # 7 y 0 7 q # @ O , K ) u s e e ) e u e , ) u # O = K ' ..f K e f ..0 s +. .@.} 0 _ f q '  .0 O # u | L @ y 0 @ 0 ' u K q @.s q @.K K y u ) ) 0 u K 0 # O y | _ s K , u #.H | _ X K ' ' f 0 k y K 0 0 q O 0 ,   q e # # ' K e y # 7 = K k q 0 #   = e e ) u u 7 O @   = ) e @ y y y e = # e u e 7 0 0 e = 0 q y 0 e 0 e e K 0 , , 0 f K K u = @ X = 7 e K q # e w q # , q s 0 e y   # = 0 = O O @ = # O 0 ) ) K u u K K K f K ) K K K f u u e 0 0 e y q 0 0 0 0 u ) _ _ K K e 0 , = # = , , y 0 0 0 e e 0 0 , ",
"7 7 = # # 0 0 0 0 0 0 e 0 0 0 0 7 u ) q k u e u e u y y y e q 0 0 0 0 , 0 0 = 0 7 0 # e K u , e @._ u 0 # # u 0 0 0 0 u 0 e ' ' K e , 0 y 7 0 0 = @ = k _ ) u 0 u ) u K u 0 u e @ O 7 _ ..{ f ) u I ' 0 K O.I 3.k k ' e e $.} 7 @ u ' ' 7 y y 0 y { ) k u @.u K -.K k 0 f ' K 0 ) u 0 = = K @.g L u u X.' _ { = u ' ' k 0 K e K 0 u u # e =   u u , 0 | f e , # # u ) u ) 0 X 7 k q K u f 0 @ # @ 0 K q @ e y u e # e K f y = u k y 0 e y e 0 0 y u ' e = 0 e f K K u 7 7 7 e # , e q 0 0 u y # 0 e s q K @ @ q 7 7 7 @ @ 7 0 7 7 ' K u ) K ) K u f u u u u q e e e y 0 0 y 0 0 0 0 0 e u q 0 0 = 7 7 7 0 7 = = 0 q 0 0 0 0 0 0 = 7 # 7 # = 0 y o.u u K { ) { ) f K K u u e y 0 0 = 7 7 # # @ X @ 7 7 0 7 = # @ # @   X @ # 0 q y y y y y e e y y u 0 y 0 e u , # _ _ y e # @ 0 e # = # = w 0 0 K ' ..u # 0 e 0 7 7 @ @ O = K K u K u q K 0 u q , ) 0 @ O # e ` { f K e u X.0 e  .T  ._ q ' f < K } s X # 0 | _ @ y 7 @ 7 k u K w @.K q @.f k 0 e ) ) = e K 7 # X u | L L K , e @._ } _ @ u | ..K = 0 q K 0 , y   0 0   e q = # ' _ u y # 0 y ` K 0 0 7 O # e 0 K u u 7     X = ) u X 0 0 y e 0 @ e K q 0 e 0 y # = 0 7 q K 0 e 0 u , , , , K ..' f = @ # = y u K y # 0 0 0 @ 7 , 0 # 0 q O # 0 0 = # O @ @ @ O 7 f u u K K K ) ) ` ` ) ) ) ) K K K K K f K K u u y q 0 q K _ _ ) ) ) K u e 0 0 , 0 # # # @ @ # , K K ",
"q q 0 0 , = = @ # @ # 7 # # # @ @ # @ @ # # # # # @ # # = 0 0 0 r y y y r y r e u u y u K e # u @.) u 0 # 0 u 0 7 7 7 y 0 0 ) { ' u = 0 y 0 0 0 # @ # u _ K u f e ) u u u = K k = @ 7 K { ..f ) e K ' , L +.T 5.L f _ u s #.I = @ e _ | 0 y y 7 0 ` ) k e @.K q #.K ) y u ' K 0 K ) , 7 @ K @.K _ e y X.| L ' # y ` { K q K u K y e y @ u = O u e # q @.K u 0 # # u K u y 0 @ # u y ) K f 0 @ # # 0 ) e @ e y u e = 0 u f y , 0 e y = u y y e y e u K y = 0 0 f K K u 7 = # y 0 u K 0 0 q u q # y e u e K @ @ 0 8 0 4 @ 4 7 # @ 7 { ) K ) u K K K K K ) K K K K f u u y e e q q 0 0 q e K _ _ L K u e 0 0 7 , 7 q e e 0 y e e q 0 0 = y # 0 q y { q 0 e _ ' X...| { ' ' _ K K ) K K u u q 0 0 0 0 = @ # # = = 0 e e u u K _ ` ) ) ) K u k k k u e u r k y e u = = ` K 0 0 @ @ = q = = # = 0 , 0 K K _ e # 7 y q 0 0 = @   0 u K f K u q K 0 u q # _ q #   # K _ _ K ) e e .., u +. .@...u ' K , s I f # # y ' L @ y r = 0 y e ) e 9.K u #.K K 0 e K _ y k K = # @ , L _ _ K , q ' L } ' @ u { @.K 0 = 0 K = 7 u O q e   q w , # L K e y @ 7 q u u y u q O # e 7 K u e 0 O   @ # K u @ 0 , y e 0 @ u K 0 0 e # 0 # , w # 0 u 0 0 0 u 0 0 0 , f ' L u , X # # e K K e # 0 0 0 0 0 = 0 # 0 0 O # e u w 0 @ @ @ @ O u } u e u u u ) ) ) ` ` ` ` ` { { { ` ` ' ` K K K u e e 0 0 0 q 0 0 0 7 7 = # # = 0 , , , # # = = e q ",
"K K u u e u y 0 q 0 0 0 = # @ @ # 7 0 0 0 = # # # @ @ @ # 0 0 y y q y y y u y u r y q u u y # u @.u u 0 # 0 u 0 7 = = y 0 y K ` ' e 0 q e 0 q 7 @ @ @ e _ k K K q K u u u = K K = O = y _ { K ) e K ..0 K | I #.K u ' u q | L e O y K X.0 0 0 7 7 K k k 0 X.f 0 #.K ) 0 e ` K = u k = 7 # K X.g L e u ....L ..# y ` @.K 0 y e K w 0 y O e 0   K y , q @.K u q = q k ) u 0 q # # u 0 K k u 0 @ @ # 0 ) u # y 0 u e 0 0 K f 0 y e q q # u 0 q k u e e e q 0 q 0 K ..' u 7 # = 0 y K K y 0 y e 0 = 0 e 0 , u # # y y y = @ @ # = @ e _ u u k ) K ) ) _ _ ) ) _ ) ) ) K K f K K K k u e e y u _ ` ' _ _ K f u q 0 0 q 0 0 = # # 0 0 K ) u K e k u 0 [ u e < K _ | @.@.@...@.-.#.#.-.-...` _ K u e w q 0 0 0 0 0 0 , , 0 e u K u , 7 0 0 0 7 7 7 # # # = # 9 0 y e # 7 ) K 0 0 @ # 0 y = = @ # 0 = 0 K K ' e # 0 e 0 7 7 = @   # u _ K K u e ) 0 u e 0 _ K 7 O X K ' ' f _ e e @., e | |  .@.k ..K , e L e # # u | ' 7 0 0 # 0 e y ) q -.K e @.K ) 0 q K ` u e K , @ # 0 K _ ' _ q 0 _ _ } | @ y @.#.K q , e K 7 0 _ @ q e   0 q # # L } ) e @ 0 u u u y e 0   # e # K f e y O @ @ # u e @ 0 0 0 e q # u u < 0 u # 0 = 0 q @ 0 u , y 0 u 7 = , , s H K e 0 @ 0 # u ` K e 0 u 0 0 = # = y # 0 0 O X 0 u y y 7 @ @ # @ , q , , 0 # = 0 0 0 0 y e 0 0 0 0 q u e K u u k ` K K K K u u u e y 0 # # # @ @ , e u e q y w e 0 , 0 ",
"' ' ' ' ` _ K ) f u u u q 0 0 0 0 7 # = # 7 0 q e e e u K ` ) ` ) ) k ^ k u k u u k y u u y # ) ..e y 7 # = e 7 0 7 0 e 0 e K _ _ e = 0 u q y 0 = @ @ e ) u K K 0 K e u u # ) ) 7 O # K { ` K ) e f ' , K  .| #._ K ..e 0 L L y @ e K X.u 0 y 7 0 y y ) e 9.K e #.K ) 0 e ) ) e K K = 0 @ K @.K ' u = _ | I X.0 0 ` =.) y = q K 0 0 K @ u 0   e 0 , e ' K u 0 # y u k u y u # @ e 0 k u e y @ @ @ = K u # y q u u 0 = K K 0 u e 0 0 # u 0 0 u e q q u y 0 q , K | ' u 0 # 7 7 u ) K q 0 0 e 0 y 0 q 0 , e = @ y k y y = # # # = q _ K e k ^ u ) ) ) { { ` { { { { { ` ` ` ` K ) K u u e 0 e e e y e y q 0 0 = = 0 7 0 , 0 = = 7 e u y u 0 u e 7 [ e q # < 0 e f f K f K f u k u K K ' ) _ ) K e u e 0 , , = # = = # # , , , # # # @ @ @ @ O O @ O @ O @ # q y # 0 K u 0 = O # , = # # @ # 0 0 0 K K _ e # = e 0 = 7 # O   # f ` u e e 0 K , u e , K K #     k { { f ' e e #.0 q ' } | X.e ' u = u L K @ # K $.K = 0 0 @ 7 k y k 0 @.K s #.u ) e q f K y e u # # e = L L L L u q L L L K # 0 ' ..) e 0 e K = 0 ) X 0 k   0 0 # # _ K u w @ 0 u e u y e 0 . = y # K K e y O # # @ u e @ 7 0 q e q # e y X , u = , # 7 y @ 0 u , u , e 0 , , q f K K e e # = # q u e 0 = y w # = # = e = 0 , X X y ) e 0 @ O @ # # @ X   . X   O     # 0 , 0 # # , , , , = 0 0 0 0 y q u k k K K K K K u y y q 0 , e K ) e , = 0 y q y y ",
"@.......@.@.#.=.=..._ ) k u e y q 0 y y q 0 0 0 , q u K K u 0 0 0 y 7 0 7 4 7 7 # 7 7 q e 0 @ f ` e 0 = # 0 e 0 0 7 7 0 0 0 K K ' e = y u 0 0 0 7 @ O q ) K K K q ) u u u 0 K _ 0 @ # f ' ` f _ e u .., K  .| @.' ) ..y y K _ e o y ` #.0 0 y 7 0 u y ) y #.L e 9.K ` q e ) _ e u ) # = # f @.K ' f = K | I @.# 7 ' -._ e 0 e K 0 w _ @ u e   u q , 0 _ ' K 0 # e u u u e y # @ u = K ) e u # @ # = u e # y q e u q # K f 0 u e 7 0 # e 0 7 u y q e u y , 0 0 s L K u y # 0 = k { K e y e u , 0 # 0 0 0 0 = @ 0 u u u 0 # = = = 7 K e 0 e 0 = e y 0 y e u e y e y u u K K K u ) ` K ) ) K u u e e q 0 = = # # = e u u e e e e e 0 0 = q # 0 0 7 / u K e f u u u u u q 0 0 y 0 = = = = # # # 0 e e e q 0 0 7 # # , = # = 0 0 0 , 0 0 0 0 , = # , # 0 # = # q 0 0 0 e e 0 = O X , 0 = # @ # 0 0 0 ) K K e # = y 0 7 0 0 #   = u ` u 0 0 , K = e e 0 e u #   O y _ ..u { e w X.0 , I  .} @.u ' q # q f e # # e #.u @ y y # 7 ^ ) ) e -.K K @.0 K u 0 K K q u e @ X y , ' .._ L f f ' _ ' | # 0 ) ..K e , 0 K = 0 K X 0 s O 0 0 O @ _ K e 0 @ 0 e 0 u u e 7   # q # K K y 0 . 0 @ @ u e = 0 0 e u y @ 0 e @ # e # 0 @ # u # 0 e , K e e 0 , 0 0 u L K e q @ @ # = 0 0 0 # q y @ = = = 0 0 0 0 @ @ # K y 7 @ @ # # # = # #   @   .     o o   O   . # % # , # = # o X @ # 0 0 0 0 0 e u e e q e e u e u K K y , = = , = = 0 ",
"f K f f K u K K K K ' ) ` K K u u q w 0 0 7 = = , , , 0 0 0 = = # @ @ # @ @ @ # # @ @ 0 e 0 7 u K e 0 # # 0 0 = = # 7 0 0 y K K ' e = 0 u 0 0 9 # O O = _ ) u u 0 K e e u 0 u ) 0 @ @ u { ..K { u f @.0 s ' | X...u ' 0 0 K L y @ e ..X.r 0 y 7 7 u k k 0 @.L f $.f ) e e ) K 0 f e # 0 0 e ..K ' K 0 ) } g ..q = _ =._ f 0 e K 0 w ) @ e u O e 0 = q ' K u 0 # e y u u u y # @ u = f ) u e @ # , # u e # q 0 e u y # k w # e y 0 0 # e 0 7 u y e u e e q 0 e f L K u u # # 7 e K u q 0 e y # y # y y 0 0 = @ 0 K u y 7 O # # = 0 , # + @ @ O # O # 0 0 q , # , , , , 0 y 0 0 y e u K K K ) K K K K u e y y 0 e K ) u 0 0 0 e e e u y e 7 y 0 e [ k f u K u K K K K K k u u e 0 q e y q 0 0 0 q K ' ' ' _ f e 0 , # = = 0 0 0 0 0 0 w 0 e e 0 y < e 0 e = 0 q e u e y 0 = O   0 0 = # # # q 0 0 K f K e = 0 u 0 7 7 # O @ # f _ u e e = K 0 K u y k K =   @ e ..X.u { u w #.y 0 ' | | @.e | K = 0 u e @ 0 ..-.K 7 y 0 @ 7 { _ K q @.e K #.0 u e = K K e K u #   y # ) ' K K f s { _ | X.# y ) @.K u , , K 0 0 u O 0 K @ , ,   @ _ K u y @ 0 e 7 u k u 7 O # 0 # K K w 0 o e X   y e 0 0 0 u k y @ e u # = 0 # q @ 7 k # , e = K e q = 0 0 0 u L L e y @ X = = = 0 y @ , 0 X = = @ = = = , @ O = 0 7 # O O @ 7 , y e u q y q 0 0 0 = = # @     o   O   X X O @ @ @ @ @ X @ @ # 0 , , , = , 0 e e w u e 0 0 , # , # # = ",
"u u q e 0 0 0 7 , , 7 7 7 = 0 e u q q 0 0 0 = 0 0 = = 0 0 e 0 0 0 0 0 0 , = , 0 = 0 , 0 e 0 e e u q 0 # X = 0 0 = = = 0 0 y K K K e # 0 u 7 0 0 0 # # , _ _ e u , k e e u y e f 0 O @ w _ @.u { e e X.0 q } } | ..f ' , 0 u f q @ u ....0 0 y 7 7 k ) ) e @.) K @.y ) u q ) K e K y @ , q e .._ _ L s ' X.L @.0 = K @.) u 0 q K 0 0 ) @ e k X e 0 @ 0 ..f u 0 # u q u k u q # @ y = K ) u y @ 0 # @ u u 7 q y u u y # u y @ y w 0 0 # e 0 7 e q u K q y 0 0 e e L K u k # # # 0 w 0 0 # u 0 @ e = y 0 y 0 , X 0 K k 0 7 @ 7 # = 0 , # X # @ @ @ O o # # @ X @ % < 0 0 # , # # @ # 0 y 0 0 y e u f k u e u u u u K ) u q = 0 0 0 0 y 0 0 = 0 0 ) *.^ K u ) ) ` ) ) ) ) K K K K f f K u u u y q 0 e ) _ _ K K K K u 0 , = 0 # @ @     @ = k ) K K f ) u K 0 e _ u y e q 0 = @   = 0 # # @ # q 0 0 y ) K y # y u y 7 7 = O @ # q K u u e # u e q e 0 u K =   O y ....e { u q #.y 0 } @.+.#.K @.K 0 u ' u @ = K #.f 7 y 0 # y o.) K w @.f } #.0 u e 0 | K u _ _ #   q 0 K _ K ' e y ` L ..' o 0 K #.u e , @ K 0 0 K # 0 _ # = , O # ' L f e @ 0 y = k k u = @ @ 0 7 ) ) u 0 @ 0     q e y = 0 y e 0 # e e # # 0 = 0 @ 7 K # = u # f e q 0 0 q , u L L u y @   @ , y e y X # y # # = # 0 = = 0 @ O # = 7 = O @ = = 0 0 0 0 = 0 , , 0 0 0 0 , , w y ) u u # # # @ @ # # X X   @   O @ X X @ X @ @ # # = , = @ X   X X X X # ",
"K K f u u u u q e e y y 0 0 0 e K ` ' _ ) u e 0 0 = 7 0 0 w 0 q 0 e q q u 0 e w q e e 0 q e u e e q 0 # O # q = = # = q 0 y K K K e = y u 0 0 9 = @ # 0 ) ) q K , e u u K e u ) y @ @ y { X.u { u e #.y e | | @...f ' q 0 u f 0 # ) -.X.r q u = = ) ' ) e ..K K $.y u e 0 _ K u ) e @ # y e ..K _ ) u _ ..L #., = ) =.) u q 7 K q 0 k @ e K @ q 0 X 0 ..K u 0 @ u 0 e K K q # # r # k ) e q # e # @ e e y 0 y u u y # u e # 0 0 0 0 # u y 7 e y u K 0 0 0 y q e L _ K ) # # = 0 0 y y @ y 0 @ 0 # 0 7 q 0 0 O 7 y 0 0 # O = = 0 u e u 0 e w q q q 0 7 = # @ @ # o @ @ @ # # # # # # # # # # 7 0 0 0 0 0 q e u e u f e q 0 0 0 0 = , 0 0 @ # @ { =.y e u ) ) { ' ` { { { { { ` ` ` ` K K k e u e 0 0 0 0 0 , # = = # @ # 0 0 0 0 0 0 0 0 , 0 , 0 , 0 = 0 @ u X.f 0 y 0 0 # 0 X y u = = @ # e 0 = 0 ) K 0 O q u r 7 0 0 @ @ # 0 f u u u # K K q e , u u =   O 0 _ ..e ' e q 7.e , I @.$.@.y ..f e u ..e O # K ..e = y 0 = y { ` K w @.K } @.q u e q ..f e _ ) q   0 # K _ K ..f , K L .._ # 0 u @.u e 0 # K 0 7 K @ 7 _ = = =   # _ K f 0 @ = 0 # ) u e 7 @ @ 0 = ) K u 0 @ ,     y y 0 # 0 q y y # u u = = = = q # = e @ # e = e e q 0 q q , u H H f y @ X # 0 u u 0 @ = w @ # # 7 e , 0 w @ O 7 u u 0 # @ 0 = # 0 K f y K u u e e 0 0 0 , , K ) ) K e , = # # O   X @ @ # @ @ X               O   O               O O ",
") ) K ) K K k u K K K u u e y q u ) ) K K K ) f u 0 0 0 0 # # # @ # # e ) K K K K K k e K ) u e e q 0 #   # q = = = 7 y 0 0 e ) K y = e u r 0 7 = @ # , u K q K , e K e e e u K q @ @ 0 ' @.u { f e #.y e | | $...K @.e y ) ` y @ y @.| e q y 7 8 ` ` ) y @.K _ #.y f e e ..K K _ _ # @ y 7 ' K _ L 0 K ..L @.0 = u =.K u q @ K y 0 K # e ) # 0 0   0 ..K u q @ u 0 e K K 0 # @ 0 7 K _ u e = e @ @ y e y 0 y u u u = k e # 0 0 0 0 # k y = e 0 e K q y w y 0 u L I K k # @ # 0 e e y @ 0 w # 0 # 0 0 0 0 0 O = 0 7 7 = @ 7 0 0 y q y = y 0 0 0 q q 0 e w 0 u ) K u 7 = = # = # # # @ @ @ @ # # # # # # # # 0 = 0 0 = # # @ # # @ # # 7 # # @ { =.# @ , 0 0 0 y e q w y y y u e K u e ) ` K ) ) K u u e e q 7 = # # @ , e u u 0 0 w e e y 0 0 0 # 0 # 0 # u @.u = 0 0 = @ 0   0 ) 7 = # # y 0 0 q ) K e   y u 0 0 0 0 @ @ # 0 e u u u # K _ K f , u u 0 X   0 K ..e _ u e #.w q ' @.3.#.e ..u 0 u ..e O = ) | f @ y y 7 e { ) K e @.K ' @.q K u 0 ' e e { _ e   7 # K L K ..K q f ' .._ # 0 f -.K u = X K 0 = K # = K = = #   = L L K q # # 0 # k e w # @ @ 0 = K K f 0 , q   O r y 0 = 0 0 e e 0 u K 0 = = = 0 @ = u O # e , 0 u 0 0 y 0 , u K K e e @ @ # = u K 0 # = 0 @ X # = 0 @ 0 0 @ @ 0 K y 0 7 # y 0 @ q ' ..` .._ { _ _ ) ) ) K K u e 0 , 0 = @ X X O O O     O     @ @ @ # @ @ @   O       O O O         O ",
"` ` ' { { { ` _ ` _ K K k e u e 0 0 q 0 0 0 7 = 7 # # 0 w 0 q w 0 0 0 , 0 0 , 0 , 0 = 0 ) ` e 0 y 0 = 0 # 0 u 0 7 # # y 0 0 q ) ) e @ y u r q y 0 @ # # q K q ) , y _ u u 0 u K 0 @ O 0 ' @.e ` u e 7.y q ' @.$.' u ..u e K ' q @ u ' | y q e # r { { ) e .._ ' @.e K e u #.u u ' ) # @ y , ' K ` ' q u ' _ ..q # u @.K u w # f e 0 ) # 0 ) 7 0 0   e ..L f 0 @ y = e K K y = @ 0 # e _ K e # q @ @ y e y 7 q y e y 7 k u 7 = = 0 0 # u 0 @ y 0 y K 0 e y e 0 u L L K u # # = w K k 0 @ y y # 7 # y e q 0 0 O = k k e 7 @ 0 7 = y ) ) y K f u u e y q q 0 0 K _ ) ) u 0 0 = # # @ # 4 # 7 # # @ X O @ O O O @ @ X @ O       O   X @ O @ O O O ` *.#   .   o , , , = # < , % , , q 0 0 0 0 q u u u K K K K K u e e w 0 e K ) u 0 = , 0 0 0 q w 0 0 u 0 0 0 K @.u = 0 0 7 # y   u @.0 0 # , 0 0 0 y _ K y X q u y q q 7 O O # u K u e K 0 f u e K < u 0 # @   7 ` ..e _ u e 3.e e _ | $.@.y @.u 0 u @.q   # K ..K , u q @ u =.) K u :.K _ X.0 u K , @.u u ..@.e X 0 , K _ ' ..K u k ' ' ..# # K -.) u #   e 0 0 ) 0 , _ , @ @   = L L K q # 7 e = k e 0 # = O # # K ) K y , q   X y y , # 0 0 e s 0 q 0 # # = , 0 @ # k @ # e , 0 u 0 0 e , , q f f f e # # # = u K 0 , @ 0 7 O # = = # 0 q @ # 0 u 0 0 = # e = @ # K K K K e u , 7 7 7 e k u ' @.@._ I s e = 0 0 = = 7 = = # # 0 e y u y 0 # # # @ @ @ @ # # # # = # # ",
"e e y y y q e u K k e k ` K ) ) K f k e u y 0 = = # # 0 u u e w w e e e y y q 0 0 y 7 y ` ' q 0 y 0 # 7 # 0 ) y 7 = = y 0 0 y ) K y @ y u 0 q q 0 @ # , q K q ) 0 e ' K K q u K y # O 0 { @.u _ f u #.y e _ +.9...u @.e e ) ..q O u ..' w q u 7 y { ' ) e @._ _ #.q K u e @.e K { ) 0 @ q 0 _ K ' ' f k ` _ ..e # K -.) f q @ f e = K = 0 ` , 0 = O e _ _ K 0 # y = y K u 0 = @ 0 = k ) K e = e @ @ y y q 7 q y u u 0 K u 0 = , q 0 @ u 0 @ e e 0 f e e e y 0 u K K K e = # # 0 K K 0 # 0 0 @ # # q , 7 e 0 @ 7 k k y 0 @ y 0 7 0 ) @._ @.` { { _ ) ) ) ) K K u y 0 e , # # # @ @ @ @ X @ O @ # # # = # # @ @ @     O @ @ O @   @ X O @   X   _ [ @     O . o + X .   # % , , # = # o X @ , 0 , 0 0 0 u u e y y e e u e u K u 0 , = , , = , , 7 # = # = # 0 @.u 4 , 0 7 7 0   0 ' r 7 = 0 0 0 q e | K q O 0 u y q q 7 O O = e ) u u ..u e e e K e K y # @   q ' ' e _ e e #.y e L X.#.#.y X.u 0 q ' 0 X y ..X.K # e r # k =.k u u @.K L | , u K 0 #.f f ..@.u X 7 , K _ ' _ f e f ' _ ` = @ K -.K u = # q 0 0 u 0 = ) 0 X @   , K s s q # 0 u 0 f e 0 # # O @ 0 u k u u , <   @ k u 7 # 7 7 y K 0 = 0 = 0 = , 0 @ # e @ # e y 0 e 0 0 u , , q K K f e # o # 0 e e , e = , y @ # = = = 0 e # # e K y 0 = # e 0 = u @...{ { ` ` k k u u e 0 @ q f K _ L K ) K ` ) ) K f e 0 , = 0 = @ @ # 0 k ) ) ^ k k u u e e u e e y ",
"0 , = < < , , , 0 0 0 q y e u u u K k K K K u e e q e u _ K e 7 0 q w q y e 0 0 e u 0 y ' ' y 0 q 0 # 0 # 0 ) u 0 0 0 q q q e _ K e @ e k q e y 0 O # 0 K ) q K K e ) e K e u e 0 # O 0 ' @.e ) u u 3.e u _ X.9...u @.e q ) { q O e ..L y y u # y o.{ ) e =._ L @.q u f q @.e K ..) 0 # y y ' _ @.` f u _ _ @.u O u =.` f 0 O e y 0 ) 0 0 ` 0 # # O y L ' K e # e y y K e = 7 # = # q ` ) u 0 e # # y y 0 = 0 q e K 0 u 0 = = 0 q q @ u q @ q e , u 0 e e y , e K K K u = # = q u K y 0 7 y = @ = 0 = = e 0 # 7 u e 0 q # e 0 = 0 K ) u ` u u y 0 0 0 y k k ) @.@.X.' f u q 0 0 0 0 0 , , = , y e u u y y q 7 = # # # 7 = = 0 0 7 7 # =   @ @ { [ q , 0 0 = # @ @ O O X .     X @ @ @ @ @ @ @ @ @ @ # , , , = = , 0 e 0 u 0 w 0 , # # = # = = = o # X = # u ..q # = 0 = 7 0   0 { 0 = = = = 0 q e | K 0 X 0 e 0 y 0 0     , e ) u K ' e e u 0 K u ) y @ O   @ _ ) w ` u e #.e 0 L | @.#.y ..u 0 0 ) y @ u ` ..K # e e = ` -.) k u @._ ..#.e ) K 0 @.f K _ ' u   @ # K K K _ K e u ' ) { e X k @.K q = 0 u e 0 u 0 # K 0 X O   0 K K K q = # e 0 u u q = @   O @ e K u f , 0 O @ u e , # 0 0 0 u 7 = q 0 e , 0 0 @ = 0 @ # u e # 0 0 0 K 0 , q K K f e # X # q K k , K q y y # = 0 = 0 q u 7 # y ) e 0 # @ 7 0 , e f f u K K ) K K k k K K u K K K K K u e e K f K K u k _ ` { ' K u u u y 0 7 = = 4 # @ @ @ @ # # # # ",
"@ X X # , , , = = # # @ @ 0 0 , 0 0 e u u u e y e u u u K u e 0 0 0 0 , 0 0 0 = # 7 # 0 _ _ q = 0 q # y @ # k k 7 0 0 q q q u ' K 0 @ y u 0 y y 0 @ # w ) ) e K _ e K 0 K e K u 7 # O y ' @.u _ u e $.y e _ @.-.' e @.e 0 f _ 0 7 ) -._ 0 y k 7 y o.` K e @.) L X.q u K 0 #.f ) { @.y @ 0 q _ L ..L u u _ _ @.) # y @._ f 0 # e q 0 u 0 0 ) 0 # @   e K K s q # y e e K e 0 7 # @ # e K u K 0 q @ # k u 0 = q 0 e K 0 0 0 0 0 0 q 0 @ y 0 @ e u 0 e e e u e , e K K K e = # = y u u y u = y q # 7 0 7 0 u 0 # 0 K u 0 q # e e 0 q @..._ =.` { ) ) K k u y = 0 f _ _ _ K ) K ` @._ K K u e 0 0 q = # = 7 y ) ) ` ` ` ) k k u u u u e 0 y = 0 # ) ] 0 = = w , 0 0 0 0 e K e q # @ # @ @ # # X X X @ @ @ @ X X O @ @ X # # # # @ O O O   O O X X X X @ O X 0 f ` 0 = = 0 = 7 # X q _ 0 # # , 7 0 0 e ' K = # y y 0 e 0 0 @ O < f K e K _ e e u , e s K e 7 O @ e K ` e ) e 0 @.e 0 K ..' X.u @.K 0 e ) q O q K ..f # u e r ) -.) u e { ) @.#.e _ ) = ..f u ) _ u X   # K L K _ K e e ' K { u   y ' K e 0 u _ 0 0 u 7 @ K e # X   = K K g e # , u q K u y = @ O @ # 0 u u u O   O @ e y , # 0 0 0 f 0 = y # , # 0 w # 0 y = # u u # # 0 0 K 0 # , e f f y #   # 0 K K e e 0 y 0 # = 7 0 7 , u = # y K 0 0 @ O @ # # 0 q e 0 0 0 , # = # = 0 0 0 0 0 0 q K ' ) f u 0 0 0 = # # , e e 0 7 0 y q y y q 0 y u u u e 0 y e e e ",
"# @ @ @ o X @ @ # # # # # # # @ @ # 7 0 0 , , 0 0 y e e u e 0 0 7 # 0 # = 0 , = = # # 0 _ _ 0 = 0 q # y @ 7 ` u 7 0 0 0 q y u ' K 0 # q u 0 e y 0 O # q _ K u ` _ q K q u u K f 7 X O # ) _ q ) u u @.e 0 _ X.$.@.u @.u 0 u K 0 0 k { _ 0 q k 0 u @.` ) e { ' ..$.u ) ) 0 #.K K ) ..y   # e _ K ' L f e _ ' { K @ 0 ..` u , 0 u u q k q 7 K q # @   e K K K e # 0 e e K u 0 7 @ @ # q K u K 0 0 @ # u u 0 # q 0 y K 7 7 y y e 0 q 0 # y 0 O q K y = 0 e u e , e K K K e = @ = e ) K e K y e y # , 0 0 0 u y # , ) u e 0 @ 0 0 w e K K e ) u ) ) K K u k ) k K K _ K L K u e K f K K u k ` { { ' ) k k u y 0 7 7 7 7 # @ # = = 7 = 7 # 0 # 0 = ) o.u u 0 e 0 0 0 , , K ` _ ) u 0 # # #     X @ @ @ @ @ O   O O       O O                     O O O O   O = f K = = # 0 = = #   0 K 0 = # 7 7 q 0 e ' u # # e q u ) u y # O , e u , u K 0 e ) 0 e e L e 0 O # u _ ' 0 _ e 0 @.u 0 K ' K ' e ..K 0 e k y O 0 K @.e = u 0 7 ` :.k 0 e _ f ..@.q ' ) 0 ..u K ' ' u @ O 0 K L K ' K u e ' K ' K O 0 { L u , u ' , , e 0 # ) e # #   0 _ K g e = , e 0 f u e 0 # X # @ 0 u u u #   O @ y 0 = # q 0 q K 0 0 e # = = 0 e = 7 0 0 = 0 e @ # , 0 K 0 , e e K f q #     = K ` e 0 y w , = = = # # # y 0 7 y k = y 7 @ @ @ @ e _ X.) ) ) f u K K _ _ _ ) K u y q e 0 , e u ) ) ) _ ) ) ) K e 0 , , 0 0 # # @ X # = 7 = # @ @ 0 = = ",
"0 0 u K ) u q = # # # # # # @ @ # # # @ @ @ @ @ @ @ # # = # # X O O @ @ @ @ @ @ @ @ @ y ) f 0 7 0 y # y @ 0 ) u 4 = 0 0 0 0 e ' K 0 7 e y q e 0 0 @ @ 0 K u u _ f 0 ) e e e K k y O # q ) { u ) u q @.u y _ ..| ' u X.u q u K , 0 K ` ) 0 y k 0 K -._ u y { ) ..#.u ) ) 0 ..K K _ { e X @ 0 _ K _ L K y _ ' _ K # = ' _ u 0 e ' u 0 k 0 # ) u # @   0 K g K q # y u u K u q 7 @ @ # 0 u u ) # O @ # y e 0 7 y 0 0 K 0 0 y 0 , 0 e 0 7 q e # y K 0 # 0 e k e # 0 e K K e 7 @ 7 k _ K e e e e 0 7 0 0 0 0 e e # 7 ) u 0 0 O 4 # = u f u 0 e 0 0 # , 0 0 0 q q q 0 e q u ` ) K u e q q 0 = # , e e 0 0 q e y e u q y u K K k e e k u u e k e K u q [ ) ' ) ` ) ) K K K u e 0 , 0 , @ @ X O O O     O   O # # # # @ @   O O       O O O     O O O   O O   O # f k # = # 0 = 7 @ X 0 K 0 = # = # 0 0 e ..u # # e w K K e y # O , e u # e _ 0 0 _ 0 q e L e 0   @ u ` { 0 _ u , ..s # f X.K ' e ' u 0 e u 0   u ) ..y = u 0 7 _ { e # u K u X.#.u @.) 0 @.e K L L u #   0 K L s _ L e q { K ' K   0 _ ' f = 0 ' 0 = e 0 @ K u 7 0   0 ' K s e , 0 0 = u e e 0 # O @ @ 0 u e u @   O @ y y 0 # 0 0 w f 0 0 u # = # , y # = 0 0 # , e # # w u K 0 = q e e u e =     0 q K y = 0 0 # = # @ # 0 # 7 X @ 7 = = 0 = O @ @ O 0 f ..{ @...{ ` ` K K u e e e 0 e ) ` ' { #._ ) K u y w y y y k K K _ _ _ K K K f e e q q u e e e q 0 ",
"0 0 e ) K K u 0 0 # # @ @ @ # @ # @ @ @ O O @ O O O @ @ O   O X   O O O @ @ O @ @ @ O y ) e 0 7 0 w = 0 O 0 K e = # 7 0 y q y ' K = 0 e y k ) k q # # 0 u e y K K 0 K u q u K K e @ # e ) ..q K K 0 @.u r K ' ) ` u @.u q u k 7 = K ` ' 0 y u 7 ) ,._ y u ` u { #.u { { # ..f K ' ' K @ @ 0 _ L _ _ K 0 ) ' _ ) # # ' ' K 0 q ' e , u 0 4 K e = = O u ' K K e , e q e f u e 0 # # # 7 u u ) # O @ # e y 0 7 q r y K 0 q e 0 # 0 e e = q y 7 0 u 0 @ 0 e u u , u K K K e 7   # e K ` u q u e 0 0 = 7 7 7 0 y 7 0 ) 0 0 y # 7 # @ y _ @.' { ) ` u K ) _ ' ` ` ) u e e e y 0 u u ) ` ` ` ` ` ) K e q 0 w e w = = # # 0 0 0 = # # 0 = = # = # e w u [ u u 0 0 # 7 y k k _ @..._ I s e = 0 0 = 7 = = , # = e y y e y w = , = = = # = 7 , 0 0 0 = # # @ #   X   u u # = # 0 , y   # u u 0 # # , # 0 0 w L K = = 0 0 y y = = O X q K k 5 u _ 0 , _ 0 q u L e 0   O 0 ` ..0 } I q _ s # ) $._ ` e ' e , y u 0   u _ ..y 7 K 0 7 ) @.K @ e f e ' ' 0 ' K , X.u K _ _ e #   # f K 0 f L e 0 ' K _ K   e ` _ u # 0 ..e 0 u 0 @ u u 0 ,   0 _ g K s , = = # u u e q # O # 7 0 e w u @ O O @ 0 y 7 @ 0 0 0 u y 7 , @ # # 0 w # 7 , w # 0 e = # 0 u e 7 # u s K u y #   O = # e 0 # 0 0 # 0 = @ @ , = 7 @ @ 7 = 7 = @ O = @ @ , u e f K f u u u e u e e u e , 0 0 0 q K @.@.` ) u y e e q q 0 0 q 0 = = 7 0 0 0 # = = 0 0 w 0 e u u ",
") K K u e 0 y 0 = # @ @ @ @ @ @ @ @ @ 7 7 , 7 = # @ @ O O   O @ X @ # # @ @ @ @ @ @ O q ) y = 7 0 w 7 = @ 0 K e 7 # 0 = 0 q e ' u = 0 e y K K u y # # e u y 0 K f 0 K u 0 u K K 7 O O y _ @.y K f 0 ' f = K @.' _ u ..e q u u # # K { _ 7 y u 7 ) =.) 0 e K e ' #.u @._ , @.e K _ ' K @ @ e _ K L L _ , K ..K ) # # { ..K 0 , ` u 0 u 0 4 K u 0 0   e ..f g e 0 e 0 q K u e 0 # @ 7 7 u e ) q O @ # y e 0 # q y y K 0 q e 0 = 0 q 0 # 0 e 0 0 e 0 # y u K e = e e f f e 0   @ y y K e = y y # r # 4 7 0 7 7 @ # r # 0 0 @ 7 @ @ 0 | _ _ @.{ X._ ` ) K K u u e y y K ` ' ..-...) ) u y y y y e K _ _ _ ' ` K L K u u e u f u u u e y 0 r , y 0 e [ K ` u k u u e w # < K K _ L K ) f K ) ) K u e e 0 , 0 # # # # r k ) ) ) ` k e e e y y 0 0 0 = = 0 # = # y 0 # , # , 0 e O # e e 0 @ # 0 # = 0 , e e , 0 0 0 0 q = # O X q d K 0 u _ 0 = _ q q q L K # O @ 7 K ..< } +.K | K = K $.L L 0 { e 0 q K 0   q _ ' w = k 7 = ) { u @ e e e _ L , K e q @.q K ' _ u #   e K L < u L u = ` K ) K   y _ ' f 0 = ..u q u = @ e u w =   # u g K s , # # = u u y e # O @ 0 7 e u K = O O @ e q = # 0 = 0 u u 0 # X # # 0 w # 0 , e # 0 w # # q e q # # s s K u y #     7 0 y 0 # 7 , # 0 = @ @ 7 # # O @ 7 = # @ @ @ , @ O # # # # # @ # 0 K K q 0 0 0 0 y e w w 0 e k u e e 0 0 u k K u w , 0 e e e q q , < # # # = # # , 0 0 0 ",
"u u K ' @...' g u q q u 0 0 0 , q # # y y r y q u e 0 y y y 0 y 0 0 y y 0 7 = # = = # , K 0 = 0 0 w 0 = @ y f y = # 0 7 0 q q K K 0 0 e 0 e y 0 7 O # g K u 0 K ) # u K 0 e K _ 0 @ O 0 u =.e L } u _ K = _ #._ _ e ' y 0 u u # = u ..K 0 u u 7 K =.f # e K e _ @.y ' K 0 @.u K _ ' K # O = L u u K ' 0 K | K ) # @ ) ' K 0 = ' u 7 K q @ u k y 0   e ' f K e , 0 = q K u u 0 @ # 0 0 e y K 0 O @ # y e 0 = q 0 y K y 0 , # = 0 y q # 0 y 0 0 y y # 0 e u 0 # s K K f e 7 O @ 7 0 e q # q 0 = y # # = 0 0 = # = y = 0 = @ 7 # # 0 K e 0 K u K e k u u u u k u 0 0 0 0 q u @...` ) K u u u e e e 0 q 0 7 7 7 0 0 7 7 7 7 0 y 0 e u u u K e e e u [ u K u K K k K ) u f L L K K s e e K K K K u k _ { { ` K k k u q = # @ @ @ @ @ # # # = , = , 0 , w , 0 # 7 , # = # 0 0 y   # y e 0 @ # = # = 0 = , u 0 q 0 = 0 q q = O   , e u = e _ 7 = _ q 0 q I K , X @ 0 k ' q Y T g | g = K $.I L 0 ` u q q _ 0   0 _ ' 0 7 k 0 0 ) @.e @ u e w K K = K e K #.w e _ ' K =   # _ | q K ' u # _ K f K   0 _ _ u = = ' u 0 y = # q e e =   = K s f s 0 # , = u e e u 7 @ @ 0 7 e K ) 7   O @ y 0 # @ = = 7 u u 0 # @ # # , 0 # 0 # 0 @ = w # # q e e = # u e u u u #   O , 0 u , # = 0 @ # # @ @ # 7 # O @ @ @ # O O @ = @ O # 0 , = # o X # < q q 0 o   . @ # , 0 0 0 , = = 0 0 0 0 0 y e q q e K L K K K K L K s e q w y e y 0 , ",
"u q # u K K _ K K K _ ....' K u u e q 0 0 7 7 0 e u k u ) k u q y q y q 0 0 0 0 7 0 = 7 u , = 0 0 0 u 7 @ e u e 7 # 0 7 0 q 7 e f 0 q 0 0 y y 0 # @ # g f u q K ) # f K q q g I q # @ e u @.e I @.L | K 7 K $.I K u ..y 0 u k # # k ..K 0 y u # ) =.K = e K u ) _ , K f e @.u K _ ' K = @ 0 ' K e K ' 0 u ..f ` = = K { K 0 = ' K q u 7 # e k u 0   0 ' f K f , 0 # q ) u u y # @ 0 0 y e ) y O @ # e e 0 # 0 0 q K u 0 = # = 7 y y = w q q 7 q q # e e e 0 # e f K f e 0 @ @ 0 0 e 0 7 w 0 # 0 # @ 7 8 7 # @ = 0 = = # @ 0 # @ 7 e # o = # # # K K e 0 0 0 q q u u e e u K K w u w y u k K u y 0 u K K K f u u q 0 0 0 0 , 0 0 0 q 0 e = 0 , e { u < # , # = , 0 0 0 0 q 0 u ' ) K u 0 0 0 # # # = q q 0 7 0 q q y e 0 w u K K k y q u k e e y e ) K _ K 0 , @ # # u e 0   @ e u 0 #   @ 0 = 0 0 , K u q 0 = 7 0 y = O   , f u 7 u _ = # ' s s s | e , O @ 0 u ` g ' I K  .f # K #.H K # ' K u y K =   0 _ ..e 7 k 0 @ K { y o e q , K f = K K K @.0 q ' _ K , @ = u ..e K ' u # _ K f K O , K _ e # = ' u = 0 # @ e u e 0   # K K g s 0 X , = u e y u 7 @ O 0 0 u f K 0   O @ e q # @ = = 7 y u 0 # @ # # w e 0 0 = = @ = q # 0 u 0 e = o u u u u u #     = # 0 , @ # , # = # @ @ # = #   @ @ # = @ @ @ @ O O # f u e u q q 0 , , 0 0 = # @ O   X o X @ @ @ @ # @ # @ X @ = # , = = , , = = w u q 0 = # # , 0 y 0 = ",
"k k K K K K K K u y u u u u u e ) ` { ` ) k k u q 0 7 # # 7 7 7 , = 0 0 0 0 0 y q e q q q = = = 0 0 u # @ q u q , @ 0 0 = 0 0 0 f e e 0 0 r y y 7 @ X q u y q K K # s K e 0 K L q = @ 0 e ' e I } g | K 0 K $.I K q { u e u K # # k @.L 0 u k # ) =.) @ e e 0 K L 0 K f K $.e f ' ' K 7 @ y ..L e _ ' q e ..u ` 7 @ K { f 0 # _ K 0 y = # e u u 0 O 0 _ s K e , = 0 0 K y k y # @ 0 0 y k ' e O @ # u y 7 @ 0 0 0 u u q = # # = w y = r 0 0 7 q 0 # e w f y @ e e u K u 7 @ O 7 0 u 0 # 0 0 # 0 # @ # 7 0 # @ = 7 # = @ @ 7 @ @ 7 g q , 0 % = # 0 q e u ,   X @ # , 0 0 0 0 , , 0 q q q 0 e u u e e K K K K K K K f e q w y e e q 0 , e 0 0 0 r ` ) ) q K u _ _ _ ) K u y q e q 0 u u K ) _ _ ` ) ) K e 0 0 0 y 0 = = @ O # # # o # # # # X @ X o 0 # 0 0 # , o # # f u 0   # e e 0 e # # 0 = , = = K u e 0 = # , e = O   # K e # y _ 0 , | K s s _ u = O   0 e K s _ I I  .g # K #.L u = ' u 0 e K =   0 K | u @ q 0 7 ^ @.0 # K e w K q = u _ ` @.0 q ..K K = # 0 K ' 0 ) _ u = K K K K O 0 K ' e # # _ K , e # @ e k y 0   X L K K s 0 o , # y e 0 q # O   0 0 u K K 0   O o y 0 # X = # = y u 0 # @ # # , 0 0 0 # # X = e = 0 e 0 e # @ q q u u e #   O = O # 0 @ # , # # # @ @ # # @ O @ # @ @ = # @ @ @ O 0 L f f ) K K K u u u f y u K 0 0 , # X X # @ X                     O O O O @ # = # # @ @ @ # , 0 = @ ",
"q q q 0 y q e ) ) K f u e y 0 , # 0 0 0 7 # 0 q 0 y q 0 q u u k e 0 y u e y q y u ) K u 0 , = = q u u @ @ y K e 0 @ # 0 0 0 0 7 K u e 0 0 0 0 y = O @ 0 K y 0 K K # s ' s e I I q = @ 0 u ) K ' ' H | K , K #.L u q ' K u k K # # u .._ 0 y u # u @.` = e u 0 K K , K K K @.y u ' ' K , # y ..' e ' _ 0 u { u ` e   e { K 0 = _ K 0 y = # e u u 0 O # _ K K s , # 0 q K y u y = @ 7 q e K ' 0 O @ # e y 0 # 0 7 7 u u q = # = 7 e u 0 y = = = y y # K y u w # e e f K u 7 O O = # 0 0 @ = 0 # 0 # # # 7 7 # @ 7 = = = # @ = @ @ 7 L f q K u u e q 0 0 q 0 0 0 # @ # # # # # # @ # # # @ @ # 7 7 = = , 0 0 , 0 e u y 0 0 = 0 0 e y 0 = e 0 y 0 u { ' ..) { K ) f u e u 0 e K ` ' ' #._ ) K u 0 y 0 y e K ) _ ' ' ` K I K k u u u K K k k k u e y 0 u q u 0 = 0 # = = K f =   0 e 0 # u 0 0 0 # # # # f u u , 7 7 7 u 7 X   # K e X e ` u 0 I K q q K 0 #     0 e ` f L I L +.K 0 _ 9.K u = ) q = e K # X u K ' e # y 7 = y { = @ u 0 u _ e u K K ' | 0 e ' u ) 0 # 0 K ' 0 K _ u 0 K f f K O @ _ ' f # = ' K = y @ @ e k y w     L K K s q o # = , 0 y e = O # f q u K K q   O   y 7 #   # # 7 k K 0 @ X # @ = y y 0 # # X = e # # , , e # # u e f u e =     @   , q @ X 0 0 # # # @ @ @ @ @ @ 7 # @ = @ @ # @ O u @.....#.X.#.=.@.-.@.@.' ) ) ) ) K e 0 , , 0 0 0 = , , , , # = # # @ @ O O @ O         O             ",
"` ` ) k e e u e 0 e K K _ _ ) ` _ ` ) u e e e u e w 0 = = = # = = 0 0 0 = = # # = 0 , 0 0 7 = # q K e @ @ q e 0 e q = e 0 0 0 7 f f u 0 0 7 0 u = @ O 0 L 0 0 k ) 0 f ' f u L K 0 # O = e K K L T I  .K 0 u -._ e y ` e q u u # # u _ _ 0 7 e # y =.) # u u 0 K e 0 u ) ' @.0 u ..) K 0 # e | _ e ' ) e e ' e ' u O u @.K 0 = ) ) q e = @ u K e q O @ _ g g s q # 0 0 e y u q # O 0 e e K _ 0   @ @ y 0 7 @ 0 7 7 u K q 7 # = # 0 y 0 0 = # = e e # u , u y @ y u f u k 7   @ 7 @ 0 y # = q 7 7 4 7 # = 7 # @ # 7 # = 7 @ 7 @ @ 7 K L u _ K _ _ K K K K ) K ) u e q , = @ # # # # @ O O   X O X @ O @ X @ @ # # # # # @ # # = , = # @ # @ # @ 7 ^ e f 0 K e u e e e e , 0 0 0 y K #.@.` ) u e u e e e 0 , 0 4 # # # = = # @ @ # = = , 0 e e u u q e q k y 0 0 , , , K K 0   0 e 0 # u y w , = = = # u q u # # = = u 7 O   O f e @ u _ k e _ K s e L 0 @ O   0 q L K T H s  .f = ) -.K y = ) y 0 u ) = O u _ ' u @ 0 = 7 k { 0 # e , K K 0 u K K ' ..0 e _ e _ q @ # K ' e K K f 0 K u u K O X ) ' 0 o = _ u # 0 X O y K 0 0     K H L s q o = 0 # 0 u u = O @ 0 u u k _ , O O O 0 0 # @ 7 7 7 K K = @ @ # # # q 0 # @ 0 X = e = # , , u = # e q e e q #     X X , e # 7 e e = @ @ @ @ O @ = @ 9 7 = 0 @ @ = @ O 0 L K ) ..' ..=.=.=.@._ ) K u e f ) f f e K K K K K K K _ K k K K K K K e e q 0 0 , q 0 0 = = = % , , ",
"u y q q 0 u ) ` ' -...) ) e 0 0 0 0 y k K _ K _ K K ) ) K u u u f K u ) k u e e e k u y 0 , 0 = e ) u @ @ u y 7 y u 0 y 7 7 7 = f u u 0 0 0 0 u 7 @ O , _ 0 = u ` q K _ e q f e , # O = u ) K L I L +.K 0 _ 9.K e 0 _ q 0 k k # 0 f _ _ 0 7 u = u =.u @ e e e ' u u ) ) ' @.y u ' u ) q # y ' ) y ` K e e _ w ' u @ u ..f 0 # ) ) 0 y # # u ) e y O X u K K g q # 0 7 0 q k y # @ q u k K ' 0   @ O q q 7 X 0 7 0 k K 0 @ @ 7 # 0 u 0 0 = # = 0 y # w , u y @ u e f f u 0 X O # @ 0 e # # y 0 = 4 7 # @ 7 # # 4 0 = 7 7 @ 7 @ @ 0 X.@.' -.@.-.,.,.,.-.-.=.` ) _ _ ) K u q 0 w 0 y y q q 0 e 0 q 0 0 0 = # # # # X @ @ @ #   @     @ O X   o   y [ # @ @ f u e 0 0 0 q q e w 0 0 y K u e e 0 0 u k K u 0 , e f K K f u e q , , , , , 0 0 0 = , 0 # = @ = # # y 0 0 , k ) q   0 e 0 # e 0 u 0 # # = # q 0 k = # = # w 7 @ O O e u o 0 K u e ' K f e L e =     , u K g I L s | u # K 9.K e 0 ) 0 0 u u # O e _ ..w @ r 0 7 u ) = y K , K K 0 K K f _ ' 0 0 ) e ' t @ # _ ..q K K u = K u K L   X ) ..0 # = _ u # e # @ e K 0 y     u K f s q @ @ 0 # = 0 w # @ @ = u u u _ , .     0 0 #   # = # u L q @ @ # # # 0 0 =   y O # 0 0 @ 0 , u 0 = s q s s 0 #     X X , e # = 0 0 # @ @ @ # = # = @ 7 @ 7 7 @ @ = @ O # q < , q q q u u e 0 0 # , # # , 0 = , w K K K K u u 0 q 0 0 e 0 0 0 0 0 q e K ) K K e y 0 q q K K K ",
"u u u e 0 0 0 0 y ` { _ ) u u K k u u q , 0 = # # # # # # @ X # # # = y y u e e q u u y q 0 y = e ) k @ # e y # y e e q = , 7 7 e q u 0 7 7 0 u 0 # O @ _ q = u ' u K _ u f K K 0 @   0 e K L I T s  .K = ) -.K y 0 ) q y k K @ # K ' _ 7 7 y 7 u ,.) # u 0 e _ q K K ) ' X.y u _ e ` q X 0 .._ e _ K e e L q ..q X u @.u # # K K 0 0 # @ e ) y e O O _ K K f e # 0 0 = y k y # @ 7 e K u ` q @ @   q y 7 @ 0 0 0 k K 0 # # 0 # = e 0 # = 0 = q e # , , u e # e u e f e 0 X O # # 0 e = 0 e e 7 @ # # # # = # 4 0 = q = @ 0 # @ 4 ) e 0 ) f ) ` ....{ _ f u e q u ) K k f K _ K ) ) K K K K K K K K K K u f u u u u u e w 0 0 , q , 0 w , 0 , u ` q o . , , e w =   O @ # 0 0 0 0 0 = = 0 0 0 0 0 y e e q e K K K K K f K s e , , 0 w y 0 7 , e 0 e w e w # w 0 0 # e K K X y e = # y 7 f w # @ # @ 0 0 e , = , = y e 7 O O e u = K _ u e ' L f s K K =   O , e K s H L s +.u = K 9.K y , _ 0 0 k K # O e L _ y @ 0 = 7 ` ` 7 u K 0 K _ u ) ) u ) ' , 0 _ 0 ' e # # _ ..e K K e = K u K L   # K ..e # = ' u , f 7 @ q K , u O   q s s s u # @ 0 # 7 q e =   O # y u K _ w 0 , X q 0 #   # = # e K y # O @ @ # 0 , # O 0 O # 0 q @ , # u # # e q e e 0 #     O   # , # = 0 0 # @ @ @ @ # # 7 @ # X 0 = @ @ @ @ O u } | _ X.X.@.X...L L L K f f u y 0 , 0 , = # = = # # = , , 0 q q u u e e 0 , 0 e e e q u K e w q 0 , ",
"0 7 0 0 y u u e e u u e e q 0 e u f e w 0 f K L _ K K f e u e e e e e e 0 0 0 0 = 0 = , 7 0 e , y K ) # # u q # 0 e e e 0 # 7 # 0 y u 0 7 0 = e 0 4 O # _ y 7 u _ q K ' f K K L q #   = u K K L I s  .f # ) #._ y y K 0 e K u @ # K ' ) 7 7 y = u =.u 0 _ w e _ e K ) k ) ..0 y ` e ' y @ 0 ' ' q _ K e e L q @.q   e ..K , # K K , e = # e ` 0 y O O u K K s q @ 0 0 # q e y # @ # e k u ) u # # O 0 r 7 @ 7 0 # u _ y = @ 7 # = y y # = 0 # 0 y 0 7 , e e # u u u s e = X O @ # 0 e 7 0 w 0 # 7 4 # 7 0 7 = 7 7 = y 7 @ 7 @ O q L s 0 f u f f f f 0 0 , 0 0 , = 0 = = q u u f u u e y e 0 y u q e e e q e u K ) K k e e e q s K K e e e e < 0 [ e q 0 0 % , 0 , = @ X   X X o @ @ @ X # @ @ @ @ @ = = # # = = = = 0 e e 0 , = = = w e 0 = = w , 0 , w , @ 0 , 0 # 0 k e @ e y = # y 0 K e # # 7 @ = 0 K K 0 y u k 7 @   O y e 0 _ _ u u _ K e e f k 7   O = e f I L I K @.f # f #.K q 0 ) e y K K = @ u K _ 0 @ 0 # = y y # e K u L L f ) K u ) ..0 0 _ 0 ) y @ @ _ @.u f K e # f u s K   X u X.q # # ' u , u = @ e ) , u O X q K s s s @ @ y = = y e 0 X O @ q e u K u ) u = y 0 #   = 0 7 u K 7 @ O # = = 0 0 0 @ 0 O # , 0 @ = , K = @ w q e u u 0       # = = # # 0 e # # @ @ @ @ @ @ @ @ = u = # # # @ O , L _ L ' K | } ' _ X.X.X.@.@.@..._ _ ' | K K K K f e q 0 = = , = # o X X X o # # # # X @ o   .   X X ",
"q # O   @ # , , 0 7 , = 0 0 0 0 0 0 u u e e u u e e e f f u q 0 0 , q w 0 0 q e e k u y = y e 0 0 y K % # u q = 0 y u u 0 # 7 # 0 0 u w 0 0 0 u u 0 @ # K y y K ' y K | f K f K 0 # O = e K I L I G +.K = K $.K e q _ e e K K @ # u _ K 7 7 0 = u ` y w _ e f ' f ) ) k ) @.w e ' e { e # 7 ' ' e ) f y q L 0 ..e o y { K 0 # _ ) 0 u q @ e _ 0 k @ O u f f f e @ 7 y = y e e 7 O @ 0 u K _ u u e , y y 7 @ = 0 7 u K y 7 @ 7 7 7 q q = = 0 # 0 y 0 = = e u @ y u e K e 0 @ O @ @ = 0 = 7 y y # # # @ 7 = 7 4 = # 7 y = # 7 @ O 0 _ @.' #.X.$.#.$...' X.| ' _ K K K e u e 0 0 0 0 0 , , 0 0 0 y e q e q 0 0 0 0 e e q 0 u u 0 0 0 0 , y 0 0 % u =.K K f K u u u K u k y 0 = # X   # @ X                 O O     O O @ # # @     X @ # # @     X X @ O @ X X 0 , , # 0 K ) # y 0 # # u , L 0 # @ 7 @ # 0 K K , e k k 7 O   O 0 y 0 _ ' k f L f q u s k 7 O O = e u H g L s } e @ f @.K 0 q _ q e f u = @ 0 L ' f @ 0 @ # 8 r = q q u ' L s _ K u K ' 0 , K 0 K 7 @ @ ' #.f e f 0 # K e K K O @ e ' e , = _ e , u # @ q u # u     0 K s s K # @ 0 = = q q 0   O @ 0 u K f u { u # e 0 # O = 0 0 e e # # O = , = q w 0 = , @ # , q   @ = u # @ 0 q q e 0 = O     @ 7 , = # = 0 @ @ @ @ @ X @ # # @ = u = # # = @ O # q q 0 e 0 0 7 = 7 e 7 = e y y f e u y ) _ _ _ _ ' ....| | | | ' _ K K K L K f q q 0 < 0 , , , 0 0 0 ",
"e 0 0 0 # @ # # @ # # @ @ @ @ X O @ # # # # = 7 = 7 0 y y 0 7 0 0 0 e e 0 = 0 0 0 0 0 0 # 0 0 = = 0 ' 7 7 u 0 # y 0 k K 0 # 7 # = 0 K _ e u K k 7 @ O @ e y u | ' e K ' u f f K 0 # O # u u _ H I K +.f # u #.L e y ) q u K u # 0 K _ K # 8 7 # r y 0 0 K u ) _ K ) K u K ..y 0 ` q ) q # 7 ....u K s q q ) q ' q   y .._ e X L K 0 e 0 @ w ) 0 u @   q K K s e # 7 e # q e y 0 O # 0 u u ) u ) K 0 q y 7 @ 7 y 0 u K 7 # @ 0 0 7 y e 0 0 0 # , 0 7 # = e e @ 0 u e f u y # O @ # 0 0 = = e e # # 4 @ 7 # = = = # y e = = 0 @ @ 7 _ K f ' f ) _ _ K _ ' ' ..@.@.#...' ` @..._ _ ) ) K u e w y y 0 0 = # # , 0 , = 0 # @ # @ @ # # # @ = X = # ) ;.' #.X.:.@.-.@.@._ ) _ K K e 0 , 0 w 0 0 , , , 0 , # = # # # @ @ @ @ O O     X @   X     O       X   # X O 0 , 0 # 0 ) K # e 0 @ # u 0 K 0 @ @ # # @ 0 ) ) 0 e 0 K r # O O = e 0 _ ' K u f e e u f K # O O # e e K K K , L e 0 u 7.K 0 0 _ q e ) e , O q f #.u = 0 = @ 7 r = y , u ' K 0 K ) K ' ' q = K 0 K 0   @ ' X.K e K 0 % f u f K O X e _ K # # _ q , 0 = @ 0 e @ u O   , K G s K # @ e 0 7 y 0 , # # # 7 y k K k ` K = u 0 # O # 0 0 e q # = O 0 0 # 0 w 0 , , O # = 0 O   = u # # 0 0 0 0 # @ O     O # , 7 # # 0 # @ @ @ @ O @ # @ = # y # O # # O O # , = # # o # o X         O X X @   O . X @ , 0 = 0 e e u K K K u K K f e f K K K K K K K K K K K k k ",
"K u K K u e 0 = @ # = # # @ @ X @ @   X @ O O     O @ @ X @ O X X @ @ @ X O O @ X @ @ # # 0 0 = 0 e { 0 0 e , @ e 0 u K 7 # 7 # # 0 K K 0 u u ) 7 @ @ @ y y u ` ' e K L e s s K e # O = f q L f L s L u 7 K 9.L 0 e ` q u K u = 7 y } ' u 0 0 # 8 0 0 y u e ' ' e L ) f ) ..w 0 ) 0 ) 7 X = X...u K u 0 q ) u ..0 @ q ' _ u @ K f 0 e 0 @ y K = u @   0 K K s g # 7 u # y e 0 , @ # 0 e k ) u ` ) 0 y y 7 @ 7 0 0 u u = = @ q 0 0 y e 0 0 7 # = y 0 @ = e e @ 0 e 0 u 0 7 # O X # 7 0 0 7 0 0 # # 7 # @ @ 7 = = # r y = = 0 @ @ 7 e q , u 0 0 # = # 0 = e 7 e e u y K e u K K K K _ ....X.......| } _ _ _ ' _ K e u e e e e u u u u w e 0 0 = ) ;.K _ _ -...' ` _ K u e u ) K K u f K K K K K K _ K K K K K K K e e e e e e e q 0 , , , q e , , < 0 < e , O 0 , 0 @ 0 K k # e w @ = e q _ 0 @ @ # @ @ , L _ 0 u , e , #     = e q ` ' K e s e e u e e # O   # e e K g K , K q = K #.K 0 , _ u e k 0 , O 0 f @.e # 0 @ # 7 r 7 y # q ' K 0 u ) f ' ..q = K e ) ,   0 L ..f 0 u q = u e u u @ X w _ e # # ' e 0 0 7 O w e 7 e     , f K G G # @ q , = 0 # # @ @ @ # y ) u e f u = u 0 @ O # 0 0 e 0 # =   , = # 0 y 7 7 0 @ # # ,   X = e = # 7 0 , = X       O O # , # = , 0 @ @ @ @ @ O # = O # # y # @ = # O @ = , o o # o # # o # , , % , , , , 0 0 e 0 0 0 # @ @ = # y u y 0 7 0 = # # = , # # @ O 7 @ @ O O O # # ",
"=.{ _ ) K ` K u e 0 q w y e e e e u q 0 u w q w 0 0 0 # # # = # # # # @ # # # # # = , , @ q q = = y { 0 0 u 7 @ e 0 k u # # = # # 0 K _ y u 0 k y = @ @ q y e ' ..u f K e f f K e # O # u 0 K K K q K u 0 L 9._ y r _ e u K q , @ u ..X.0 0 0 = 7 r 8 r 0 0 _ _ 0 u ) ) ..@.0 = K 0 ) 0 O # ....e e u 0 0 K e _ 0 @ e _ _ e # K k 0 0 0 @ w u = u @   0 K H H K # 7 u 0 y y 0 0 # # = 0 u _ K ) ) q e e = @ = y 0 u y = 7 @ y 0 7 0 e 0 0 7 @ = 0 , O # 0 w # w q 0 q , # @   @ @ = 0 0 = 7 0 # @ = # # @ 7 # # # 0 0 @ = 7 @ @ 0 0 0 @ = X # # = # X @ X   X X @ @ # # # # # O 0 = q w e e u f u u u e w u K K k K K K K K K K u u e K e u 0 k o.f u , g q q 0 % , % @ # 0 , , e f K K K u e 0 0 , 0 e 0 0 q 0 0 q u K K u u q q q q s K K e e q e q e , O 0 0 , O 0 ) k # e 0 @ = 0 q L 0 @ @ # @ @ 0 ' _ 0 f 0 e = X   O , y y { ' f e f e s q 0 u # O   = e e L I L q K q # K @.K , # K K u u 0 # O 0 u ..y @ y = @ 0 y 7 y # e ..} u e ) u ) @.q # u K _ y   , K @.L 0 f q % u e q q @   e ` u # # u e = < 0 O 0 e , e @   , L H s s # @ 0 , # q @ # # @ @ O 0 ] u e K k = u 0 @ O @ , w f 0 X # O 0 0 7 0 y # # 0 @ # = 0 O @ 0 u 7 @ # 0 , # @ o O     O @ = = = 0 0 @ @ @ @ @ O @ = O # = 0 @ # 0 7 O @ q K e u f e u u u u f e u e q f K q , 0 0 # # # # = , = u y y 0 7 7 @ # # @ # @ # @                   ",
") e e q e u f u u K K K ) K K u K e u K u u u u e e u K K f u e q w w u K f e e q u e , @ y 0 , # 0 ' 0 0 u 0 # e 0 K e # # = # # 0 L ' e f 0 u 7 # @ @ 0 y u { ' e q K q K e u y #   # e y K K K e K e = k #.K q 0 _ K u u 0 = # u ' | 0 8 0 7 8 y r r 0 = ) ' s e ` u _ @.u , K u ` e X e ' ..f e f 0 0 K e K 0 O y K K y @ K K 0 0 q @ y u 0 u @   q K H K s # 4 u = 0 7 = = # # # 7 ^ ) e K K 0 e u # @ # y 0 u q = 7 X y 0 0 q e 7 q 0 @ = , 7 O 0 e e # = 0 0 7 # @ @ X @ @ # 0 7 0 0 0 @ @ = 4 # @ 7 # # 4 0 w @ 7 0 @ # y u w # 0 , 0 = 0 0 0 e 0 y q y u u e s s e e q # = 7 7 u k u r 0 0 7 4 # 7 7 # # @ @ @ @ @ @ @ @ @   # O @ X y =.' X.' #.' L _ L K K u e q , , 0 = # # = # # = , , 0 q 0 q q e q , , 0 y q 0 0 e e , , , = , 0 = , # 0 # # 0 0 , O 0 K u # e q @ 7 0 0 K 0 @ @ # @ @ 0 ' _ q K u u 0 @ O @ y e y { ' f e g , e e e K 0 O   , q e f K K , L y = K @.K , # u K y , 0 =   0 K ' f @ 7 @ 7 r 8 @ y = 0 ` ' u q ) u K ' u X u K ' e   , K ..K , e e , q K e y X O e ` e # # K K 0 # 0 O 0 e q y #   = K s e s # @ y 0 # q @ = # @ @ @ 0 u 0 u K u = K q #   @ 0 e k 0 X # O y 0 # 7 y # # 0 O # , 0 @   , e = @ = q = # # = @ O   O @ = 7 # 7 7 @ @ @ @ @ O O @ O O # y @ # 0 = O O , q w 0 e 0 q 0 0 0 y 0 0 y 0 q 0 , < s L L H L K K K e e q u e e e y e e 0 q u u e 0 w , = = , = = # ",
"0 0 y 0 , = = # 0 q e u u e y 0 0 0 q u q e e u e q e u f u e e u e q s s e q e w q e , # e q = # q ' 0 0 u 7 # e 7 ) u # # 7 # # 0 _ ' e K e u , # @ @ q y u ..' e e K q K q f e # @ # q u L L _ u K e , f #.u 0 = K K u e 0 # # u _ ` 7 0 y 7 7 r 8 r y 7 _ ..L e ` u ) @.e # u K ` 0 O 0 ' @.K y K e 0 f u u 7 O w ) ) y @ K K e 0 y @ 0 u 0 e #   0 L L K s # # u , q y # 0 7 # # = u k y K K q e u = @ # 0 e K y # 7 @ e 0 = 0 e = 0 0 @ 0 0 0 O 7 e y # # q 0 # = = # X O # # 7 8 0 0 0 # @ # # # @ 7 7 @ # 0 q # 0 y @ O 0 L K u K K ) K K k K K u u e e K u 0 < e 0 = 7 0 0 e 0 y y y 0 0 7 = 7 7 # # 0 0 # @ # @ @ @ @ @ @ @ # # = # u ;.K _ K .._ ' X..._ #.@...' _ ' ' _ f K K f u y 0 7 = 7 = = @ o o # = = # # o   o   X X # # # @ X # O @ @ , w , , O 0 ^ u 7 e 0   q 0 0 K e @ @ # @ # 7 f ' q K e u = @ O X y y = ` _ u , K , q e e K 0 O   = e u f K f , L e # K ..e 0 # k K q = e 7 X 0 K ' u @ 7 @ 7 y 0 @ 0 = e ' ..e 0 ) u u ' e 0 K K @.k   X ) ' e , k u e < K e = O   e ` K = # u K 0 # ,   # e e 0 #   , s s e e # O 0 0 # y @ , = # @ @ # = 7 u K e = u 0 #   # y e u 0 # = O r 0 # 0 q @ # 0 X @ , 0 # O # , @   = w # @ # = o O   O @ @ = @ 7 0 @ X @ @ @ O O @ O O = e @ @ # # @ @ q K K e f e u u e w q , , , # # # , q e f K u k f e u , = = y 0 y e e q q q y u e y e y 0 0 e u e q 0 ",
"@.| } _ K f e u u q 0 0 y 0 0 0 0 = 7 0 0 0 , < = # = , 0 0 0 0 w 0 # = # = = = , = = # = e q = @ e ) q 0 u = # u # K u # # 7 # # 7 u ' e K u k 0 # @ # u y u o._ e u f , K e K k #   @ q u f K K q K u = K @.K 0 # f K q 0 e 0 # e ` _ 7 7 0 @ y y 7 0 0 # K @.K , ) u K ..K = f K @.u   q _ _ u w u s 0 e K e 0   y ) ) y @ u K u # w @ 7 e e y 0 O = K f e e = # u 0 0 q # 0 # # # = y r e ) K q e u # # # q u K y = 7 @ u 0 # 0 y # 0 0 O 0 0 0 @ 7 0 0 @ # w 0 # , = # @   @ # = 0 # 0 0 # @ @ # # O @ # O @ 0 y @ = 7 # @ 8 K 0 = y 0 0 0 , , , y 0 q q 0 0 0 e K ' } ' ' ' _ _ u u u K k K K k K u u u K K u u u q 0 y 0 0 , = 0 , = X y { q e = 0 = 0 0 = 0 q y e u u e K ' ' _ ' _ ....| ....| _ _ L K K _ L f e u u q u 0 e e e e 0 0 0 w , 0 , u e , # O 0 ) e = y 0 O y 0 y K , O @ # @ # 7 s ' q L f k = X @ @ y e = k K e = K % u e w K 0     # e u e s u e L e q K @.s w # e K 0 # e = X 0 f _ u @ 0 = @ 7 0 @ 0 = 7 | X.e 0 ) u q ' u 0 e e { u   @ ` ..K , u q u , _ u = O O q _ e = # e u w # ,   @ w q # X   # K s s u % @ 0 y 0 e @ , 0 = @ O O O @ 7 0 0 = K 0 # O @ y e e 0 0 7 O # , = 0 e = = 0 O @ = = @   @ 1 # @ = 0 @ @ # # #     O O @ # @ 0 0 = @ @ @ # @ @ @ O O 7 e # # # @ O @ e _ { K ) u ) ` { ' ' ` K e e u w u e u u e e q u k u u 0 q y 7 = = 0 , 0 0 0 , # # # # @ # 0 0 = , 0 ",
"` _ K @.@.@._ ` _ @._ _ _ ` _ K f e e u e q < 0 0 0 y 0 , < = # = # # = , , = # = = # # u 0 0 = # q ` q y u # 7 k 0 ) e # # = # # 0 u ..e K f K 0 @ @ # e y 7 ` ) y q f 0 K e u u #   X 0 K f K K q K K = K @.K y 0 K K 0 0 e 7 # u ) ) 7 7 0 @ r y 7 7 0 0 K #.K 0 ) K e _ u q ) k @.u X @ ' ` e y u u e e L e = O 0 ) _ y # e K u = 0 @ # y u 0 = O , g K s s # @ e 0 0 q = q 0 # # @ = 7 y K u q e u # @ # y u k q 7 7 @ r 0 = q y # 0 0 O 7 0 0 @ @ , 0 @ = w 0 # = = = #   @ # # 0 @ 0 q = @ = = = @ # # @ @ y y @ = = @ @ q ` _ f ` ) K K ) K k u u 0 = , , , e 0 e u e u e e y , # # q 0 0 0 0 0 0 0 q y 0 0 0 0 , e k u e u e k e e , 7 [ 7 X   # O           X @ X X . @ @ # 0 = 7 u e u k u K u u u u y u K K K K K K K K K u e e e u e e q K e ) u = # O = k u 7 e 0 @ u 0 0 k w = # @ @ @ # u ' e K u k 7 @ = @ q e # = e q , s # e K q K 0 X   # e f u f u f ..u q _ ' e 0 # e K , # e # @ 0 u ' q @ 0 @ @ 7 r @ 0 # = ' ' e 7 ) u q ..f 0 0 e o.u   @ _ ..u # y 0 e = K e =   O q _ e = @ e 0 # # , O X 0 e # @   = g g s q 0 # , 0 r u # = 0 , X O   O O O @ = , k 0 #   @ w e e 0 0 # O # 0 q u K = # 0 @ @ # = # O @ 0 # # # , @ @ # # # X O O O @ = O = = @ @ @ # @ X O O O O = u 0 # X O O # 0 0 0 # = = 0 e y 0 y e 0 0 s u w u u f f e u e f K K K K K K f K K L L L K K K e k u u u u w 0 0 0 0 ",
"0 0 = 0 q y 0 0 e k k k K L _ ' ' ....| ' ' ' _ L ` ..K K K f K K u K K ) u u u e e e e ` e 0 # # 0 ` q 0 e # 7 k = ) y # # 7 # # 7 u | u L K k 0 # 7 = u u 7 u K w q e , K u K K = O O 0 ) u K s s ' K e _ #.K 0 # u K 0 7 u = # 0 K ) 7 7 0 # = 0 7 = y # ) @.K 7 ) K q ` K 0 e u @.u @ 7 ' ..u 0 e u e e _ y # O , K _ y @ q e w = 0 @ # 0 e # = O 0 g K s e , # y y e y # 0 q # # @ @ O # 0 7 w e u 7 @ # y e u 0 y 7 @ 7 0 0 e k # 0 0 @ 7 , 7 # @ 0 0 @ 0 0 , @ = = , #   @ @ # 0 @ 0 0 = @ @ # = @ # # @ @ y y # # # @ # y K ) f K u u u ) ) { { ' K u K K K K K K K K K K ` _ K K u u e e e e u f e e 0 0 0 0 0 = 0 7 = = , , , , , , 0 ] # o o , o = , # , = , 0 , 0 e q , , # @ @ = # y u y y 7 0 = @ # = # @ @ O # # O O @ @ O O O X X X O # # u e # # O 7 ^ u 7 e 0 @ K 0 0 _ K u 0 0 # @ # H ' 0 u y y = @ @ O 7 y =   y 0 , e # e q # e , X   @ q 0 w K e e ' q 0 f K e 0 = K _ , @ e = @ 0 e _ 0 @ 8 @ @ 7 y # y # = K ' y 7 ) k e @.K = 0 u { y   @ K | f , u 0 e 0 K e #   O q L e # X y , # # , O X 0 e o @   @ e K s 0 e , , 0 y y @ # 0 0 @ @ # @ O   O = 0 e 0 = X @ 0 u e , = @ X @ , 0 e _ , = , X X # # = O   0 # @ # 0 @ # , # # O O   @ @ 7 O @ @ @ O @ = # O X @ @ O # r = # @ O O @ y e e 0 u e e u y = # # X # 0 , o @ # = , # # # # = # , 0 y y e 0 0 w q w q q e u e e u K u u e u e s ",
"# @ @ @ @ # # # #   X # = # 0 0 q e e u y e q 0 , y u y u e e u e e e y y 0 0 q 0 q q q _ q 0 # # y ) y y u = 0 k = K f u 0 , # # # K ..e K u k 0 # 7 # q y 7 7 u w q e = L q e u 7 X @ 0 k u K f e ' f q K _ K 0 = K K 0 = u # 7 0 f ` = 7 8 @ = r 7 7 0 @ K X.u , k k e @._ y y k { u O 7 _ ..e 0 e e 0 y K q # O = K K y # q e , # q # @ 0 u # # O 0 K H s q e = y 0 u y # 0 y = # @ @ @ @ # # e e q = @ # q u u 0 0 # # 7 0 e K ` # 0 0 X 7 = 7 7 @ 0 w @ = 0 , @ 0 7 7 # @ @ # # 7 @ = = # @ @ 7 # @ # # @ @ 0 u 0 # @ @ @ 0 0 = @ # # = 0 y , 7 = = # 0 e q 0 q e u e 0 e e u u u u u u K K K K L L _ L _ K ` ) _ ) f e e u u w y = , = K =.e u e f u K K u e q e K u 0 , q , # # # = 0 = e y y 0 7 7 @ = # @ # # #         O   O O O   X # # O O @ K e # # O # k u 7 e = # k 7 0 _ _ K 0 , = O o s ' 0 q 0 = @ @ O O = y # O y u 0 e = e q # e , @   @ w w e K e e ' , 7 f K u 0 # f _ % # e = X = e @.q = 0 @ 7 u k 7 u = 0 ..' e # u k q @.u = 0 f ` 0   O L @.s , e 0 q , K e ,   O w _ K , X w 0 = # 0 O X , 0 # X     s K e q e 0 , = e y @ # 0 0 # 0 0 , = @ O = u q q 0 @ O 0 u e , 7 @ @ @ 0 0 e ` 0 0 q @ @ # # w @   0 # @ # , # # = # # X O   O @ # X = = @ O O # @ O @ @ @ O @ = O @ @ @ @ 7 u k K e K K e u u e k u e e u f u e e e e e e e y y e y u f e e = @ O O O O O O             O X X @ # ",
"e q y q u u e u f u e e 0 # 7 = y u e y 8 0 7 4 # = # @ @                 O   O @ @ @ 0 ) 0 , # @ 7 ) y y y # y k 7 K ' ) u q , # # u } e e y r 7 # @ @ 0 y # # e u q u = K , q e = O # 0 e q K k e ' e 7 u ) K r 0 K _ = # u = = 0 f { 8 9 0 # 0 u r r y = k @.f = u K q @.K 0 0 K { y   0 _ X.f e e e w e K 0 # O = K _ e @ 0 y 0 # e # @ , e # # O = f K s e e 0 0 0 u y @ , y , # , # = @ @ # y q e w # @ 0 e u 0 7 # # # 0 0 u ` 0 0 0 @ 7 = , 7 O = 0 @ = 0 , # 0 = 7 # @ @ @ # 7 # 7 7 @ @ = 7 = @ = # # O 7 7 # # # @ # y ` ` f ) K ) K ) u e w 0 = 0 0 0 , = = 0 0 0 0 # = 0 0 y u e y , # # # # # # 7 7 4 7 7 0 0 0 y w e 0 y , 7 , ' @.e , = 0 # 0 q 0 q 0 0 0 , , e K H K K K K K e e y u e e e e e e w e u u e e q 0 , , , , = = = , = O X X K u = = O 7 u u 7 e = @ u = , K L f 0 , # O o q ' 0 q e = = # O   = y 7 O 7 e q e = u q # u 0 @   @ q e 0 f e 0 L 0 e u u q 0 = g K = = u # @ 0 u ' 0 @ 7 @ = k k 7 u = = ) L e O e K y X.u 7 0 K _ 0   = _ ..f q u 0 0 , e y #   O 0 ) K 0 @ y e 0 # 0 X @ 0 0       O e s q 0 q , , = y y @ # 0 0 # 7 0 , , = @ , e 0 q , @ O 0 q 0 , = @ @   , 0 e ` q 0 0 # # # # w @ O 0 # X # , # X # = = X O   O @ @ @ # @ O O O @ @ O @ @ @ @ 7 0 @ O O @ X = @ O O   @ X @ # # # 0 0 0 y k u K u u u u u e K K ) e 0 y 0 e u u K k K K k u e q w 0 w , w , , # # # ",
"K e e q f e q , q e , 0 0 q u 0 q y y 0 0 0 0 0 0 , 0 y 0 7 7 = = # = = = = # , 0 = @ 0 ) y , = # 0 ) y y e # 0 u # f _ L u , = # @ w _ e e e 7 = # @ O 7 y = @ y k 0 e 0 K , 0 u 7 O @ 0 u e f u 0 _ e q K K u 0 # f L 7 = u = # 0 K ` 0 7 7 = y ` y e y # u ..K # e ) q ..K 0 q K { y   # ' ..u u u e 0 q K 0 #   , ) _ u # q e e # e # @ , e # # O # f K u e u q 0 0 u y @ 7 y 0 = e 0 0 = # # u e e e 4 O 0 u e 0 0 # = # w e u ` 0 0 q # 7 = 0 0   # 0 @ = 0 , @ 0 = 7 # @   @ # # # 0 7 @ @ @ 7 # @ # # # @ 0 = @ @ # @ # y e 0 = y 0 y q e y y k K u ) ) _ ) K K K K K _ K K K u K u K k e q 0 0 0 0 , 7 # # # # # # # # # # @ # @ @ = u =.f e e f e y 0 , 0 # = # # q e f K K K f s u 0 = = y 0 y e w 0 0 , y e 0 0 0 0 % 0 K e e y e u e q , w , k e # = O 7 u u 0 k 7 # u = , K L g 0 # # O @ y ' 0 0 u = 0 0   O = u q X 0 u u e , u < # u 0 X   X 0 e 0 K e y K , e u u e e , K K 7 0 K # X 0 u @.0 @ 0 O @ y K = e 7 # ) ' u X e K y ..K # = u _ =   = K ' u q e , , # u e = X   q _ u , @ = 0 w # w X @ e e o X   O e e 0 0 u 0 , # 0 0 @ @ = 0 # 0 0 = 0 # # 0 e , q , o O 0 q 0 , = # # X , 0 e ` y # 0 # # # # 0 O   # # X = , # o # , # @ O   O   O @ = # @ O O O @ O @ @ @ @ 7 0 O O @ @ O 7 # # = # = # 7 0 , # # O O X # O @   O         X X @ O O O   @ @ = 0 0 = @ # @ # = 0 0 w 0 e e e q q q ",
"0 0 0 0 0 = 0 e K ' _ _ ` _ _ K e y k u k K K K K e K ) K k K u e e e e 0 0 0 w 0 , = = _ e 0 = @ 0 ^ y y e # q u # f L L e , = # @ e ' e q u 0 0 0 @ @ 0 u 0 @ 0 K e e 0 u , y e 7 O @ 0 u e u u q K e e K u e y 0 K ) 0 0 K = # y ) ` 0 7 7 @ 0 ) u y e @ k ' K = 0 ) y { _ 0 0 K ..y   0 _ ' e e q w , , K y #   = u ) u , 0 e u = e = # 0 u # # O @ f f e q e 0 0 0 e 0 @ 7 y 0 # y 0 0 0 # 0 e 0 u q # O 0 e 0 , 0 = = @ 0 q u ' y 0 0 # 0 # 0 0 O # 0 @ = , , # , 0 7 @ @ O @ @ # # = = @ @ @ # # @ 4 = # # y 7 # @ # @ # y 7 @ X # X # # 0 = 7 7 7 = 0 0 q 0 0 7 # # 4 7 0 y 7 7 7 7 q y u k K u u u e u e e k u e K e 0 0 0 , 0 # , # u @.f u u ` ) { { _ u q s e u e e u s e q u u u u 0 q y 7 7 0 0 0 0 0 0 , # = = = # = = # # , % , , , # , # K u # = O 0 u u y k # @ e # , K L K 0 # # O   0 } q 0 u 0 = # O O = u 7 @ y u e e , u q , K 0 X O @ q K u u q y _ , e f k e e q ' K 0 , K @ @ y e { 0 # 7 @ @ y ) 7 y # # K ' f X u K u _ u # # u _ e   X L ' e e e = , = e e , @   0 K e , @ # 0 0 # q @ # e K =       q e 0 0 e 0 , = 7 0 @ O = w # = = = 0 # # , 0 , 0 = X O 0 e , = 7 7 7 @ q e e _ 0 # 0 # @ X # q X   = # @ , = # # # , @ O O   O   X @ @ X @ O @ @ O     @ # # = = O @ @ = @ = 0 y y q y 0 y y y = = = 7 0 = 0 y 0 0 0 0 0 y e u e y y 7 # 7 = 0 = = @ O O O O O O   o   @ X X @     ",
"k u 0 , 0 , 0 0 0 e q q 0 0 y 0 = # 0 = 7 7 = = , 7 0 0 # # # # # e e q y u e e e e e 0 ) q 0 = # 7 ) e u u # 0 e # e L L e , # # # 0 ' e e k 0 0 0 # # 0 k 0 = q ) e e 0 e 0 q f 0 O @ = u u u u y L e e K k u u e ' L 0 q ) # # y K ' 8 7 7 @ 7 k u r q @ u ..) = y ) e ` ) 7 # u ' 0   0 L ' e e e 0 0 0 K e ,   = K K 0 = @ 0 e = q = # q K 7 # O @ u e w 0 u q 0 = q 0 @ # q 0 # 0 7 0 0 = 0 e 0 e 0 = O , e 0 0 0 7 7 # y e u ' y 0 0 # 7 # 0 0 O # , # , 0 , # = 0 7 @ @ O @ @ # # = # # @ @ # @ @ # = = = y 7 # @ 7 @ = y y 0 = q , 0 q e q 0 = # # = # 7 7 # # @ @ # = = 7 = = # @ # # 7 = 7 # O @   # # # 0 0 0 0 0 0 0 0 # = # , q ) { , # # e 0 0 0 w , 0 K y q u e f f e s s K K K K K K f K K I L _ L K K K ) K K K u y 0 w y 0 , = = # , , k e # # O 0 u y y u # @ u @ = K K s 0 # # O O 0 ' w e K 0 @ O O   # u 7   0 0 e e , s s s K q X O X w K K y 0 q ' y u u K e e q } u # # K # O y e ` 7 @ 7 @ @ q { y y # , f _ u @ u u e _ K = 0 f ' e X = e } u q u = , , u e # @   0 K e # @ = y u , 0 X X , K # o   X q u , , y 0 7 7 7 0 @ O # , # = = # , X O @ , 0 q , X O 0 e 0 0 0 0 = @ 0 0 e ) w = w # @ @ # q O   = @ @ , # # # % , @ O     O @ @ # # X @ O O @ O O @ @ # @ = # @ O X # @ = e u u e e e u e e e q q y e y e e 0 K K u y e ) _ K u = O O # y ) ) K e y q y q 0 0 e e , q , , < , % ",
"` K e k K K K K K L K K K _ ` _ ) K K u u u K f K u u e e u e y y 0 = # = = # # # # # % _ y = = # 7 ) r u u @ q y @ s L L u , # # @ 0 ' e 0 k 0 # # @ @ 7 u 7 # y k e e w s s e K 7 @ @ , g K e e 0 _ e u K k u u u | K 0 0 K # # u f _ 7 7 7 # 7 K k y 0 = u ' K = y K u ` K 7 0 u ' y X 0 _ | f e e 0 , 0 K e 0 # @ u K 0 = = w u 0 0 7 # 0 ) 0 # O # k u q 0 e q 0 7 0 0 # @ 0 q # 0 = 0 7 @ # 0 0 e 0 = O 0 u 0 0 0 0 0 @ q e u ` y 0 0 # # # 0 w O # 0 @ , 0 = # 0 0 = O @   @ @ = # # # @ @ @ @ @ @ @ # # = 0 = # @ 7 # = q u u 0 u q e e u y y 0 q q y y u e u k u u u K ) K k e 7 # 0 q u e y 0 7 7 4 # # # 0 , # % = = % # X @   O # ) { e e e K 0 0 = # X # 0 # @ # = , = @ # # = = , 0 y y e , , , , , 0 0 q q 0 0 0 q 0 w q w q w 0 , , , y 0 K k = # O 7 ^ 0 y u # @ u X , L L K y # @ O X 0 _ q q K 0 @   O O = u 7 O 7 q e u , s s s e q # O = e _ K w q e ..y e e K u u , _ s = # e #   0 q ) 7 # 7 @ * r @.) 0 @ 0 f ' u @ u e e L K = 0 y ' q # = L ' e , u , = , e e = #   , K e = @ # q e 0 # O X 0 K , o     r = X @ 0 0 # = 7 # O O @ = # # = = = @ @ O # 0 e 0 @ O , u 0 0 0 7 # @ 0 u u K 0 # 0 @ @ @ = w O   = # X 0 # # # = = X O     O O X # # # @ X O @ O O   O @ @ = # # O @ # # # e K u e e 0 u u u K u u u u u e e 0 0 0 0 0 0 f e 0 0 # @ 7 0 u ) K e 0 = 0 e q , , q u e e u e 0 w q ",
"# # # 0 w = 0 0 e u 0 0 q e y e e u u u e k f K f f K K K K K L K K K K K K u e w e e w ) e 0 # # 0 ^ q e e @ 0 r # f L L e , # # @ 0 _ e e ) y # # @ O # u 7 @ 0 u e e e s H s K 0 @ @ 0 K _ e u e ' K u u k K u q _ K 7 = k # # e u ) 7 7 7 @ # u ` y 7 0 e ' K , e K e ) ) 0 0 u ' e # q ' ' u e u 0 , 0 u q 7 # @ u K 0 = = 0 k e , # @ , K e = O @ k y = = y y 0 0 0 7 @ @ = q # 0 = 0 = @ # 7 0 e e 0 O = k w q q 0 7 # 0 e u ) 0 , q # # # 0 y O # 0 @ 0 , = # 0 0 # @ @   @ @ # # = = # # @ @ @ @ @ # # # = = # O = # 7 q K K e k e u K f u f u u u u u u e e k u e 0 u K f e 0 @ # 7 u ` ` ) K e k k s e e f g e s e e q y 0 e , 0 # ) =.k e q k e e u u w k f K u e e e e e u e q u q u u u u = @ O @ @ O O @ O X X X   X + X @ @ X @ O @ O # @ u e # # @ 0 ) 0 y k # @ u X q L H f q = @ O @ 0 K 0 # q = @ O O   0 k 7 @ 7 e e q , q s G q u #   = 0 ) K 0 = , L = w e u f e < ' s , = e @   0 e K 9 = 7 @ = 0 ) ` 0 O y K ..f X u K e I e # 0 w ' u % # K _ q = 0 # # = 0 w , #   # K e 0 # # 0 e 0 @   O , K e @     # # X @ = 0 = 7 # # O @ # 0 = # # = 7 # # O @ = 0 = X O = u 0 0 0 # @ # 0 q e u 0 # 0 @ @   = = X O = # X # # # @ # # @ X X O @ @ @ O # # # @ @ @ @ @ # = = = = 0 q # X # , 0 u ) f u u e u e 0 w u u y w 0 = 0 = 0 0 0 0 # w u 0 = 0 0 0 0 0 e 0 = 0 0 e e e y e e e e e e 0 0 0 q ",
"e 0 0 0 0 y , = , 0 = 0 0 = 7 0 y u u e = # @ @ @ @ @ # # # @ # # # # = = = = = # = , , ) u 0 # # r k q e e @ 0 q # f L K u , # # # 0 K e 0 u r # # @ @ 0 k 0 # 0 u u e q e K s K 0 @ @ 0 ) _ e y 0 _ u 0 u u K f q } K 0 , e # @ q u K 7 7 7 = 7 u { u # 0 u ' _ = y k u K K 0 0 0 ` u , = L ' e , y 0 0 0 u y 7 #   u K e = = 0 u q = @ O = k u =   O 7 # @ # y 0 7 = 7 # @ @ = y # 0 7 0 7 # # @ 7 y y = O = u y y y 0 # = w u e K 0 = 0 @ # # 0 0 O # 0 @ = , # # = 7 # @ @ O @ @ @ # = = # @ @ # @ @ # # # = = 0 7 @ = # 0 y ) ) e u 0 y e u u u u u e u e y y 0 q q 0 0 e k q 0 0 = 0 e u f y 0 0 0 e e q 0 q e u e u u w 0 e q K e K e { =.# X O = @ # 0 0 0 u u k u u u e u e K K K u w w 0 e u k K K K K k e u q e e q 0 e q , , , # # # = o # o u q X # # r ) y u K = # y # q K L K q , @ O @ 0 k e = 0 # @ @     # y 0 @ 7 e u , 0 e s G q u =   # # u K q 0 0 u , e u u K e q K e , = 0 = # u q f = # 7 @ # 0 ) u @ O e e K u # e q e ' q , f e K K e # K K , u # # q e , w 7 # # , y = 0 7 0 e w = # # # 0 e , @ @ y y 0 # @ 0 0 0 =   @ # X @ 7 7 y 0 = # = # = = # 0 , @ O # , @ @ 7 @ O , 7 # 0 0 # # 7 = @   0 = O = e , @ # = # # # @ # @ # # # = # O # # # @ @ @ @ @ # 0 q = # = u # O @ # e e K _ _ { ' { ` ) ) K e e y = X # @ # # % , , u _ ) K ) ' L _ L ) K f K e 0 0 # # = # o o o # # # , # ",
"u u u ) ) ` K K K K K K ) K ) u K u k K u e e e u e q 0 0 0 7 , , , , # = # # @ # # # # ) q # # = y ^ y k u @ 0 q = K I L f 0 # # @ 0 K u 7 y 7 @ O O O = u 0 # 0 k u q e s L s s e @ O = e _ u 0 # K y y K K K K q } s , , e @ # y u K 0 7 7 @ # ^ ` ) @ 7 u K _ = e k u _ K 0 e e _ K q # ) L y e 0 0 0 0 0 e 0 # X e e y , 7 q u y = # # 7 u e 0 X = 0 0 # # q q 0 7 # # # # 7 q 7 0 = 7 7 7 # = = 0 0 = O 7 y 0 7 q = @ , 0 q y y 0 7 0 = @ # 0 = @ 0 y = @ 0 7 # = # # # # # 7 = 7 @ = 7 # 7 # # # # 0 u q 0 # y y # @ # e y ) _ f ` ) _ ) K K u k u y y = = 7 7 0 0 q 0 0 K K u u k u u u K u e e 0 u u q y e e 0 0 q 0 0 0 y 0 y 0 0 = e =.u @ # 0 = = # O O @ X @ @ O           X @ X O O O @ @ # 0 0 # @ @ @ # # = 0 0 , w 0 0 , 0 = = # 0 # # @ u 0 # 0 0 0 0 # , # # # 0 # = 0 e 0 = # @ = X O , e , q u u K , 0 e e e q 0 7 #   0 q f K 0 y q < K e q e e u u # = 0 0 = K y y y 0 7 # = e ' ) 7 u = @ 0 # 7 7 O     , I 0 e f e q # u ..< , ' s , K K 0 K s 7 ) # @ K K 0 e 0 # e y , O 0 0 0 e 0 @ 7 , 0 y 0 # @ = K e e 0 # q 0 0 =   O 0 O @ 7 0 q 0 # # = 7 7 = @ 0 7 @   # , = @ 0 @   = = = 0 0 = # = = @   0 = O # e = @ # = @ # # @ #   @ # @ # = O @ # @ @ @ @ @ @ X = , = @ = e = O O # q 0 0 0 0 q 0 0 f q u u k k u u e e q 0 q 0 u K u K K e e f u f K K L K ) K L K e s K f u e f u u u u q ",
"# # # 0 7 0 0 7 # @ # # 7 0 0 # # # 7 0 q u u e 0 0 0 0 w e u e u K u q w y y 0 y y 0 = k 0 7 , 0 y u 0 e e # 0 0 0 e g k e q 4 = # # q e 0 0 y e q # 7 y e r 0 0 e 0 = e q K f q e , 0 e 0 u u u K e 0 y e 0 ) u e k w 0 0 0 u K k y e = = y # 0 0 7 @ O u f e K 0 e 0 q ' u , L K e K K 0 L f 0 ) # 7 u k 0 u = 0 e e 7 7 y 0 e e = = 0 0 e y 0 # = u u e 0 7 e q 0 =   # 0 @ 4 0 q u 0 = 7 0 7 0 # 0 0 7 @ # 0 0 @ q = O 0 0 7 y 0 = 7 0 7 @ # y # @ q e = # 0 7 # 0 # # # # # # # 7 @ # 7 # # # # # @ # q 0 = @ w u # @ @ q u u f u ) f K ` _ ) K ) k e e 0 r 0 , = , e u u ` ' _ K { ' ' ' ' { ' _ f u e 0 0 0 , # = 7 0 0 0 q = #   O O 0 =.K 0 0 e 0 0 = 7 = , = 0 q 0 q 0 0 0 e e e y y 0 # 7 7 0 7 , # @ O O   O X # o . @ . @ # .               r 7 0 e q 0 , # # O = = = 0 @ = r 7 4 # @ y @   < s q u K ..' 0 q k 0 y 0 0 # @ O , 0 e K , 0 e 0 K q , 0 y e u # 0 w q 0 ` u 0 0 y = # # k .._ 0 u 0 # r @ 7 y @   O 0 ' e s e e e , e _ q q _ e # K K 0 K f 0 ) # # e _ 0 0 0 # u e 0 # 0 0 0 u q = q 0 0 0 7 @ @ # u 0 q # # 0 0 q 7 O O # O @ = 0 y 0 # = 7 7 = # # , 0 # O # , #   0 = O 7 7 7 e y , = 0 = @ O 0 = O # f = @ # = @ # = @ #   @ # @ # 0 O # , # @ @ @ @ @ @ 0 0 # # = y # O X # e O           O   O O O O O O O @     o X X @ # # # = # @ # # 0 0 = 0 0 0 0 e K e f K K L L ' ' ' ..' ..",
"= # = = # 0 7 = # # = = , 0 7 = 7 # 7 = # = # # O O O @ @ @ = # # = = # # @ @ @ O @ @ @ y 7 e e e 0 0 # # @ = , 0 0 = y 8 7 = # 0 0   < s u e K ' K e e k e u y 0 7 @ @ q 0 K K 0 u 0 u K e w u e ) 0 0 y y = K k y y y 0 , , K @.) y u 7 7 y @ y 8 O O @ q K u ) u u 0 e _ e 0 _ f , K _ q L f y ` # 0 _ ) 0 u 0 0 k y 7 7 e q e u 0 0 y 0 e 0 = # # u e y 0 = y q q 0 O # = @ 7 0 y y 0 # 7 r 0 0 = 0 q 7 O # 0 0 @ r 7 O 7 7 0 e q 7 7 7 7 @ # e # @ 0 u = # 0 7 # 0 # = # # = # = y # = 0 = # # = # # # 0 0 = # y y # O # q y 0 # # 4 # # = 0 0 y q y 0 0 0 y 0 0 0 0 0 e q e u q 0 0 0 0 w e u e u u K _ K ) _ ' ' ' .._ _ L L K u q w = u @.y q q u q u q e w e y e y e K K e 0 K _ ) k 7 @ O # y ) ` K u y y e q w w u e < e q e q , , 0 , , o # , r = 0 y 0 0 0 # # O = = # , # 7 q = 7 = # e #   = s 0 e L ..) 0 0 u y e e = # @ O , 0 0 L 0 0 u q K 0 0 y y u K # y y y 0 ' u 0 7 e = = 0 u @.k 7 u 7 # y # = 0 O     , K e u K e u u e K K u L e # K _ e K f = ) @ @ u ' 0 e q @ y e 0 7 0 e 0 K q , q 0 y r 7 # # = u 0 0 = # 0 q q 0 X X # O @ = 0 y 0 @ # 7 7 7 # = e e @ O # , # @ r = O 0 0 0 q 0 0 7 0 7 @ O 9 = O = u = @ # 7 # = 7 # # O O # X # 7 O # = #   O @ @ @ @ 0 y # @ = e # @ @ # e = # = # , # # # # 0 # = = # o X = O @ O @ @ o @ @ @     X     O   O @ O O O o X # # # # = = 7 r y q u ",
"0 q q q y u y u f u e u K ) K u 0 @ 7 q u K u e 0 0 0 0 7 , q < < , , , 0 # # # @ # X # y 7 y y y 0 0 = # @ 0 = 0 0 # q 0 7 8 7 0 q   @ e u e K | ' q q k y e y 0 4 # # q 0 f K 0 e e u K y 0 u y ` 0 q e e 0 ) ) q 0 e 0 0 0 K @.) 0 k 0 0 u @ y r @ O @ K K u K e u 0 e K K u L f = K _ e ) f q ' # 7 K ` 0 u 0 7 k y 0 0 y q e f 0 e y r e 0 = 7 7 u y q 7 # y q y 0 @ # # @ = 0 y y 0 # 7 0 7 7 = 0 u 0 @ = 0 0 @ 0 0 @ y q 0 e y 0 0 q 7 @ @ e # @ e u = # 0 7 = 0 = = # @ # # # y @ # 0 = @ # # = @ = y y # # 0 y # @ # y u # @ O @ O @       @   X @ O       O O O X @ @ @ # @ X # @ @ @ # 7 7 = 0 0 y 0 0 0 w e u y u ) ) ` ) ' K K K _ =.y 0 0 k e K u u e u u e e 0 q 0 0 = e u 0 , = # = 0 e K u e 0 = 0 e 0 0 0 q e e f e 0 0 q e K e K e K s r # 0 y 0 0 0 # # O = = = , # 7 e 7 7 = # K #   # f q e L _ { q 0 e e u u = @ @ O , y , K q , w , e = 0 e q e K % 0 e 0 0 { K y 7 y = 0 K K ..` y u 7 O = O # 0 @ O O 0 _ q u ) u f s u e s e L s % _ _ 0 K e 7 ) @ # k ' 0 e e = e e 0 7 # 0 0 K u , 0 0 q q = X @ 7 u , 0 7 # 0 q q 0 @   # X @ = 0 0 0 # = = = 7 = = q u # O # , , @ y =   , 0 7 y w 0 # 7 = @ O 0 0 O # e = # # y = # # @ = @   # @ # = O = 0 #   @ = @ O @ 0 y @ @ = y @ # = # 0 e u ` u K ) _ ) ) ' K _ ` u e e k u e w e q 0 e 0 w e 0 q 0 = # # # # # @ @ @   .   X X @ @   O O O O ",
"u u e u u u e e u e 0 e K u e q # @ 7 y ) ) K u y u u e e e u s e f e q e e e u e e q e y 7 e e y q 0 7 # @ 0 0 0 0 = y q 7 7 7 e u   @ u e q L ' ' q q u e u e 0 # # # e 0 u K 0 e y u u 0 y u q ` q 0 e e 0 ) ) y 0 e 0 0 f K @.` y u 7 = 8 O 0 0 @ O @ u _ e _ u K f K e L u L K , K ` e K u 0 ` # 7 K _ 0 k y 0 u e 0 7 0 y u K q 0 e q u 0 # = 7 u 0 y 0 # y q y 0 # # = @ = 0 y y 0 # 7 0 0 0 7 w f 0 @ # 0 0 @ 0 0 O w w 0 e y 0 0 0 7 @ @ e 7 @ y e 7 @ 0 0 # 7 = = = @ # # # y @ # 0 = @ # # # @ # y e @ # 0 y # 7 # 0 y e u e u y e u e u u e y y 0 u y 0 0 0 0 0 0 0 q , 0 = 7 = # # # @ @   O O   O O   @ @ @ # @ # # 4 # 7 # = , ) =.u u e u w e e e q q 0 = 7 0 0 0 0 = , u y = 0 0 , 0 0 u 0 = 0 0 q e q e u e e e e y 0 0 0 w e , q , w , r = 0 e 0 0 0 # # O # = # 7 # , y 7 = # = K o     K q e _ K ) 0 0 0 w u u , # @ @ = 0 , K e , 0 0 f = q e q e K 0 0 e 0 , _ K e w 0 # , _ ) @.' u u 0 @ 7 O O # O O   = ` q u K e u e u 0 K q s < = L _ < f K 0 K @ @ q ' 0 f u # e u y 7 7 0 y _ f , , e 0 y , O @ = e = 0 = # y q q 0 @ @ = # @ = 0 0 y = , = = = # = q q @ O # q , O 0 #   0 e , y e 0 7 7 0 # O 0 = O # u = @ # e = @ = # = @ O @ @ # =   # 0 =   # 0 # # # 0 y   X # 0 # 7 = # = # 0 u k e u e e 0 r q y u u ) ) ) u e e u e u K K _ ..) ' ` K K K e q 0 q e e 0 0 , , , , 0 , 0 , 0 w ",
"u u y e 0 y 0 0 q 0 0 0 e e 0 0 7 0 q e u e 0 0 0 e e q q q e e e u e w q e u s s G e e y 4 y y q 0 0 7 # # 0 7 7 0 = y r 7 7 7 u s O @ s K e _ _ ' e y y e u u 0 # # @ 0 0 q L q y 0 e e 0 e u 0 ) e 0 u e 7 ) _ u y y 7 0 u ) @.` u u 7 @ 7 O 7 7 @ O @ K _ q _ u K e K 0 K e g u , K ' 0 f f q ) @ = ) _ 0 K e 0 u u y 7 0 q u _ e = e e u 0 # # 7 u 0 y 0 = y y y q @ @ 7 @ 7 0 y 0 y = 0 0 7 0 7 y e 0 @ # e 0 @ 0 0 O 0 e 0 u y 0 7 0 0 # # y 7 @ y e 7 @ 0 q # # = 4 = @ # # # y @ = y 7 O # 0 = @ = y q @ # 7 y # q @ 7 0 e K ) { K ` ` _ ` ` ) ` ` ` { ` ) K e u e e f K K ) u u e u e u q y y 0 y q , = = 0 0 0 0 = = 7 0 = 7 @ = # u o.) _ _ { K ) K u y q # @ # @ # = , 0 y ) ` K ) ` _ _ _ _ K K K e q , # # @ o     # o # , , o O       O   y = 0 e 0 0 0 = # @ 7 = # 7 = 0 y 7 = 4 # g #   X K e e _ K f = 7 0 q K K e = @ O # 0 , I G q q 0 K 0 , 0 y y K , 0 y e = u K u e 7 # , _ u @.' y 0 = @ 7 O # 7 @ O   # ' e e f e e e u , K , u u = L ' q K K e ) # @ e ..e K K % e u e = # 0 y _ u # , e 0 e 7 O @ 0 u 0 0 , # y q 0 q @ @ q 0 @ 7 0 0 q = = 7 7 7 @ = e 0 X O , q = O 0 #   0 y 0 e q 0 = 7 7 # O 0 0 O = u , # = y # @ , # 0 # O @ X # 7   = 0 # O # w , # O 0 e @ @ @ 0 # 7 , # 7 X   # # # # @ @   X @ @ # # 0 0 r 0 0 e e e e u K K u K f K K u u q 0 , , , 7 = = = @ @ @ # # # , e K ",
"k u y y # = = = 0 0 q , e ) k e K u f K K K u u e e e 0 0 0 0 = = 7 7 7 0 0 7 # # # # = y 7 e e q 0 0 0 # # 0 = 0 7 7 q 0 8 7 7 e s O O f K u ' K K 0 0 w e ) K y = = @ 7 0 q ' e e 0 u k q 0 u 0 ) u q q u 7 K K u u 0 7 0 f ) =.) e u 0 7 7 O 7 7 @ O # K ) e _ u f w K 0 K u e e = K { e K K e ) # 7 u ' e _ u 0 u k y 7 0 y f _ y = e e y y # # , u 0 y 0 = e y q y # = y 0 # 0 y q e = 0 0 = 7 = y u 7 O 7 u 0 @ 0 0 O w e 0 u y 0 7 0 r # @ y = @ y e 7 # r q # = 0 0 0 @ # # # w @ = y = O = y 0 7 # e e @ # # 0 # e # 0 7 0 # 7 y 0 0 # @ @ @ @ # = 0 e e e q e K K K K ) _ ....' ..` _ K e 0 0 0 w 0 0 0 , = # = 0 , , w u u u 0 e 7 0 { y = = u , e e u u u u u e 0 0 w e K u K K u e u u u K K K K K K _ K f K L L L L I K K e f e q , = , # o y = 0 u 0 0 0 7 # X 0 = # 0 = 0 q 0 7 = @ s o   X K u u | _ ) 7 0 e y ) K 0 0 # O = 0 = L s q 0 0 ) q 0 q u y K 0 0 , 0 # e K u u 0 # , ..u { ) 0 u 0 @ 7 O 7 r @ O   , _ u f K q u u f 0 K , u g @ u ' u f L u ) = @ 0 _ e g K , 0 u u 0 = 0 y K u # 0 u 0 u r X @ 0 e = 0 0 # r 0 0 y # @ 0 0   0 y r 0 # # 0 7 = # = e 0 @ @ 0 s q @ 0 #   = 0 0 e 0 , # # 0 @ @ e 0 O 7 K , = = 0 7 @ = # = X   X # = 0   = w # @ X = , = O , e # @ = y , e 0 0 0 e e 0 , 0 w e u e e e u e q , # # = # = o @ @ X # X @ X # # # # # 0 e u e q , 0 q q = X   X X o # = 0 ",
"K u e e y y 0 , 0 0 u u K ' ` K _ _ _ _ ' _ _ _ K K f e e e q 0 q q 0 e e e 0 # # # # o y = y e 0 q q 0 # # 0 7 0 0 0 y y 8 7 7 e s O @ K K e _ _ K q 0 e e ) ) e y # O 0 0 q ' f e 0 u K 0 0 u 0 K e 0 w e 7 e K u u r 0 , ..k ..` 0 e 0 7 7 O y 0 @ O = K K e ) u f u L 0 f e u L = K @.u K _ u ` 7 = u _ e L u 0 e K u 7 0 y f K 0 = e y y e # # 0 K 0 y 0 7 e q 0 y 4 # y 0 # 0 e y q # 0 0 7 0 # 0 u 7 O 7 f s # 0 7 O 0 q 0 u y 0 7 0 y # # e 0 @ e u 0 = q y # = = 0 = O @ # 7 y @ = y = @ # 0 0 0 @ q u = # 0 u , u = w q u 0 # 0 = 0 0 q q e e u e w 0 7 0 0 0 0 0 0 0 0 0 0 7 0 q 0 y q e u u e q 0 q q q 0 @ # # # = , e u u w e 0 7 {           O O O O O @ O     X @ @ # # # # # X # @ , 0 # , 0 0 0 q u e e u K K K u u ) ` _ ` K L K K K e u 7 0 u 0 q 0 , #   , = # 0 # 0 y r y 0 X e #   @ H u e .._ _ 0 0 u e K f < 0 # O = e 0 ' K e 0 0 _ K q u K q K e e 7 = # e K e y = # 0 ' K ` ) , u y @ 7 O 7 7 O   @ 0 ` f K K q u K f 0 _ u s Y @ u ' u e L e u =   e _ u K K , # 0 u 0 # y q e q = e e 0 e 0 X @ 7 0 = q 7 # q 7 , y = = q e # 0 e y 0 # 7 0 # = 7 @ q 0 @ O 0 K u # 0 @ O = , 7 e w 7 7 = r @ X u 0 O = f = = # 7 # X = # = @ @ # 0 , 0 O = 0 = # O # , , # , u = X # = = 0 0 0 # _ ' K u K L K _ I L L _ e q 0 , , = # , = # # # # # # @ # # @     # # = = , , = = @ X O O     O O     ",
"7 7 = , 0 0 , , = , 0 0 0 e 0 = , 0 y 0 0 e e y e K K k K K _ ' ' @.' ' ' ' _ K K K u e ~ 7 u e q y q 0 # # 0 7 0 0 7 y y y r = 0 u   @ K K e | _ _ r 0 K u ) K 0 r = O 0 q q ' f e 0 u ) u e f u K u e q 0 # w K u u 0 7 0 ..k { ) 0 ) q 7 7 @ y 0 @ O @ ) ' s ' e u u K 0 K K e K # e ..u f _ u ) 7 @ f _ e L f 0 0 k u 0 0 y e u 0 y e e y u @ # 0 u 7 e q 7 y 0 0 y 7 = y q # y u y 0 # 0 0 7 q # 0 e , O 0 K K = q 7 O 7 0 0 u e 0 7 0 y @ # k 0 @ u u , = 7 0 # = = = # @ # 0 , y @ 7 e 0 = @ = 0 0 @ q u 0 # 7 0 , f 0 y q ' L e u u K f K K K K K q , , # # # # # # @ X X X @ @ X # # X @ 7 0 y w w 0 w 0 , # @ @ @ @ @ @ # # # X @ # # ] 0 , # 0 = q y 0 , # # X = O O O X @ @ # @ O         O   O   O O O o O   O # X @ @ @ 4 = 7 7 7 7 0 , e 0 y = 0 u 0 y 0 = # X 0 , = = # 0 y 0 y y @ K ,   < K q u .._ K 0 0 u e ) K , 0 # O # e u } K y 0 0 K u e K ` e k e e , = # e ) u e 0 7 0 ' ) ) k = e y 7 7 O = 7 O   @ e ` f K L e u f u , ' e K I # u _ e u _ e e 0   e ` u K K e , 0 e 0 = q y e e % , 0 7 u 0 O @ = 0 = e 7 # q 0 , q = , e y # 0 e y 0 = 7 q # 7 # @ y y # O , s 0 @ w # O = , 0 e y 0 7 # 0 @ O 0 0 O = k # , % y 7 @ = # = @ @ @ 0 # y # = , = 0   # 0 0 # 0 e = @ @ @ @ 4 0 7 # K | } L ' ..| ..' _ L ' _ _ ' K L _ K _ ' _ _ _ ) u f u e u e 0 y 0 # # # # # # # @ # 0 , = # # # , , ",
"@ # @ O @   O O O   @ X @ # @ @ @ @ O @ @ # # # # # 0 0 0 0 , = 0 y 0 0 q y K K u f K K ~ = e u q e 0 0 # # 0 0 0 7 0 y y y u 7 q u   # f s q ' _ _ y 0 f e _ K 0 q = @ 0 e f ..K e 0 u ) u u K K K u e y 7 # e _ u e 0 8 7 _ ) ` ) = u y 0 7 O y 7 @ O 4 ) ' s ' e f u ) q K K u @.7 q ' u u _ u u 0   u ' u K K q , e e 7 0 e e f q q q q y e # @ 7 y = y q # y 0 q e 0 0 e e = e u y 0 7 y 0 = 0 # 0 u 0 @ = f g = y 7 O 0 0 0 u y q 7 7 r @ # u 0 O e u = 0 0 e # = = 7 7 # @ 0 0 e # 7 0 , 0 @ = 0 e = 0 u 0 # # 7 # y , 0 0 ..@.L } ' ..| @.| | ...._ _ _ K K K K _ K K K e u e e 0 e 0 y # # @ @ # # # @ # @ @ @ @ @ @ # # # # # @ @ @ # ) u _ ) { ) { ) ` { u u K K u e e e q q e 0 e 0 q 0 , , = # # # @ # @ O     o @ # # X # @ @ @ @ O @ O # @ r 7 y u 0 y 0 0 7 @ q 0 = = # 0 y 0 y r   f #   0 s q s | _ f = = K 0 f f , 0 7 O X 0 e K u e 0 0 k u e K ) u K e w = = # e ) u y = 0 # f ` ` K = y q 7 7 @ 0 0 O O O u { u f L e e e u 0 | s s H X e ' e u ' u e r   e ` u f K e # 0 e 0 0 e u f q # 0 e q K y # # 7 e 7 e 0 # q = = 0 7 0 u e 7 0 y 0 0 7 7 y = 0 7 # w 0 # O , s , = y # O = = 0 e e y 0 = y 4 O = y O 7 K = , , e 7 @ , # # @ @ O 7 # 0 @ # = = u # # 0 0 = 0 e = @ @ = 7 7 0 0 # 0 0 0 0 e u e e 0 0 = = = = , 0 0 0 , 0 0 y u u K u K ) K ) K K _ ` ` ` ) ` ' _ _ f K k e K K e e s e ",
"K ) K e q e q q 0 q q 0 q 0 , = , 0 = # # # @ # X @ @     O @ @ @ @ O @ @ @ @ @ @ @ # = y 7 u u q e 0 0 7 7 q 0 7 0 0 y y y u = 0 s O # s s e | ' K q 7 K e K f 0 y = @ # e f L u y q e K e u _ K K u e 0 0 = w ) K e 0 0 = K ` ` k , u e 0 0 @ e 0 @ O 0 ) _ e ' f u e K 0 L L u | = 0 ' u f ' u u y @ e ' u K K e # e y 0 q u u g 0 0 0 y e k 0 # 7 u 0 u y = e 0 0 y 0 y u e = e e y 0 7 q 0 0 q # 0 e 0 # = s e # y 0 O 7 0 y u u e 0 7 y # @ 0 q O u u = 0 q y # , = = # @ @ 7 0 0 7 = 0 7 u = = e y = q u 0 # # 0 7 y 0 7 0 ) u e K K f L K y u u u u u k u k u u k K K ) ` ) ` _ K _ ) K ) ) ) ` ) ) ) K K K u e e e e e e u e e 0 0 , # y 7 y 7 = = = # 7 y u K k K u e u u u K ) K ' ' ' ' ) K K e 0 0 q e w 0 0 , , , = 0 = , , w e e , q o 0 = r = 0 e 0 y 0 0 = X 0 0 = 0 = 0 y 0 u r   K #   , H , e | ' f # = _ y u K 0 e 7 O X 0 0 e u e 0 e K K u K K u K e 0 = , 7 u K y 0 7 q @ 0 _ ` K = u u 0 0 @ 7 r O O O 0 ` s K L , e u u 0 ..K K g O e _ q u L e y 0   q _ e u K f = e K 0 # y K g < # e 0 u ) u = 0 = 0 # e 0 = y 0 7 0 # , q e = 0 y 0 0 = = q = 7 7 7 e 0 # O , s , # e # O @ = r e y y w 7 y = O 7 e O = ) 0 # # 0 = @ = # 7 @ @ O 0 # 0 @ # , = k # @ y w e 0 q 0 # = , , , y # @ # # # @ # 7 # # # # # # # @ # @ # # @ # @ @ # # = # # # # @ @ # # # # 0 0 0 = = 0 y y 0 0 e u q e e e ",
"u K ) ) ` ) ) k e e e e K K K _ ) ) K u u e y y y e e 0 0 , 1 0 0 0 , 0 0 w e 0 0 0 # = r 7 u u q y r 0 = = 0 0 7 0 0 y y y u # q u   0 s u e | | K 0 = ) e k ) 0 e 0 O # e q u u y y u _ u K _ K K u e 0 0 7 y ) u y 7 y = y ` ` ) 0 k y 0 7 @ y 0 @ O y _ ' e ' u e e _ 0 ' ' s L # 0 ` u u _ u u q O e ` e f K e = u u 0 0 k K s # y q u K ) 0 0 0 q 0 e y = y 0 0 0 7 y e u 7 e y q 0 7 r 0 7 0 = e e 0 @ # G u # y 0 O = 7 y u e e y 7 y = @ r y O e K 0 , 0 y # = 0 7 7 @ @ 7 0 0 # # 0 = K = # e e y e e 0 # 7 0 7 y , 7 0 0 #   # X # # = = # # # # # # # # # # # X 7 # = = 0 0 y q 0 0 y y e u u u u u K ) K u u K K u k K u f 0 0 , e { = # X # o # # # = = , 0 0 0 0 e e u u e e u u u K K K e e 0 0 0 , = , , , # X @ # # # , e K K e u , e 0 y 7 0 e 0 0 0 q 0 # 0 0 # 0 = 0 q 0 y 0 @ K #   , H < u | L s # , _ e u K q y = O # e 0 e u e 0 e ) u e K L u K q 0 = , # y k q 0 0 0 # # K { ` 0 K ) r = # 7 e O   O k { u K K q e K u 0 ' K L H O u ' e e K e 0 q   q ` u f f e @ u u u # 0 _ u # # e q q k k = y , # = u 0 # q 0 7 0 # 0 0 0 # 0 y y 0 # # 0 # # # = u 0 ,   = q , # e # O # # q e q u y 7 e 7 O # e O 0 K 0 # = 7 = @ # @ 7 @ @ X 7 # = @ # 0 = k X @ , 0 y 0 e 0 = , 0 , = q # = ) ) ) k ) ) ` ` ) ` ` ` ` ` { { { { { ` { ` ` ' _ K ` ) ) K u q 0 = 0 0 7 = # # # @ @ O # # # X @ # @ ",
"# # # 0 y y y q e f u k K ) ) { ) { ) ) K u 0 0 0 0 0 0 7 = = # = = = , 0 u K K u e y w u 7 y u q q y y 0 7 q 0 0 0 0 y y y u # e K   0 g e q } ' K 7 0 _ u u _ q y , @ = e 0 u K q q u ` e s _ K ) u 0 q 0 0 y ) u 0 0 0 # e ) o.` r K ) y 7 = y 0 @ O 0 ) ` q ' u e f _ 0 L } K _ = q ..u u _ u y y O e ` e f K u # K f y # f ' u # e q u u ` 0 y 0 7 = e e 7 y q 0 0 = q 0 e 7 y e y 0 = 0 0 7 7 # e u y @ # u u = e 0 @ # 0 r u e u e 7 u 0 @ 0 y O u K 0 # 0 0 # # = 7 0 @ # = 0 0 = # y , K = # e y u q u q , 0 y = y 0 = y k K u u K ` ) ' ` ) ` ` ` ` { ` { ` ` ` ) ` ` ) ) k u u u q 7 7 = = 7 = # @ @ # = # # 7 7 7 = 7 0 , , # # X ` ;.e q 0 K e u K f e , , @ # # # # X @ X @ X @ X @ # # # # 0 y u e q , 0 w 0 =         X @ # 0 = # = # = # y 7 0 e 0 0 0 q 0 # 0 0 = q 7 0 0 0 u 7 # K @   q I , e | L f = 0 K 0 e _ 0 0 # @ , u w u K q 0 e ) K y f ) K K e 0 0 0 = y u 0 0 0 0 e @ k { ` 7 0 y 7 # * 7 y @ O = u { e K L u q K u = L K L H O e _ u f _ e y 0   e { f K K e # u f u # # K K O @ e e y u k = q 0 # # u y # 0 0 0 0 # 0 , 0 7 0 y y 0 # # 7 = = # 7 u 0 0 O # q < # e # @ # 7 0 y y u u = e 0 O # e @ 0 u , , , = = @ # # 0 # # X 0 # = @ @ # # u O X , q 0 0 e #   # 0 = # = @ 7 u q y y y y y u y k u u u 0 0 7 0 0 7 = = 7 0 0 0 y e y y u u y q 0 e y u k k K K u e u u 0 q 0 0 0 0 ",
"f K e 0 0 = 0 , 0 , = = = 0 , 7 7 0 0 0 0 0 u f K e 0 y q e , @ @ # # = , 0 0 0 0 0 0 0 u 8 y e q y q y 0 0 q 0 q y 0 y 0 y e @ f K   0 H s 0 } _ g 0 0 _ q u ' w y = @ 0 u e K K 0 y u _ u u _ K ` u e y 0 0 q K q 0 u 0 e # K { ` r u u 0 7 7 y y # # e ) ` e ' f u f ) 0 K L K ' = q ' f u _ u e y   u ' u ) K e 7 K K e @ u { e   e e e y ` 0 y q 7 7 u u # y r 0 q 7 y 0 e 7 y e y 8 # 0 0 7 7 = e u u # # 0 s # y 0 @ = 0 y u y u u 0 u 0 O 7 e @ u u 0 , 0 0 7 # = 7 0 @ # 7 0 = = # 0 , k # @ 0 y y 0 u 7 # 0 y , 7 = = e ` ) K ^ ) ) ^ { ` ` ) ) K ) ) ) ) ) ) ) ^ K ) ` ` ) ) ) ) ) u u e u u u u u u u e q y y 0 0 0 0 0 0 0 , 0 @ ) :.K L f } I ' L _ u e q , , = % 0 = = # # # # # @ # #     @ # = # = = = #     O   O   O O .   .           r 7 0 e q 0 0 0 = # 0 , # q 0 0 q 0 e 0 # K X   , Y < q | _ e # 0 K , e ' q 0 q 7 # u y u ' K u u ` u , q u u K w u e 0 7 y u 0 , 0 q K # u K ) 0 = 0 7 @ @ # 0 # O = u =.f K ) s q f e @ f f L H O w _ f e _ e y # O y ' s f L e # u f u # = K u O @ e q 0 k e 0 e 0 # = k q # 0 0 0 0 @ = # 0 7 7 0 y 0 = 4 0 = # # = e , , @ # < e 0 u # @ 4 0 y e e e u , q 0   @ e @ 0 u , # # # = @ # # = # # @ 7 # = # O # , u O O = e y , u = O = 0 @ @ # @ 0 @ @ # # # # # = = = # # 7 7 7 0 0 0 0 = 7 7 = 7 = = = # = = = = 7 = 7 = = = 7 7 0 r 0 q 0 , w q q , , ",
"K K u w 0 , = = = , = # # # X @ X # # @ O # , 0 0 0 0 0 0 # # # @ @ O @ @ @ @ O O @ @   r 9 y u y y q 0 = 0 0 0 0 y 0 y y y u @ K e   0 T u 0 ' | K 0 0 K 0 u ..y 0 y 7 0 k y ) ` u e K ` e 0 K u ` u e u y q y K e 7 y 0 K # k ` ) r 7 r 7 @ = 0 0 @ @ w ` { u ' K u e K = u K K ' = 0 _ K u ' u e 0 @ k | u L L e 7 K K u # y ` q   0 e y e ) q e r 7 # u e # q q 0 y # 0 7 q 8 0 y y 0 = 0 0 7 7 # y e q 7 # 0 s 0 e 0 @ 7 0 q u u u u 0 y 0 @ 7 e @ e e 0 = 0 7 # # = = = # # 7 0 7 = @ # = k # X 0 e y 0 u 0 @ 0 0 @ 7 @ = y 0 0 7 r 7 9 9 0 r 0 8 e y 7 # 7 7 = # @ # = # = = 0 = = 7 0 0 7 7 0 0 y u u k k u e u e e u u q e q f e K , ) ,._ _ L ..L I L _ _ _ _ L _ ) K ` ` _ _ _ K u f e u u q 0 y # = # # # 7 = # # 0 , , = = , , 0 , # , @ = @ y 7 0 e 0 0 0 0 7 # = = # 0 0 y q q u q w I @ O < Y , 0 _ L u 7 0 u 0 K | 0 7 0 7 @ e y q ` ) e u ' y = y e u K 0 0 e u y y K q = 0 0 e , K u ) q = y 0 @ * O 7 7 @ 0 K #.f K K K e K K # u e ' L , q _ f e _ e y # O 0 ' s f L u = e u e = # u y   # e 0 = u y 7 e q # # u y 7 q 0 q y = 0 0 0 0 0 0 y 7 = 7 0 # # # 7 u 0 , @ o 0 q , u #   = 0 q e e 0 u 0 0 ,   @ u # 7 0 0 # # # 4 @ # # # # # @ = = 0 #   @ 0 u O X , e y , w # @ 0 e = = 0 = w O                       O   O O       O @ O X O O X X O O     O @ X @ O O O X X O O O X X # # # # # X ",
"I | _ ' _ L L K ) ` _ ) ) K e u e e e 0 y = # # # @ # # # # # # # # # = , , , = # = # # y 8 e e y y 0 q 0 0 0 7 0 y q e y y u 7 H s   e  .s 0 I ' K 0 0 K 0 k X.e 0 y 0 # u y u ..) u K ) q 0 u y ) u y u e u 0 K u 0 y 0 K = k u ) e 7 y 0 7 7 # 0 = = e ' ..u ..K s s K 0 e K L } # 7 _ K e ' u e 7 O u { u K L u 0 K f u # 0 ) 7 O q e 0 y k 0 y e 0 7 u u 7 y y y e = 0 0 0 0 7 y y 7 = 0 q 7 7 # e u 0 0 # 0 s 0 u 0 @ 7 y y u u e K y q 0 X 7 e # 0 e 0 # 0 0 # = = 7 7 = # # 0 0 0 @ # 0 k # X 0 u u 0 e 7 # e y # 7 = 7 q O     O O O O X @ @ @ @ # # # # # = # # = = # # # # # # # # # # = # # # # # # # # # # # = 0 , # # # 0 # 0 # f ,.) , = y # # # # # # # # = = = 0 0 y e K f K ) K ) ) K K _ _ ` ` ` ' ` ' ' K K K K K K K K e e , q , u , r 7 0 e q 0 0 0 7 7 , = = 0 0 q e y y q e H o   s H , 0 ' L e = 0 f 0 u ' 0 = 0 7 o u e 0 ) K 0 K ..u 0 0 y u ) 0 , e e y q ) u = e < u 0 u 0 k y 0 0 = O # @ 0 @ O 0 e ..e u K K s g K e e q K H , 7 ) K y _ e q 7 O 0 @.u u K K 0 u K K # # u 0   # u q = u u 7 y q = = e y # 0 0 q e 7 0 7 # 0 7 r e 0 7 7 r 7 = 7 0 ) q q # X % q 0 e # @ # y q e e 0 u w 0 0 O @ u 0 0 y , # = = # # = # 0 @ @ @ = = , #   @ 0 k O X , 0 = = w , # y u e 0 e 0 e = # # @ @ # O O @ @ O O O O O O   O   O     O   O O O O                           O   O   O O O O O O ",
"0 0 0 w q q e y y u u K K ) ) ` ` _ ` K ) ) ) _ ` _ _ _ _ _ K u u f K u u e e u q q q q y 0 e u e y q 0 7 0 0 0 0 q y e e e u 0 } e O q T e 0 I ' f 0 0 K 0 u ..e 0 y 0 # k y q ` f e _ ` y 0 u u ` u 0 e e u 0 ) u 0 y , K , u u k y 0 y 7 @ = # r @ # q K ' e _ K K s L e y e f ' # # ) _ y K u e 0 O q @.u K K f y K K e @ q k 4 O e e 0 y k 0 e e 0 # e u 7 y q y u 0 y 0 0 0 7 u e 0 7 y y 7 0 0 u f q 0 @ = e q e 0 @ 7 y y u u 0 k e 0 q @ = u 0 q e 0 # 0 7 # = = 0 7 # # 7 q 0 0 @ # 0 K # # 0 y 0 0 y 0 = e u q y 0 y u # # @ # @ @ O O @ @ @       O O O X X O O O O   O O O O O   O O O O O O O   O O @ @ @ @ @ @ # # # # # @ # # e -.q = # 0 0 # # 0 0 # = # = # # # # # # = = @ # = # @ @ # = # , 0 7 # # # 0 0 = , y y 0 0 w 0 0 , , o , , 0 7 0 e q q 0 0 = 7 0 # = 0 0 q y y y u K Y @   q L , e | _ u , e K = u ' e # 0 0 @ e e = K K 0 s ' u 0 e e u K 0 0 u e y 0 K e X 0 # u q u 7 u u ) y @ O 7 = k 7 O = e { e e K L f e K ) 0 e _ _ # # f K 0 _ u y 0 @ u =.u u f K 0 q y u = = k 0   , K 0 0 k e 7 q 0 7 = e e , y 0 q u 0 0 0 # y 0 r e 0 = 7 q 7 # # q f 0 q # X # 0 e 0 # @ = e y e y 0 f e 0 0   # 0 = , q , @ = = @ @ # @ 7 # 7 # = = = @ O @ 0 K X @ # 0 = 0 e 0 = 0 e w , 0 y K y 0 0 0 0 y 8 8 7 # 7 0 7 = = = = 0 0 0 0 # 0 = 0 0 q y 0 0 0 0 7 0 # @ # @ @ O @ X X O O O O       O ",
"7 7 7 4 @ # # # # # # # 7 = # 0 0 0 0 7 7 0 0 y y y 0 0 q u u e e u u e u u e e 0 0 0 0 r 7 e u e y 0 0 7 0 0 0 0 0 y e u e y u ' q   , } u 0 _ | K 0 q ) 0 e | e 7 y q # u e 0 _ K w K _ e 0 u u ` u 0 e e u 7 k f = q # f e k 0 k u ) y = # 7 0 u = @ u K ` e K K _ u K ) e e K | f @ f _ e ) u y r @ k -.u f K f 0 u u k # y u @ @ u u q y k y y q 0 7 y u 0 e y y u 0 y 0 0 y 0 u u q 7 0 0 7 = 0 u u , 0 @ # 0 e e 0 # 7 y e u e q k e 0 q @ = y q y e 0 # 0 7 # 7 = 0 7 # 0 # 0 = = @ # 0 K 7 @ 0 0 = 0 u q 7 y u u 0 0 u k r u 0 y 0 y 0 0 8 7 7 7 7 7 7 7 7 0 7 0 0 = 0 7 0 0 q 0 0 = = = 7 = @ # @ @ @ @ # @ O @ X X @ X X @ @ O   # u ;.` { ) =.{ ` ` ` ' ' ` ` ' ' ` ` ` ` ` _ _ _ ) ) K u q 0 0 0 0 0 0 = = = # @ @ # @ @ @ @ @ @ X o #     X 9 8 0 u q 0 0 q 0 0 = # = 0 0 0 y u u u f H X X s T , , L L q # e K 0 u L 0 # 0 0 X 0 K u K _ 0 e K u 0 y u k K 0 0 e e y 0 ) y X 0 # y y u 7 y u ) r @ O 7   y 7 @ , k =.e q K L f q L { q K | _ , # e K 0 _ u e e   0 ) k u u K w q 0 e # = u # @ 0 u 0 7 u e 0 y q 7 # 0 0 0 y y e u = 0 0 7 e 7 0 y 0 = 7 e # @ 0 u e # , # @ @ , f e # @ = y y e y e f q 0 0   @ # # 0 e , @ # 0 0 , , # 0 # = = = 0 0 # O # 0 u @ X 0 e y 0 y 7 @ = 7 0 0 0 e ` 7 # # # # # 7 7 = @ # 0 7 # @ = # 7 7 = , # 0 7 0 0 q r 0 0 0 0 0 0 = # = @ @ @ # # @ O O O @ O X   @ ",
"` ' ' { { { { { ` ` ` ` { ' _ ) K K u y 0 0 7 0 0 7 # # # = # # 7 = = # # # # # # # @ @ 8 0 y e e w q q y 0 0 = 0 q y y e u u u I s O q T s 0 L _ u 0 q ` q u _ e = y y # u k u ) ) 0 K K u 0 u u ` e q e e K 7 K k # 0 # e y k 0 u u ` y 4 # 8 = u 7 # 0 ' { 0 u K _ e K { u u L | s # q _ q ) K e u @ y ) u K f K q y y u # e u @ # u u 0 e k r q y 0 # q e 0 e y u u 0 y 0 0 u 0 y e 0 7 e e 7 = e f w , 0 @ @ 0 u u 0 # 7 y e u y e K e 0 q @ # 7 7 e e 0 # q 0 7 0 # 0 0 # e = y 0 0 @ # 0 K 4 X 0 e e y e 0 7 0 0 0 0 q K ) 9 0 # 0 7 0 0 0 7 7 7 y 0 0 7 7 7 y 0 y 0 0 q y u y u u y y e y u 0 , 0 7 # # = = # # @ @ @ @ # @ @ # @ @ # y { y y 0 u e y y u y 0 0 7 7 7 7 # = 7 7 0 r y y y e u e q q q y u k K ) K ) u u u e e e e e u e e u , q 0 0 0 0 u y e 0 q 0 0 = # 0 y y 0 0 y u r u Y @ o s Y e < H K q # u K 0 u _ 0 # 0 q   0 K ) K K = q K u q e f u K q u e e e q ` e # e 0 0 0 e 0 0 y u 0 @ O 7 @ ) k @ @ u @.e q K L f e K ' 0 u |  .e @ 0 K , K u y e   u | K f f f 0 0 0 u # = u = # , q q # u e 0 0 q = # 0 , 0 y q u u = 0 , # y 7 0 y 0 7 0 y # @ = e 0 # u 0 # O # e w # @ 7 e u u y e K e y 0   @ 0 = y e q # = 7 # = = # 0 # # @ # = = # O # q K # X = e e y e y = 0 e e 0 y u ` = @ # # # @ # # # @ # # # # @ # @ # @ @ @ @ # @ O O O O @ O O   O O O O   @ X @ @ O   O X O O O O O O ",
"u k k u y y y e q e r e u u ) ^ k k K u e e e u u k u ) u u e u u q y y y e e e e e 0 0 0 0 y u e u y q q 0 = = q e e y y u ~ q L s O s | g , s I u 0 e L 0 u _ e 7 q y X e K ) _ K = u K u 0 K u ) u u u y K 0 K ) = y q y 0 u 0 y e k y = @ 8 = ` y O 7 ) { 0 f K _ u ) ..u q K $.g 7 0 ) q K K y K @ e ..K f f K 0 q e e @ y u # 0 q e 0 y k y q u q 7 0 w 0 e e u u 0 q 0 7 u 0 y y 0 = y q 7 # y u 0 0 u % @ # e u 0 # 0 u u k e e K u u y @ # , 0 e u q # q 0 # 0 # 0 0 # 7 # 0 7 7 @ # 0 ) 0 @ 0 u e y y y = 0 e y q y ) _ # = @ 7 # # = 0 = # = 7 # # # 4 7 7 # # # # # # # # # # # @ @ @ # @ @ # # @ # # # @ # @ @ @ @ @ @ @ @ X @ # e { u   # @ 7 # # 7 7 # # 7 0 0 0 = 7 , = 7 = 7 # # # = = = = = = 7 = = = 0 7 7 0 0 = 0 w , , # , 0 w , < = 8 7 7 u q y 0 q 0 , = # = q y q r u u 8 0 L @ X s e s s } L 0 = K K 0 K ) w = 0 q   0 K ) ) K q K K f e e u e u q u y 0 w 0 ) y @ 0 0 0 0 e = = 0 0 8 # O 7 @ K ` O # e ..e , e g K u f { q q } @.s @ 7 ) , f u y u   # | f u s f 0 0 0 u = 0 f # % , 0 0 @ u K 0 0 y 0 0 7 = 0 y y u u 7 y 0 # y 7 0 0 q 0 0 0 7 # 0 e e # s e , O , q e # @ # 0 e u 0 e f q q 0   @ 0 # y e 0 @ 7 = @ = = # 0 # X X = 7 0 # O = y K @ O 0 u y 0 e K 0 w k y 0 @ # u # # # # # @ # # @ # # # @ # # = # # @ @ @ # # # @ O   O X O O O @   @     @ @ @ @ @ X   X @ X O O O O ",
"0 y 0 8 0 0 0 0 7 7 7 7 7 = = 7 = = 7 0 7 7 0 0 0 y e u u y q e y 0 e e 0 0 0 e e e e 0 r 7 y u e u q 0 0 0 0 = 0 e u q e k u 7 K s O q s s u I } u 0 u K 0 k _ y 7 y y   e ) ) ) f w K K f y K u K u u u q K 0 K K 7 y y y q e 0 7 y y 0 = @ 8 # ` ^ O 0 K ' e u f ' f ) ' K 0 H 3.L = = ) q f K y ) @ u ..K f K K 0 e e e # u u # 0 0 e 0 0 ) u 0 u q 0 7 0 0 y u u ^ 0 y 0 4 y 8 y y y 0 y q 7 # e f 0 0 f q # # e e 7 # 7 e u k y e K u e y @ # 0 0 e u w # y = # 0 # 0 0 @ # = q # 7 @ = y K 7 X 0 u e y e K y e K e q # q K 7 7 # 0 = 7 7 7 # = 7 7 7 = 7 4 7 4 # # # = = # @ @ @ # @ @ @ @ @ # @ @ # # # # # # @ # # @ @ @ @ @ @   @ @ e { #                     O   O O   O O O O O O O           O O   O X O O O O O   O @ @ # # @ X # # , # = @ 8 7 0 e 0 e 0 q , 0 # # 7 0 e y q y u 0 0 L O X s , u s I K 0 , _ K , u K 0 # 0 y O e K ) _ ' | X._ K u 0 u e u 0 u e q y 4 e 0 @ q 7 7 y u = 7 7 7 0 7 @ 7 O 0 ) O 7 K @.L q f K K y u ' e 0 ' @.f # 0 ) , K f 0 K O y { f u f f 0 0 q f , q K # , = q 0 @ e K y 0 y 0 0 0 # 0 y e u e # q 0 # u 7 7 q y 0 7 y 7 # 0 g u # e < # O , e e = @ = y u u 0 e f e e 0   # y @ 0 e 0 # 0 , @ = = # 0 X X @ = , 0 = O = e K = O 0 K y 0 y k 7 q u 0 0 = # e = # # # # # # # @ @ 4 # @ @ # = 7 = = = # # # # # @ # # @ @ O @ @ @ @ @ @ @ @ @ X O O O X   X O O O O ",
"O X     @ @ @ # # # @ # @ # # # # @ # @ # # # # # @ @ @ @ @ @ # # # 7 = # # # = 0 0 0 # 0 7 y e e u q q 0 q , = 0 y u y e u u 7 K s O e e e g I _ e 0 K ) q u ) y 7 y y O e ) ) ` ' O.+.) K q u e K e u u q k 7 u u # 0 0 w e k 0 8 0 7 r 7 # 0 @ ) ^ # y ) @.f s f _ u u _ ) 0 K 3._ q = _ 0 f ) 0 ) @ e { K u f K 0 q e u 0 k u # q 0 q = 0 K u 0 u y 0 0 7 0 e u u u 0 y q 7 u 0 y y e 0 q y 0 = u K q q e 0 # = e e 0 = 7 e e u q e K e e y @ # e 7 y u 0 , y = # q # 0 0 @ # = y 0 0 @ = e ) 7 @ 0 ) e q u ) 0 e u 0 e # 7 u 7 = # = # 7 # = @ = 7 # # # 7 0 0 7 = 7 7 7 7 # = = # # # @ # # # # # # # # # # @ @ # # @ @ @ @ @ @ @ X @ O y { r # @ @ @ @ @ @ @ O   O X X @ X O       O O     O                       O O O O   O O O     O O X   X O 8 7 0 u y u 0 0 , 0 # # 7 q e e y e k 0 , I O @ g < q f I K q = ) K 0 u u = # q u   q K ) _ K K K ) K K u u e e 0 e w y e # e q # e , = 0 y @ # r 7 0 7 @ 7 O 0 k O 0 u @.' e K K K 0 u ` u , _ #.e , = K # K f = K O q ..f u f K 0 0 0 u 0 0 f # 0 0 q 0 O q K e 0 e 0 7 = # q e e e e # 0 7 # e 7 7 q e 0 0 0 7 # 0 f e # e < # X 0 u e # @ # 0 y u 0 q K u y 0   @ y # 0 q , 0 w , # 7 = # = @ # @ # # 0 7 O # y k @ O = K y = 0 w X e K u u 7   w , = 0 0 7 = 0 7 # @ # = 7 = # # # # # # @ @ O @ # # @ @ @ @ X @   X X @ O @ O X O   X   @   O O O O O ",
"@ @ @ @ @ @ X # @ @ O O O   X   O O O O O O O O O   O O @ @ @ @ @ @ @ @ @ @ @ @ # # # @ 0 8 y e u u e y 0 0 = = 0 y u y e u u 7 K f   u u 0 s L _ e 0 K _ 0 u K 0 = y u   y K ) _ K ) ) _ _ u u e k e e e 0 K 7 y u # y q 0 q e = 7 y 7 y 7 # 0 O f k @ y ) ;._ f K _ u q K _ q f 2.K u # K 0 f K = ) @ q ..K u K K 0 0 u u 0 u u # 0 w e = = K k 0 u e 0 0 # r u u u e # y 0 # u 7 0 y u 0 0 q 0 = u K e q u 0 @ = u u 0 # 7 e e u e y ) u e y X # y 7 q e 0 0 e = = q = 0 = @ 7 # 0 0 y @ # y K = X 0 ) e 0 0 e @ u K e k # # e 0 0 = y = 0 0 y = # 7 , 7 7 7 7 7 0 # = # # # # 7 # # # # @ @ @ @ @ # @ # @ @ @ @ @ # # @ @ @ @ @ @ @ @ @   q { 0 7 7 r 8 7 = 0 7 = = = 7 r 0 r 0 # 0 0 y q e 0 0 0 0 0 0 = @ # # X   @ @ X   O O O O     O O O O O     0 7 0 e y u 0 0 , 0 # = 0 q y e e u k 7 # L O @ e 0 q K } K q # u K 0 u u 0 # y K O y | | _ K u u ' K K u u e w 7 u y e y # y y = u 0 , w K # 0 y = y 7 O 7 @ @ 7   q u ..| e K e K 0 u K f 0 ' @.f 0 # u # u u # K   @ | f u K K q # 0 f e 0 f = = # q 0 # e K e 7 e q 0 # # r y e u u 7 y 7 @ y 7 7 q e 0 0 y 0 = 0 K y o q , = X 0 e e # X = 0 y u q 0 K u y y   @ y # 0 y , 0 0 # @ # = 0 0 @ @ @ 0 0 0 0   @ 0 K # X e ) e = 0 k # e s q 0 = @ 0 0 9 0 0 = # # #   X X @ # 7 # # # # # # @ # @ @ # # @ @ @ @ @ @ @ @ @ @ @ @ @ @ @ @ @ @ @ @ @ O O O O ",
"7 0 0 9 7 7 7 y 0 q 0 0 0 0 r y y 0 0 7 7 0 0 # # # @ @ @ # @ @ @ @ @ X @ X @ @ @ @ @   8 0 e e e u y 0 0 y = 0 q q u e u k u # f K X e u 0 s ' | e 0 u _ e u f 0 = e K # e | | ` K u ) _ K K K u u 0 y u y K 7 0 u 7 e y 0 y k 9 9 y 7 y 8 @ 0 @ 7 7 O 0 ) =.' e K K u e ) ) e f 3.L e # u 0 u K # ` # # ..f f L K e = e f e e u 4 0 q q = 0 K u 0 u e q 7 # 0 e u Q u 7 y 0 4 u 0 0 e u 0 q y q # u K 0 0 q y # = u e 0 # 7 q y u e 0 K K y u O # y 7 y e 0 0 y # # 7 # y 7 @ = # y 7 u # # y K 0 @ 0 ` u 0 0 K 7 u K e e # = e y y 0 y 7 7 7 = @ @ @ # 7 7 7 = = 7 # = = # # 4 7 # # # = = # # # # # # # # # # # # # # # @ @ @ @ @ @ @ @ @ u =.y X @ 7 # @ # 7 7 # @ = # 7 = 7 = # 7 7 0 0 y y 0 0 0 0 0 = # # # @ @ @ # @ @ X   O O X X @ O O   O   O r 7 0 y e u y 0 # 0 # = 0 0 e y u ^ k 7 # L O   q , q f I L u , u u e K ) q # y f @ u @. ...K e e ) u u 0 y 0 = r ) e y 0 # y e 0 k 0 y u ` y q 0 @ 8 = O 7 @ # 7   0 u ' ..e K f _ e K e u 0 }  .K , @ u , K K , K @ # ) K s K L e # 0 f f 0 y # = @ e , , u K e 7 u e q # @ 9 y e u e 0 y = @ u 7 = 0 e q 0 e e 7 0 K q # 0 0 7 X 0 0 e = @ 0 0 0 u y 0 u e 0 y   @ 0 # 0 e < # 0 # = 0 7 0 7 # 7 7 y q 0 0   # 0 k 7 O 0 K q = = y @ e k y 7 = # 0 , # = # # # = = 0 7 = # = 7 # # # # # # # # = # = # @ # @ @ @ @ # @ # @ @ = 4 @ @ X # @ @ O O O O O O ",
"= 0 0 7 7 7 7 0 0 0 0 0 0 q r y e y y q q y r = 7 = # @ # = = # # @ @ # # # # @ @ @ #   8 0 e y u k e 0 , y , 0 q y u u ^ ^ k @ e K X 0 u 0 f L ' s q u K e K ) e 7 y K # f @.@...K u K ) K u y u 0 0 u K q k 7 0 u 0 u u 0 u ` u q y = 0 7 @ 0 # 7 8 O r ^ ..| u K ) K k K u e K #.' f # e 0 u _ , ' # # ..K f L L e # y K f 0 e # = 0 e = 0 ) k 0 u u e 0 = 0 y u Q u 0 e 7 # u 0 0 y u y y u y 7 u f 0 7 0 y # = u e 0 # 7 q q u u 0 u u y u @ # 0 7 q e 0 7 q = 0 y 7 y 0 # 0 0 u 7 e @ @ 0 k q @ 0 ) e 0 7 e @ e K q q # 7 e 0 7 # 7 = = = 0 0 0 = 7 7 7 7 7 0 7 = = = 7 7 7 7 7 # # # # # 7 # = = # 7 7 = # # # # # @ @ @ @ @ @ @ @ @   k @.0 X @ 7 # @ # # # # # # @ # @ @ @ @ @ @ @ O O @ O O O O O O O   @ X @ @ O O   X X O O O O O O   O   O O r # 7 y e u e 0 # 0 = # # 0 y e u ^ K u q _ O O q 0 q f g K u = e u K { ) e = y u @ u ....X.K y u _ u y = y 0 r q K e 0 0 @ w e q K 0 q u ) y u 0 @ 7 # O 7 * = y O y k ) @.u u K ..f _ u 0 q } | K , @ u u ) K , ) @ @ ' K s K g u # , u f = = @ # @ 0 = 0 u ) u 7 y e e 0 # 7 y u u y q q # @ u = 7 y y 0 0 0 q 7 0 f q = @ = #   0 q e # @ 0 , q K u 0 y 0 q y   O 7 # 0 y , # 7 # = = # 0 0 X # @ = , 0 0 X = w K 0 O q K y 7 0 K 0 u K 0 w 7 # 0 0 = 0 # = = 0 = 0 0 0 = = = @ @ # = # @ # = 7 = , = # @ @ @ @ @ @ O @ @ X 7 7 = # # # @ # # @ @ @ O O ",
"= 7 = # # 7 = 7 # # # = # # @ @ # # @ @   @ @ @ @ # # # # @ @ @ # @ @ @ @ @ @ @ @ @ @   r 7 0 r u k y 0 = 0 0 7 0 y e u Q ) ) e H K O , u 0 K K _ f q e K K ' ` u 0 y K @ k ..| ..) e K ) u q 7 u 0 y u K 0 y = 7 e y K u q u ) k u y 7 0 7 @ 8 7 7 r   y K ` ..u K _ _ K K e e f @._ u @ e u K _ 0 ' = # ' K f L g e # q K K = 0 # # 0 0 0 e K k y y u u q 7 7 e u Q e y y 7 # u 0 0 y y r 0 q e 7 e f q # = 0 @ # u e 0 # 0 q 0 u k q e y y u @ # 0 0 q u , # q = 0 7 7 y 7 @ 7 # y 7 u # = 0 K u # 0 ) e 0 0 ) 0 k K 0 u 7 7 q y 0 = 8 = 7 0 0 y y y 0 0 7 @ # 7 7 = 7 7 7 7 0 w 7 # # 4 # # # @ # # @ 7 0 7 7 = = = = # # # @ @ @ # @ @ O ) =.0 O O # @ @ # # @ @ # = # # @ @ @ # = # @ O O @   O O O   X X   @ @ @ @ @ X   X @ O O O O O O O O   O O r 7 0 q e k y 0 # 0 = # # y e y y u e u e _     0 q u s q K u , e f f | ) e 7 y K X u ' | | ) u f ..) e = u 0 7 r u 0 e 0 @ y u y K 0 , u ) y y 0 @ 0 7 @ = @ @ r O y u K @.u u K ' e K u 0 0 _ | } 0 @ e f L K # K @ @ _ f f L s u 0 q u f # # @ 7 @ 0 = 0 u u e # u u y 0 7 = e u u e q y # @ y = 0 y 0 7 0 0 K e 0 K u 0 @ 0 0 o , e 0 # @ y 0 y ) ) e y 0 0 u O X = 4 0 e , @ 7 # 7 # = y y O # @ o , 0 0 X 0 e K 0   0 u 0 # = e = e K 0 e 7 O = 0 0 , # 0 0 e y q 0 , = = 7 7 7 0 0 0 , # # @ O O O O O O @ # # # @ # @ @ = 7 = # @ # @ # @ @ @ X O O ",
"7 # # # = 7 = 7 # # # = = # @ @ # @ @ @ @ @ # # @ # # # # # # @ # # @ @ @ @ @ @ @ @ @   r 7 y y u k e 0 , 0 0 = 0 e y u u Q e u H K O , u 0 f q K f q y K f .._ u 0 e K @ u ' | X.) u ) { K q y u 7 u u e 0 u = 0 u e f e , u ) u u y 7 r 0 @ 7 = 7 r O y K _ @.q f _ _ u _ q e f | | K # y K L _ = _ = @ _ f K _ g f 0 e K K = 0 # 7 , 0 0 e K u 0 0 ^ u y 0 # u u ^ u y e 7 # u 7 r e y 0 0 y K 0 e K u 7 # q % 0 f e 0 # r y q K ` u e 0 q u @ @ 7 7 0 u 0 # q # r = 0 u 0 # 7 o 0 0 u # = y K e X 0 K e 0 7 u 7 u K 0 u = # , u 0 , 0 0 y e e e y 0 0 0 0 7 0 q w q 0 0 # @ @ # @ @ @ # = # 7 # = # # 7 0 = 7 = # # 7 # # # @ @ @ @ @ @   ) @.0 @ # 7 # # # # # # # = 7 = = = # # # @ # @ # @ @ @ O @ @ @ @ @ @ @ @ X O O O X X O O O O O O   X   O O r 7 7 y e k u , = 0 = # 0 e u u u ^ y y u }     0 q u s 0 f u = 0 f f { u 7 # y f @ f ' K ` ` u u ' f q = u 0 7 y K 0 e r @ y u w k # O e ` y r 7 @ 8 7 @ @ @ # r O # u K @.f u _ { y K f 0 q K | | 0 @ q e L K = ' # = ) f g L e f 0 0 e _ 0 = X # # 0 , 0 f k u 4 e u r 0 7 # e u u y 0 0 # @ y 7 y y 0 9 7 0 ) e , u u # X , < o < e e = @ y = y K k y w 0 q u   X 7 r w f 0 # 0 = 0 = = e e # 7 @   q r 0   y K K 0   0 e 0 # = u = e f q K 7 @ @ , 7 # # 0 0 0 0 7 = # # 0 0 0 7 q y 0 0 0 q 7 = = # = = = # @ # @ O @ @ O @ @ @ O     O   O O O O O O ",
"7 = # # = 0 0 0 7 = = # = # = = = # # @ # @ # # # # # # # @ @ # # @ @ @ @ @ @ @ @ @ @   r 7 q y u ) u 0 , q 0 # 0 u u u u k e e K K   = u q K q f f y 0 K f { ) y 7 y K # _ ' _ ' ) u K ' f 0 0 u 7 y u k q k 7 0 u u k e X e ` u y r 4 0 0 @ = # 7 r O 0 k ) @.e K { _ y { e e u | | K # 0 e K _ , ) 0 # _ f K L u K 0 e f ) 0 7 # = q 0 0 y K u y q Q u q r # u u u e y y = # u 0 y u y 0 8 y _ q e f u # # e , 0 u e 0 @ 0 y y k ) u y 0 q k @ @ 0 r e u y 7 y = e = 0 f 0 = 7 O 0 0 u # = u K y @ 0 u w 0 7 k = e K y K 7 @ # u 0 # 7 4 y y q 0 0 7 7 0 0 q 0 y e y 0 e 0 0 7 = = , , 7 = # 7 # @ # @ # # # # @ @ @ @ # @ @ @ @ @ # @ @ O y { = # # 0 # @ @ # = 7 # # # # # @ @ @ @ @ # @ @ @ @ @ X O     @ X X @ X     X @ @ X O O O O O O O O   O O 8 7 7 y e Q e 0 0 0 7 # 0 u u u u u e 0 e  .    q q u e < u e = q ) K _ u 0 # y u @ ) ) e ` ) u K .._ e # e 0 y 0 u 0 e y @ r ) u ) 0   q ) y y 0 7 7 7 O @ @ @ r O 0 u K @.K u ) ..e ) K , s H } ' y # , 0 L L = ) 0 # _ y K L e u , = u ) 0 0 @ @ = e y 0 e u ) 0 u u q y 0 = e u e e 0 q # O e 0 y 0 9 0 0 0 f 0 , e f = X , 0 # 0 0 y # @ t , y ) k y y 7 y u   @ e q 0 e 0 = 7 X 7 = , y 0 X 7 O   q y q   # u u #   q y e # # u @ e K = 0 , @ @ 0 0 0 7 0 e K u u e e y y y y 0 q 0 0 = = 7 0 = # # , , = # @ # @ O @ @ @ @ @ # @ X O   O O O O O O O ",
"# = 7 0 = = 7 0 = # # # # = 7 # # # # @ # @ @ @ # # # # @ @ @ @ @ @ @ @ @ @ @ @ @ @ @   8 7 r q u k u 0 0 q 0 , y u u u u ^ u q I L O # u q K 0 u f q 0 ) ) ' K y 7 y ) @ ) _ u { ) f ) ..) q 0 k 0 y y y 0 k = 0 ^ ^ ^ y O y ) u y r 7 7 7 # = # 7 y @ e K ` @.e K ' ` y ..y e K | | g = 7 0 K ` 0 ) u 0 _ e K _ u u 7 q f ) 0 0 # # e e y y u ) u y ) u 0 y # y u u e q e 7 # u 0 y y 8 r 0 e f 0 0 K u = = q < 0 e e 0 @ q y y ) ) e y 0 y k @ # u q y e q = 0 # y = q u = = 7 O 0 q K # # u ) u O 0 u e 7 = k # e K 0 e = # # u q 7 r 0 u k u u y u u u u y y y y 0 0 0 0 0 7 0 0 0 0 0 = = # @ @ # @ # # # # @ @ @ @ @ @ @ @ @ @ @   X   u =.= @ @ = X @ @ # # 7 # # # # # # @ # @ @ # @ @ @ @ @ @ @ @ @ @ @ @ @ @ @ @ @ @ @ @ X O O O @ O O X   O   7 7 0 u y u e 0 , 0 0 # 0 u u u u u y , e } O   < q s s 0 u u , w K K _ u q @ 0 ^ # ) ` u ` ) f ) @.K e 7 K y u y u 7 q y O u ` K k =   y ` r y 0 = = @ O @ @ @ y # e K K { ) e K _ e K ) # L _ ' ' u @ = 0 K ) , K q = ' 0 f _ f f 0 0 f ' 0 = # @ q e = q u u K = u k q 0 0 # e u e e q q # @ e 7 7 0 9 0 0 y K 0 e f e #   # , # 0 0 0 # @ e , q ) k y y 0 u k @ X 0 0 0 e y # y = 0 0 0 y 0 O 0 @ O 0 y y   0 f K # @ 7 # y @ # K = e u # = 0 @ O 0 u 0 0 0 e K q y e ^ u u u u u u 0 0 7 , , 0 = = = , = = = # # # # @ # @ @ @ @ O @ @ @ @ @ @ @ X X O ",
"# # # 7 = 7 = 7 = # # # # = 7 # # # # # # # # # # # # # # # # # # @ @ @ @ @ # @ @ @ @   7 0 y y Q k u 0 0 0 0 = r u u u u u y 0 ' _ O = f q L q u u w 0 K ) ' k y 7 0 ) # _ ' u | ) K _ =.' y y K y u u u 0 K = 7 ` ` ) y O 0 ) u y y 7 8 7 @ 7 @ 7 y = u K ) @.u K _ ) 0 ..y e } } ..K , 7 0 K { y k u = ` 0 f _ f f 0 y K ` 0 0 7 # u q 0 u u ) e 0 ) u q y # e ^ u e y e 7 # u 0 0 0 0 q 0 u K y u K e # # 0 , = y q 0 # q e y ) ) e e 0 u ) @ @ y 0 q e y 7 y = y 0 0 u 7 # 0 O = e K = # u ' u @ 0 = e 7 = K 0 u K = 0 = # # k u 0 e 0 u ) u e u ) u k u k u u w q 0 0 0 0 7 0 0 0 7 , # 7 7 4 # # 4 # # # @ # # # # # # @ # @ @ @   @   _ =.0 @ @ = = 0 7 = = 7 # # # # # # # # # # = # # @ @ @ @ # @ # # @ = 7 # @ @ # @ @ O   O O O O O O O   O   # 0 0 y y u e 0 , 0 0 # 0 e e e k ) u , 0 | O   < q G L q u s 0 0 f _ | u 0 # q ) @ K ' u _ ) f _ @.K e = u u u y u 0 q y O k o.) K =   0 ` 7 0 0 # 7 7 O @ # 8 ] 0 e ) ` ..{ u ) L e K ) # K L ' | f @ 7 y K _ 0 u q # ' # u _ K K u 0 K { 0 = q X w e # = y u k @ y e 0 0 7 # u u u y 7 y # X e 0 8 0 8 0 q e g 0 u f e # X @ , # 0 0 q @ X q 0 y ) u e e 0 e ^   O y 0 y e y # 0 = 7 0 0 e 0 O 0 = O # q q O = f K 0 X 7 # u q 0 u = e u @ = 0 @ @ 0 0 = 0 0 y e , e u f e u K K s e 0 e 0 q 0 e 0 0 = 0 , , 0 = 0 0 0 = = @ # # @ X # @ @ @ @ @ @ @     ",
"0 7 7 0 = = , 7 = = = 7 7 0 7 # # # # # 4 = # = # = 0 7 # # # # # @ @ @ @ @ @ @ @ @ @ O # 0 u y ^ ^ u q 0 q 0 # 0 u u u ) ) u 7 K K O # s e } f u f u , k ) X.K y = 0 ) # u ' f ' ) K ` @.K 0 0 K u k u u = ) = 0 ' { k e X # ` y r r 7 8 9 @ = = r ) 0 u ) ` @.) K ) ) 0 { r e ' I | K 7 7 y K { e u u = .., f _ L K u e ) { 0 0 0 # k 0 # q e ) y 7 u y q q # e k u e 0 e 7 X u 0 0 0 0 y y f f 0 f K y # @ 7 0 = e y 7 @ 0 y r k ^ e u 0 e ] @ @ u q e u e # y = q q y e = # e # # y u = # e ' e @ 0 = u e 0 k 7 u u @ 0 7 # # u q = y 0 e u 0 u u K e u K K f e 0 e e e y e 0 q 0 0 0 w 0 0 q q 0 7 7 = = 4 @ = # # # # # # @ @ @ @ @ @   _ ;.# # # 0 , q 0 , = = O @ # = = # # = 7 = 0 = @ @ @ @ @ @ @ X @ O # 7 = # # # @ # # @ @ @ O O O O X O O O * 0 0 y e u e 0 , 0 0 # 0 e e u ^ ) u 0 , L O O e e I _ q s g q 0 f ' X.k 0 # 0 k # u ' K _ ) K ' -.K w = u K K u u 0 w y O u { ) u 0   7 k 0 y 0 O 7 9 @ 7 7 r ` 0 e ) ` ' ..f _ _ u K K = K H I | g # 7 y K ..u u 0 0 ' X e ' L K e # e ' 0 # =   y u = 0 q u ^ @ y u e y 0 = k u u y = q # @ y 0 7 0 0 y y e f , u f y =   @ 0 # 0 q q @ X y e u K u u u y u y O @ K y y u e # 0 = 4 0 0 e 0 X q 0   7 u y @ 0 K _ = # 7 @ K q = = = u K @ = q @ @ 0 y w e r 7 # # # , , , < q u , 0 q s u q q e e u e u e e q 0 0 0 , = 0 7 0 0 7 # , = = = # # @ # # # ",
"q 0 7 7 @ # 7 7 0 # 7 0 7 0 0 7 # # # # # # @ # @ # 7 7 7 = = # 7 = # # # @ @ @ # @ @ @ = 8 u y Q ) u q 0 0 0 # 0 u e k ] ] u 7 K K O , g f | u u f u 0 f ) =.) y 7 0 K , K { K ` ) K ..-.) 0 0 ) K ) u u , K = 0 K @.) y @ 0 ) u y y # 7 0 = 0 0 y ` 0 u ) ` @.{ f _ _ e ' r e L L ..L 0 7 y K ..K u e 0 ' # u } L K u 0 u ` 0 7 = @ K y = y e ) 0 0 ^ u e y # u ^ k e 0 y 8 X u 0 0 q y e e u f 0 f f y # # 0 0 7 e e 0 @ 0 u e ) K u K e u ) @ # K e u u e = y # 0 y e e 0 # u # # u u 7 7 u ..y # 0 # f u 0 0 7 u K @ 0 0 = # u y 0 u r r 7 # 7 , 0 0 q q e q 0 u f e u e f u u u u e e 0 0 y y 0 0 0 0 q q # 0 0 7 0 = # # = = # = @ @   u :.= , , e 0 0 , # # = 7 7 0 0 0 , # # O O O @ O O @ # # # @ @ # @ @ 7 # # @ # @ # # @ O O O O O O O O O   @ 0 0 y e u e 0 , 0 0 # 7 y y e Q ) u 7 = L     u q I _ q u s q 0 f ' | u 0 # q k = k ' f _ { ) ) -.K 0 = k u K e u y e u # y ) ) u q   0 ) 0 u y @ 7 7 @ 7 7 8 k , 0 K ' { ..u K _ e u u # K H } | s # = e K _ e e e u K X f } L g e = e ` y = 0 X u u = 0 y u ) @ e e e e 0 # u u u y # e 7 # u 0 7 0 r e y q K , e K 0 X O @ y = 0 0 q # O q u K K k K K e u k O @ u 7 y u q # 0 = @ 0 q e 7 @ u w X 0 u q O # u _ = = =   e @ @ @ @ K u O 7 u = @ @ O O @ 4 0 # O @ @ = 0 0 7 0 # # 0 e e 0 q K K K u u u u e e e u y 0 y 0 0 0 0 0 w , , = # = = # # @ ",
"0 = 0 0 0 0 y y y 0 7 # @ @ @ @ @ @ = # 7 7 # 7 # # 7 7 7 # = # = = # # @ @ @ @ @ @ @ @ # 0 u e u K u q 0 0 q # 0 e e u ) ) u = s g O 0 s u | f s f u 0 f _ X.K e 0 0 K , k | K ` { ) { @._ 0 q K K K u u y ) 7 7 k { K e X = ) u y k 7 7 0 @ 8 0 y ^ 0 q u ` @...u _ ) 0 _ 8 w ' _ @._ y = u u ' K u u u ' # f | L K e 0 u ` y 0 0 # ) r 7 e e ] y 7 ^ u e e # e ^ ) u , y 0 # u 0 0 q y u e u K 0 K f 0 @ # 0 r 0 y y 0 @ 0 K k ) k k ) u u ) @ # k 0 u k e = e = 0 q u y 0 , k 7 # u u 7 # e ..y = 0 O e 7 @ # 7 K K @ y e 0 @ 4 # @ = 7 0 7 @ @ # 0 0 0 0 0 = 0 w u e 0 u ) ) k K u K u u e u u y y y y 0 y 0 e 0 0 0 7 0 = = 4 # 7 @ #   e ;.0 % , e = 0 7 7 0 0 q 0 0 y 0 0 0 q 7 = = = = = = # @ @ O O @ O O @ X O     O O O   O   O   O O   O O @ # 8 0 y u u e 0 0 0 0 # 0 y e u ^ ) ^ 7 # H X   u q } | e f s 0 0 K ' ..u y 0 y K = u ..) ` ) u K @.' q = K K ) u k k k k 0 y K ) e #   7 K 0 u y @ 0 r # 7 7 @ # X = e { _ #.f K | e u u X L H T @.u # = u f | K u u ) K = u | _ K e 0 u K w 0 e = u u # # 0 e ) 7 y y 0 y 0 0 u u u q = u 7 # y = 0 q q e q 0 f = u f 0 # O # 0 # y e y # O 0 u u u e u K y u ) O X u # u u , = 0 # # y u u 0 X e y @ 0 e r X 7 u ' = 0 0 # _ @ @ @ @ K u O 7 u = @ @ X @ X @ # # @ @ # = 7 0 0 0 7 # # 7 # @ # 0 0 q 7 , # = 7 0 0 # 7 = = = = # 0 0 y y 0 0 # # # = # @ ",
"0 0 0 0 y 0 y y 0 0 q y 0 0 0 0 0 0 0 # # # @ # @ @ # # # @ @ @ @ @ @ @ @ @ @ @ @ @ @ X 7 9 u y u k u q q y q # r y u u ) ) ^ # q g O , f f #.K u g e 0 f _ X.K y 0 y ) 0 u ..) ' _ u ) @.` 0 q ) ) ) k ) u ` y y k { K q @ @ u u y u 7 8 y 7 0 0 # 7 @ 0 ) { ' ..u ' ' r _ 7 q | H #.K 0 # u K ' _ e u ) _ 7 K  ._ L u e K ) w e e q ) r # 0 e ) y 0 ^ y y u 0 e u u y 0 u y # e 0 y r y u q e f = f f 0 # # 0 0 0 u y q O = u u k e u ) e u ) @ @ u , u u , = y # 7 e K u 7 # K , # y e 7 7 y ` r = e = _ 9 # # 6 k k O q q 7 @ 7 # @ # # 0 7 # # # 7 0 q 0 q 0 7 0 0 7 @ 7 y 0 # 0 0 0 0 q q e q 0 = 7 7 = 0 y e e y 0 7 = 7 7 = @ # @ @ O u ;.u 0 u K e u u u u y y r y 0 0 = = 7 7 # # # , , = # @ @ O O @ @ @ @ # @ X @ O O   O O O O O O O O   O O 7 0 0 q u u e 0 0 0 = X 7 e u e u ^ ) = o I X X u q ' | e u u % , K _ ..u 0 0 y ) , f X._ { _ u u { _ e 0 K ) ) y e u u k 7 y k ` u 0 X # K u e r @ 0 r = 0 9 @ O O # y ` K #.f K +.y u u # } Y T  .K = 7 u K X._ s u ) u # K | I L e 0 K K y , 0 = u e @ = 0 u ) 7 e u y y y 0 u ^ k u 0 y # @ e 7 0 0 0 e q e ' 0 e f , @   = y 0 e y q = X e y u e e ) K y u k O X u 0 k u = # 0 = # 0 f K 0 X q y @ # y y # 0 ) ) 0 u u e ' 7 7 = # K e   = e # @ 0 7 , # # # # = , # @ @ = = 0 # # @ @ O O         O                               O     @ # # # 0 7 # ",
"^ ^ k u u y e q q 0 0 0 0 7 = , 0 0 7 # # # @ # # # # # # # # @ @ @ @ @ @ @ @ @ @ @ @ O 0 0 e 0 u K e y q y 0 # 0 e k u k ) ^ 4 q H O < f s +.f s f q = f _ @.) e y y ) q k @._ .._ u K .._ y y ) ) k y u y ) y r u { k y = # u k e u = r y = 0 0 # @ @ = k ' _ @.u } | 0 ` 0 0 #.H 5.K 0 # u K ' | g u ) f = K X._ L e w K K q w 0 0 ) y # 0 u ) u 0 ) e y u 0 u ^ K u y y 0 # e 0 q y r u y K _ 0 f f 7 O = 0 q y u y q @ 0 K u k u K _ u u ) @ @ u 0 K k 0 = y 7 0 e ) k 7 # u 0 @ 0 u 0 0 u { u e K q ' 8 7 7 # K u O 0 y 7 # y 0 = 0 # 7 7 7 0 7 = # 0 0 q 7 # # # @ @ # X X @     O       O       O   O   @ @ # @ # # # 0 0 0 = #   @ # ) { 0 0 u u , y u u u u K u u 0 0 0 , , 0 7 , = , = = # # # # @ @ @ @ @ @ @ X @ @ @ X X O O O O O O @ O   O 7 8 0 y u u e 0 0 q = @ q e u e e u y # = T @ o q 0 L } e f u , q _ ' @._ 0 , 0 K 0 q .._ @...K u | ' q , K K u 7 u e y y # q K ` 0 e # = e u u y @ r 8 # 0 0 @ O @ # e { ) #.K K @.y u ) # I } T  .f # 0 K f ' I u y K e = _ I K K u 0 K K y = = # u y # = 0 u ) 7 u K q 0 0 7 y k k u 0 , 0 # 0 0 0 0 0 e y u L = q f # O @ 7 0 0 u q 0 X O u 0 y u u K ) u e k O   e # k u 7 7 0 # @ y K f 0 @ q y # = e y @ y 0 0 w K = = u O = 0 O K K = 0 0 @ @ = # # @ = = = = = = , # 0 0 y e q 0 0 0 q 0 0 0 0 0 = # = = # # = # @ @ @ @ @ O O O O O               ",
"k k u k ) f u 0 y 0 0 q 0 0 0 0 0 0 0 # = 7 # = = # # # # # # # # # # @ @ # @ @ @ @ @ O 0 9 y q k k e y y y 7 = y e k u u ^ u 4 q H o < u e | K f f e 0 f ' #...u 0 0 k q y ..' @...k u ..` y e ) K u y u e k 0 0 k ' u u 0 , u K u k # r y = 0 r = @ # 0 K { _ #.u ' ..0 ` 0 ,  .d 3.L 0 # f K _ } f q ) u 7 _ ' K ) u q ) K y 7 4 0 K q 7 7 y ) u 0 ` u 0 q 0 y k ) k y 0 y # y q y y y u y K K = s u # @ 7 0 0 e e y 7 O y u y u K K ) u u ) 7 @ u = ) k 0 0 q # = u ) u 7 = K 0 # 0 u 7 0 e y 0 K e # k # 7 y @ f K 7 y , # # q 7 # # = 0 7 0 7 0 0 = 0 y e u y y q y y y 0 y y y = 0 0 = 7 0 7 = = 7 4 = @ @ @ @ @ O O O O O     X   O   0 o.y = = 0 0 u e e u f L s e < e q e q e 0 0 = 0 , 0 , = 0 0 = = # @ # # @ # # @ @ @ X @ @ X X O X @     O = 7 7 0 u u e q e 0 # # e w u u u u y 7 # d , 0 e q T X.u s e , u ' ' =._ e 0 = u q y .._ ..@.f u ....e 0 k K e = k 7 0 y = y ) ' e e @ # e k ' u # 0 7 # 0 y = O O @ e ..K #.K f @.y u ) # L Y I #.G # , ) e L I q 0 K 0 # K K f f e 0 K K y 0 # 7 k e 0 # w ) _ 0 u k 0 = 0 # q K K e 0 q q @ 7 q q 0 0 y y e u , e u # O @ = , 0 u e 0 @ O ^ q w K K u ) u e k   X e # u u 0 = 7 # @ y e e 7 @ e y # 7 u y @ q , # 0 u = 0 u = y y O u K 0 = @ O @ 7 0 0 0 e y 7 0 0 r y 0 y r e u e 0 q e y y q q u u 0 0 e e 0 w w y 0 7 0 = = = 0 0 0 0 7 7 # @ O X O ",
"u e u f L s e q u e e e e 0 0 0 0 0 w 0 0 q 0 7 7 = = 7 # # = # = # # # # # # @ # # # O 7 7 0 0 ^ u e e e q # 0 u e k k ^ u y # 0 s , u u u 3.L s s 0 0 ' ' #.@.u y 7 u e y { ' | @.K K @...e e ) K y 0 u 7 u 7 0 ) { u e 0 # e ) ) ` 7 r 0 # r y 7 @ @ # K { K -.K _ X.0 ` r =  .s 3.I 0 # K u K ' e 0 K q 7 K K f K u q ) K e 0 # y ) e 0 = u ' u 0 ) y 0 0 0 q ) ) u y e y # 0 q y 0 r u u u u 0 f e # @ 7 0 0 u u e 0 O y u y k ) u ` k u ) 0 @ u = u u 0 0 0 # 7 y u y 7 # k 0 = y K 0 7 0 7 = u y 7 K 0 q u @ u ) 0 0 # @ 7 u y 0 w y u 0 q y y e 0 y y e u e 0 e e y y q y u u , e e e y y y q 0 0 0 7 = q q y 0 0 7 # # # @ @ @ X O @ u =.^ 7 = @ X # # # , , q , , w s u q q e u u u u u e 0 0 0 0 = , 0 0 0 0 # = , = 7 # # # # # @ @ @ @     O = 7 7 y u u e e u q # = u y u u ^ ^ e = # q % q u s  .@.s u q # e L ' #.| K e # u q 0 ' _ _ ' u e _ | u e _ K 0 = k = = 0 7 e K { f u # , u K ..{ # 0 7 # 0 0 # O   @ y ` K -.L K $.u u ) # I Y I #.K = 0 ` w K _ e u K = = u q e f e 0 f K u 0 # y ) u 0 O 0 K u # y ^ q 0 q 7 r u u q # e q @ 0 0 q 0 0 q y e f 0 e f # @ # = , y u e y # @ u q q K K u _ u u ) # O u 7 K u 7 7 7 # # 0 0 = # O 0 0 O 7 u 0 O 7 0 0 0 0 = 0 y # y u X e f 0 0 = O @ = 0 = = 0 7 # = 7 = = = # @ @ # @ X @ X O X   X # = # # , = = q 0 y u u e e 0 0 e 0 0 0 0 0 0 0 = 7 = ",
"= 7 0 , y 0 0 q f e e u f f K k k u e 0 q y 0 0 q 0 r q 7 7 0 7 0 7 = = = 4 = # # # @ O 0 7 0 0 ^ u e u u y = 0 u e k k ) ) e 0 0 0 0 u f K 4._ u u 0 0 _ _ #.@.) u 0 u u 0 ' ' _ ' u u ' ..u u ) k 7 r u # y 0 y ) ` ` K 0 0 u ) ` ..0 7 0 = y y 7 @ O # u { ) 9.K ' #.q ` q 4 | d +._ y # ) K u ' s u ` 0 = u e u K e 0 K ) u 0 7 u ) u 0 @ e ) e 7 ] e y y 0 y Q u e = e e # 0 r y 0 y y e u u 0 K e = # 0 0 0 u u u q @ q u y u ) u ` K ^ ) 0 @ u 0 K k 0 0 0 7 7 0 0 0 # @ y = # y e 7 = 0 y 0 u 0 = u 7 0 ) @ e ) q y = @ = 0 0 = 0 0 q # 0 q 7 0 7 7 # # 7 # # = @ @ @ @ # = 0 # 0 0 7 0 y y u k u e e 0 e 0 w q q q y 0 0 0 0 q = 4 O e ;.0 @ 4 #   @ = 0 0 0 0 7 # 0 e e , q K K k u k u e e e u e q w q 0 0 0 0 y 0 0 0 # = # # # @ @ X @   @ O 0 9 7 y u u 0 e u w # = e e u u Q ) e , , # , s f s 2.$.f q q # e L ' $.X.K 0 0 ) e 0 ' ' ) { k e ) X.e 0 _ f 0 7 k 7 7 0 # u u ` K e # , e u ` ` = 7 7 = 0 0 = # O @ y _ _ -.| L 3.u u ) # I | H +.g # , _ y K _ q e k @ 0 K e e ) e 7 u u e , # e ) k y X , u e # u Q q q 0 0 u u u q X 0 y 0 7 7 0 0 q y q y u 0 K L 0 # # = = 0 e 0 0 O O e w e u e e _ u u ) @ @ K 7 k u 0 = # = 7 = 0 = @ O 0 0 O 7 q = O 0 e e 0 7 7 y 0 # y K @ u K w 8 = # # # @ O O @ @ O o # @ # 7 = @ = 7 # = 7 7 # # # # # # @ X @ @ @ # @ # = = # # # = , # , = , , , 0 , 0 , ",
"7 r y r 0 0 0 0 u u 0 y ) K u e u K u u u k u y u y y q y y e 0 0 7 0 7 4 7 # # # # @ @ q 9 y y ^ u e e f e = = u e k k ) ) e q 0 = e G K K 0.| f u 0 0 K L #.#.) y 0 ) K 0 @...) ..K u ' ..u u _ K 0 r u = y 0 0 ) K ) K 0 , e K ) { q 0 0 7 r y 7 7 @ # u ` ' 9.' } #.w ` e 7 #.H | | f # ) K u ..u y K # 0 K u e _ e 0 k K e 0 7 u ) u 0 @ e K y q ) e y 0 7 y u u u # 0 u q 0 0 y q y e y u f y _ f 0 @ 0 = 0 e u q = O 0 e e e u e ) f u ) 7 # k 0 k k 0 7 = 0 0 0 y 7 @ # e 7 @ 0 0 # = u k 0 y 7 y u = 0 ) # u ) y y 7 7 7 7 # O @ @ # @ # 7 = # 0 7 # = 0 7 0 7 7 = = = # # = # # = @ # # # 7 = = 7 = = 0 = 0 0 0 0 , 0 0 q 0 y 0 7 # e =.y @ # # @ # @ # 7 0 0 7 # # = # o @ 7 = @ O @ # # 7 0 q 0 7 = = # # = 0 0 0 0 7 = # # 7 # @ @ X @ O   O 0 8 0 u u u 0 e f y # , y y u u u ^ y 0 0 = < H K q 2.@.K u q # q _ ' X._ e = 7 ) u 0 ..X.' =.) u ' @.e , K K y = e 7 y u 7 ) u u K u # @ e q ` _ y 7 9 7 y y 0 7   @ e ` ' ..} H #.u u ) # | } s  .K # = ' w ) _ q e e O = K e q f e 0 u K y = = q K ) 0 @ # u u 0 k ^ w 0 = 7 y u ^ 0 @ 7 k 7 = 7 q q e y 0 e u 7 K K , @ # # < e e 0 = O = K 0 e y e f ` e u ) @ # k , K u y # @ , q , e 0 # O = q @ @ 0 7 @ 0 w 0 # 0 # 0 r = q u # K f = 7 = # # @ o X # @ @ @ # 7 # # # @ O @ @ O # # = # = 0 # = # # # # @ @ @ X O O O O O   X @ @ X X @ X X @ X @ @ ",
"= = 7 0 q 7 # # 7 = @ 4 7 = @ @ @ # # 7 0 0 7 = = # = = 0 q y q 0 7 = 7 0 0 = # # # @ @ 7 8 y e k u e e K e = 0 e e ^ u Q ) y y 0 , s L f K 3.' f u 0 7 ) ' X.} u 0 7 K K 0 @.#.' -.) K @.X.e y ) k q r u 7 u y y ` e K K q # q u k o.u 8 8 8 y u y 0 O # u =.' X.} Y #.w ` e = @.K _ | u # K K u ..u u K # = K u q K e y K ) e 0 7 y ` K y @ q k y u ) u e 0 0 y k k u # 7 u 0 7 0 y y u e y u u 0 _ f 0 # 0 , q e u 0 = # K u u y e k ` K u ) 0 # k 0 K k y 7 # w e 0 u 0 = @ y 0 # 7 y # 0 e u 7 y 0 q y 7 r ) 7 u ) 0 0 = 7 # = = @ = # # # 7 0 8 7 = = # # # @ = 7 7 = 7 0 7 7 # # # = # # # @ @ @ @ @ @ @ # # @ @ @ @ @ # @ # @ # X @ @ = =.u @ @ = # # # @ # = 0 = # # @ O   X     X                               O O   X @ X # = = @   O O O O O = 7 0 y u u , y f w # 0 y y u u ) ) y = 0 # , H L e X.#.K f u # 0 ' ' ' K y @ = ) u 0 ....' -.) u { | u y ` ) y 7 k 0 y u # ) K q f 0 @   y 7 ) { k y 7 7 y 0 y 9 O @ y ) ' L | T #.u e K # } | g  .L = 7 ) 0 ) ' s ' K O # _ u 0 u e 0 u K y = 7 = u ) 0 @ # r y y ) ^ y q 0 y u u u q @ 7 u # = 0 0 y y u e u f q K K , # 7 # 0 e u y = @ 0 _ e e y y k ) e u ) @ @ y 0 ) e 0 = O = y 0 0 = 0 # # 7 @ X 0 7 # y 0 0 7 e # r u y y 0 # K K 0 = 0 # = 0 0 0 y 7 = 0 f K u y y 0 0 q q # @ # # O O O O   X X     O   @ @ O @ @ X @ @ X @ @ @ O O O @ O O O X ",
"# # # 0 0 0 7 = = # # # # # # @ X X         O O O O O O O O @ @ @ # # # = 7 = @ @ @ @ O 7 7 y q u u y e K e , 0 e e k ^ ) ] y 0 0 , u I f g 3.' K f q = _ ' .._ u 7 # K ) 7 { @.' -.) u ..' u u { ) y y k 0 K w y { u u u 7 O 0 y u @.K u 0 7 y 0 u y @ # u ` ' ' | | #.q ) e ,  .L I | u # K f u @.g _ _ # # ) K 0 u e y f K e 7 0 0 ) ) y @ 0 u y k ) u e y e u u ) y 7 0 u 0 0 q y y u u e f K e ) f 0 # y < u u u 0 7 4 _ K u y e k ` K u ) 7 @ e e ) u 0 0 @ 0 e 0 r 7 y # 0 7 @ # y = 0 e e 0 e 0 0 u e y y # K ) r 0 0 7 7 y y 0 u 0 0 0 u _ K u y q q y y 7 # # # @ @ @ @ @ @ # @ # @ # # @ @ # # # # # # # # @ @ @ # @ @ @ @ # X @ O # [ 0 = = 0 = 0 0 , 7 0 e u e 0 q w y y 0 0 y 0 = = , = # 4 = # @ # # # @ X X X O O O               O   O   7 8 0 e u u 0 e u w # # w e u u ) ] y 0 0 # q L L q 2.#.K f q # q _ ..| K e # # u k 0 { ..X.9.) u ..K f K ..` u = K 0 e u # K u 0 ) y @ O y 0 ` @.) u 0 7 r y u 0 O X r K | _ | } @.K k _ @ K  .K @.K 0 0 ) 0 K _ s _ ) # # _ K 0 u e y u K y 0 y 7 u K 0 # @ 7 0 u ] ) e q 7 e u u u e 0 0 y # = 7 q 0 e ) q e f e f g 0   7 # , u e y # O 0 _ e y y y K k e u ` # X 0 0 ` u 0 0 O = y 0 0 = e 0 = 7 # @ 0 7 0 e w y 7 y = y k u 0 7 # f f 7   0 @ # y e 0 , = 0 u ) ) ) u u e u e e 0 0 0 0 7 = 0 , = = , = 7 # # # # @ @ @ @ @ @ @ O @ O O   O @ O @ O @ ",
"q 0 0 e u k u y e e e e y e u y , q 0 , 7 0 7 7 7 7 7 # # # # # # @ @ O O     O   O X O 9 8 y y ^ K e e K e = = e u k ! ] ] y y 0 , u } f K 3.} K f < # _ X.X.) u 0 @ u _ 7 _ @...q.) K @.) K ) @.) y 0 u 0 ) y y ] 0 u K 7 O 0 u u -.` ^ r 7 y y u y @ O e ..' ' } } #.u ) K # | I ' | K = K u u ..g K ` q # ) ) 0 K u y K K e y y 0 ) ) y # # y y ) [ u e 0 y ^ u ^ u q 0 y 7 7 q y 0 e ) y e f u _ f 7 @ q # e e k 0 # 7 ` f u y y u ) e u { 0 @ y y ) k 0 q @ 0 e 0 0 0 u 0 0 0 = = y 0 y e u 0 y 0 0 k u y 0 @ u K 0 @ 0 = 7 y u 0 0 = 0 u ) ) ) K u e u u u y y 0 q 0 0 y 0 0 0 0 y 0 7 = 0 # # # # # # # @ # @ @ @ @ # @ @ # @ # @ @   q [ 0 y = 7 0 0 0 0 0 0 0 e q = 0 q 0 w 0 0 y u 0 0 u e 0 y 0 q 0 7 0 7 # 0 0 w 0 0 7 # @ @ @ X X X O O O O 7 0 7 y u K y u u 0 @ # e e k ) ) ) y 0 0 = 0 I L s 4.#.f K , X 0 _ @...K e = # f ) 0 ..=...9._ K -.K ) ) @.` y @ u 0 y e @ u y r _ e @ O 0 y ) ..k r 7 @ 8 8 u 0 O   , K ' _ | T  ._ K { 0 f X.H | L 7 7 K 0 K I g f ) @ O K K e K u q u K u y u 7 u u y # @ 0 0 w K k u y # y u ^ u y q = 0 @ # 0 y 0 y K 0 w f u f f 0   = # , u u e # @ q _ e u y 0 K u e u ) # @ y 0 ) u y e @ , e 0 7 = e 0 = y 0   0 0 0 , q 0 # y # y u = 0 7   e u 0 X e # @ 0 0 = , 0 0 q e u y 0 y y u e e 0 0 = 0 7 0 0 0 7 = = 0 q 0 0 y e 0 r 0 0 = = @ @ @ @ @ @ @ @ @ @ O @ ",
"0 0 0 0 0 y y 0 0 r 0 0 0 w y u , e e e e e e y q w 0 = 0 y y y y 0 0 # = # # = # @ @ O 7 8 y y ^ ) u u f y # = e e ^ ) ) ` y 0 0 , u ..f L 9._ L f o # _ X.#.) u 0 # u ' = { -...q._ ) :.K _ ` X.) y 0 u y K r 0 u 0 K K 7 O 0 u k =.) y 7 = 0 0 u y # @ 0 L ' }  .} @.K _ ) 7 L } ' | u # f u e | K f ) 0   u _ e K u y u ) u e u 0 ^ ) e # = y = u ) k u 0 0 k ^ ) ^ y 0 e = 7 y e y y ) y e K u K f 0 @ q # q e K y = 7 ` K k e q u ) e u ` 0 @ y q K k y u # y u 0 7 0 u 0 r y 0 # y y 0 0 u = y 0 0 ) 7 0 0 O e K q = y 0 4 0 y 7 0 7 0 0 y k u 0 u u u u e q 0 7 0 0 q q 0 7 = = y 0 0 w u y u u y 7 7 # # # # # # # = # # # # # @ @ O e o.u # @ @ = = # = = @ O # # X @ @   O O X # = # # , = 7 q 0 y u e e y 0 y , 0 0 0 0 0 0 , 0 = 0 7 # @ # @ 0 7 0 y u k e u f e @ # e y u ^ ] ) q = 0 # , L L s 2. .s _ , O 0 | | X.K e 0 = ) _ 7 @.@._ :.` K -.K _ _ @.` y = k u k e # u y y f 0 @   0 u ` { u 0 = @ 7 9 u y # @ 0 u ' | | I } K u { e q ..L | L 7 0 _ u L ..K u k @   K ) q K K y u K u 0 y 7 k ) u # @ y u q k k u e # 0 u ^ ^ u e = y @ # 0 e y e ) 0 q f s f f 0 # # @ # 0 e u 0 O e { k K e 0 ) K y e ) @ O 0 0 u e 0 0 @ , y 7 # # w 0 = w r X 0 0 0 0 e 0 7 ) 7 q K # 0 7 @ u K u 0 k 7 @ = # O O O X O # , = 7 0 q q 7 = # , 0 , 7 0 y 0 7 = = = = # # # = # = # # @ O O     X X X X @ @ @ @ @ ",
"7 7 0 # # 7 7 # # # @ @ @ # # 0 # 7 , = 0 w y e u y y 0 y w 0 0 q q 0 0 w 0 0 q w 7 = = 0 7 y y Q ) e u f e = 7 e e Q ) ] ] q 0 0 = q _ s _ 0._ _ u O # I | #._ f 0 # u ..0 { @._ -.' ) :.K ' ' ..) 0 0 ) ) K y r k y k u = @ 0 u K @.k y 7 7 9 8 k u = # 7 k ' @.| I | K ) { y K | | ..f # K ) K @.K f ) 0   u ' e ) K e u ) u y y 0 ) ) e = = u y u ) k u 0 0 u ) ) ^ u 0 u = # y u u u ) y u K f K f q # 0 # 0 q u e = 7 { ) ) k y f _ e e ] 7 @ 0 e u u q 0 @ 0 u 0 = 7 e 0 0 e 7 # u y q y u = ) u # ) 0 y y @ e ) K y e 0 # 0 0 @ # O @ @ # 7 7 0 q q 0 0 = = 0 0 0 0 e e 0 7 0 0 0 = 7 = 0 # # # # @ @ @ @ @ @ @ @ @ # # # # @ # @ @ O 0 { # O O X # @ @ = = @ @ 7 # = 7 = # # # # # # @ X @ @ X # @ # # # # # # , # # = = = = , 0 0 , , = = # = # 0 7 r u u ) q u K u # , y w u k ) ^ 0 , 0 , , f K q 3.| K _ = @ e X.X.#.K e 0 @ f _ 0 ...._ ' f u -.f ) K .._ q @ u K K y # u e u ) 0 X   0 K ' _ e 7 7 = 8 7 u y O # # u ' | } L  .K y ' K 0 ..T #.K 0 0 _ f _ ' e K K # O K ) 0 K K u w K e 0 0 = u ) y # X e u q k k u q # 0 k ^ ^ K u 0 y @ @ y u u e ) 0 q K u f u , @ # @ , q w e q O q _ u ) k 0 K u 0 e ^ #   0 e u u 0 0 O 0 w 7 # 0 e 0 # 0 y O 0 0 w = u y 0 ' 7 7 ) e k 8 @ e K u 0 0 # # q 0 0 0 # # @ # # = = # # # # @ O X X     @ # @ @ # # # @ # # @ @ X O O O O O   O   O O O O O O O O   ",
"# = 0 # # 7 = 7 0 0 7 7 0 = # = # # # # @ # # = = # # # 7 = = , , 0 , , 0 0 0 0 7 7 7 = 7 7 y u ^ ` u e K u 0 0 u y u ^ ) ) y 0 q q e K u _ 0._ L u   7 } @.-.) u y 7 e { = _ -.) ' K f -.u ) ) ..) 0 7 k ) K y 0 u y ) k y O 0 f _ ..u 0 7 7 0 8 u u @ = 7 k ..| } _ | K u ' e u X. .@.L = K _ K | K K ) = O u ' 0 ) K u y ) u q q 0 ) ] y # = K u u ) k y 0 0 u ) ^ ) ) e u # @ y u u u ) q e K f K e , # 0 # q e e u 7 7 K K ) K u u K e u [ q O 0 u K K e q @ q e 7 7 y u 0 7 y 0 # y y q e ) = ) K @ K u k u # y ) u y 7 7 # u e 0 u 0 0 7 4 = 7 0 , 0 = 7 # @ @ @ X @ @ # # # 7 # = # 7 = # # # @ @ @ @ @ @ @ @ @ @ @ @ @ @ @ @ @   X   0 =.# @ X # 0 0 = 7 # @ # # X # # # # # = # = # # # # @ @ @ O O O O O O   @ @ @ X     X X X @ @ X O O O X O 4 7 y u ^ ` e e u u # , e y u u ^ ^ y 0 0 w q u K K 3.| g K X @ q X.#.-.K 0 y = K ) 0 =.-.' ) 0 e @.e u f ..) e = u K k q @ u u 0 ) e @   = u ' ..` 0 * @ 8 = y r O = 4 e @.L f K X.K q ` ) 0 ..} | _ 0 7 _ u _ L y K K @   ) ) 0 _ _ K u ) u q 0 0 ) ) e # O e k q k ^ e , e u k e u k u q y O O e u u u K 0 q K u f e # @ # # < K s e 0 O e K f f K 0 u y 0 e ` =   y k K k e y @ 0 w 7 # 0 e 0 @ 7 0 O y 0 0 0 K e # _ # # y 7 k r @ y e y 7 # # # , , y u 0 0 0 7 = , 0 # = = 7 = # # # @ o # # # @ # 7 # @ = = # # = # @ * @ @ @ @ @ O O O O @ O O O   ",
"0 0 0 = = 7 = # 7 = # # 7 = = = # # # # # # @ @ @ @ @ @ @ # @ @ @ @ @ @ @ @ @ @ @ @ @ @ # 7 y u ^ { u e u f = 0 u e k ^ ) ) y y q e e K u } 0._ L e X 7 } #.9...e e 0 u ' , { q.' _ e u @.u k ) .._ y 0 u K u 0 0 k y K K 0 O # e ) @...u 7 = 8 7 y y @ 7 7 u ..K K L X.K u { u u @.} } K # K K K ' u u ) = # u { y _ _ ) u ) u y y 0 [ ] y # = K u u ) k y q u ) u k ^ ) e u # @ y u u u K y u K u K e = # 0 # q K u u 7 # _ u K K u u u q u ` y O y k ) K e y # 0 e 0 7 y e 0 # y 7 # u y e u ' 0 f u @ y 7 e k # q u 0 0 = 7 # 0 0 = k 0 y 0 0 0 0 0 7 7 7 0 0 7 , = = 7 , , = = 0 0 7 = 0 7 7 7 7 7 7 = # # # # @ @ @ @ @ @ @ @ @ # @ X   0 { y # = u ) ` u u q 0 r u 0 # # # @ O O O O   X     O X @ O O @ @ X @ X @ @ @ @ O O @ O O O O   O   O O   = 7 y u ^ ` e e u e @ , u e K k ) ) y 0 0 e u e f f 3.} g f   @ 0 ..$.7.K 0 y # ) ` = @.:.{ _ u u ..e u f ..` u @ u K u 0 7 k u e K u @   = e k _ ' y 7 7 r 7 y r O = = r @.K K L | K q _ _ y ..| } L 0 7 ' K ' ' y u u   X K ) q ` ) K e u u 0 0 q { ) u 7 @ e u y ) k e , u K K y k K u 0 y O @ u u u e u 0 q f y f u = @ # # # K s e 7   u f u k u 0 e e q u ` 7 X 0 ) K u 0 0 X = 0 = = 0 y , = q q O e 0 0 e _ K q ` 7 # 0 # K e O 0 0 7 7 @ # 7 # @ # # = 0 0 = # = 7 # = = = # 0 0 , 7 = 7 7 = # 7 7 = @ = = = # @ @ @ @ @ O O @ @ @ @ O O O @ X @ @ ",
") u e y u u y = 7 = # # # # @ # # @ # @ # # @ @ # # # # # # # # @ @ # # @ @ # # @ @ @ @ = 7 y u k { f e u u = 0 u e K ) ] ) y y e u u u u  .0.K _ e # y _ | 9.| u y 0 u { 0 ) 9.{ { f K @.e k K =.{ u 0 k ) e 0 y ] u K K 0 X # y u ` ' u 0 7 y 0 y y O 7 7 r { K K _ ' K u { K u @.| | K # K _ ) ..k u ) = @ u ' y _ ` ) u u u q y y [ ] u = = K u u ) k y e ) ) u k ) K y u # @ k u u u u e u f e L u = # 0 # 0 L u e # # ) e ) u u e u y u [ e @ 0 ) ) k q y @ 0 y = 7 y e 0 0 u 7 = e q u K ..0 ) K # y 7 u ) # 0 q # 7 # 7 # 0 = @ , # y 0 0 = 0 0 7 0 0 7 = 0 0 0 0 = 0 0 7 7 7 7 # # 7 7 7 4 # # @ # # @ @ # # # # # @ @ @ # @ # @ @ O e ` q # 0 u K ) u e y e e u 0 0 0 0 7 0 0 0 = , 0 0 7 # @ # @ @ @ @ @ @ @ X   O   O O O   O @ X O       O   = 7 y u u ) e e e e # 0 e y u ^ ] ) y q q e s u f g 3.| g f # 7 q X.#.9.K , 0 7 ) _ @ ) @.X...u u ..y u K #.| K 0 e K e 7 = ) u u K u @   = u e e e 0 7 = 0 7 y 0 O = = 7 _ f f K _ u y ) _ 0 L | | ' 0 # _ K _ ' u ) u O # K ) q ' ) ) u y u 0 7 0 { ] y # # e k y ] K e q f K K e u k u 0 e @ @ u e u u u e u e 0 g f = X , = # K e e 0 O u u u u k w y e e k ] # O 0 ` K e 0 0 O = e # = 0 e 0 = q 0   0 0 e K | u 0 ` u # 0 = K u O w y = # # # = # @ # # 0 e 0 = = 0 0 0 0 7 = = y 0 # # # # @ @ = @ # O @ = = # O O O   O @ X O   O @ X O X O O X @ X ",
"u e e u u u e y 0 y q y y 0 0 0 0 y q 7 = 7 4 = # # # = # # @ @ @ @ @ @ @ # # @ @ @ @ O # 7 y u ^ ) u u u u 7 0 u e K ) ] ^ y e y u f K s | e._ _ q 0 0 _ | 9.| K q 7 u ..0 ) =.X.@.K f ..e k _ -.| K 0 u ) e 0 y k u f K q   # u u u y q 0 = r 0 u y O 7 7 7 ' f f ) _ k e { f y X.| @.) # u _ K ..) f ) 0 O e ` 0 _ _ ) K y k q 0 y { ) e # 7 u u u ] u e u K ) u u ^ k y u 7 @ u u u u u u f e q _ u = @ e # q H e u 7 7 K e k K u e e u k [ y   0 K ) f 0 q @ 0 u 0 0 y u 0 0 e = @ 0 0 u _ .., K ) q y 7 u ) @ y k 0 7 # 7 # 0 7 # 7 0 k q 0 0 q y y y 0 0 7 u e 7 = = 7 = = 7 7 7 @ 7 0 0 = # # @ @ = = @ @ # # @ = @ @ @ @ # X @   @   e { 0 # # 0 0 e 0 y e e e e 0 7 = 7 7 0 0 0 7 = # 0 q 0 0 e e r y 0 = 7 # @ @ @ @ X @ @ @ @ X @ O O @ O O   # 7 y u u ) u u e e # q e u u ) ) K e 0 0 e K g f L 4.} K K % , q #.@.#.L 0 = = ) ` # ) | | X.u f ..e K ) .._ ) 0 u ) e 0 7 q 0 e K f @ O 0 K K k 7 0 7 @ 7 7 y r O = 7 = ' u f ) { ) u _ _ # _ | L =.e # K f K ' K e u O # K ) q _ ) _ K y K 0 = 7 ] ^ u # @ 0 u u ) u y y k K K k u u u 0 u @ O u e u u u u u u 0 L K , O = # % s u e q   e e u K K u e y y k ) = @ 0 K ) u 0 y O 0 e = 0 y u 0 = 0 =   = 0 0 u ' e 0 _ K 0 y 0 ) u @ e y = # 7 = 7 7 = # = 0 0 = # = 0 0 y y 0 = # 0 0 = # = 0 # = 0 0 0 # = 0 7 = # # = # # 0 = @ # = 7 # # @   O O O   ",
"q 0 u u y y 0 0 0 0 0 0 q q 0 = # y 0 0 y u y u u y 7 7 # # # = = # # 7 # # # # @ @ @ @ # 7 y ^ u ) f u u e = q u u K ) ) K e e 0 u K _ f _ 0._ _ e 0 = ' #.$...K 0 7 u { 0 ) =.{ X.k K ..u K ) @._ ) y u ) y y y y y u _ e @ 0 u ` ) y y r @ 0 0 y e @ 7 0 0 { u K ` | ) u { f u @._ ' _ 0 u _ f { _ u K 0 O u ' e _ _ ' ) y K q 0 y ) ^ e # = e y K ) u y u K ) k k ^ ) y u 7 O u u k Q u f f u q _ K 0 @ q # q K e u 7 # K u k ` K u e y k ` y @ y K _ K e e O q u , y u u 0 7 e # @ y 0 e K _ 0 f ) u y 0 K ) 7 y y # 7 0 0 = 0 8 = 7 = 0 7 7 0 0 0 r y y 0 # 0 0 7 = 0 0 7 0 0 y 0 7 0 0 7 7 7 7 7 7 0 0 7 7 0 r 7 7 # # @ @ # O @   @ O K =.u     X # # # 7 0 0 0 = # = 0 0 0 0 e 0 7 , = = # # # = # # # # # @ O       X     @ @ X X @ X O O O O O # 7 y u u ) u u u e # 0 u u k ] ) k e 0 0 e L K s L 4.| K f , 0 0 #.X.$._ 0 0 = k ` 7 K @.' X.u f ..y u ) ..` { 0 y ) 0 7 y y y u u f # @ e ` ` K = y 7 @ r 7 y 0   = 0 = ' y s _ { K y ) ' 0 _ ..u { q # K f K ' ) u u @ @ _ ` e L K ) K y ) y 0 0 ] ) u 0 # e e e ) u 0 y ) K K k k ) k u u   @ K u k k e e u e e ' L 0 X , # % s u e q O e u K ` K e y q y ) ` # # e k ) u e e O q u = e 0 e , = 0 ,   0 0 0 q K u e L ) u e 0 ) K # e 0 @ # 7 # @ # 7 # @ # # = 0 = 7 7 7 0 y = X @ @ # @ # # # = = 0 0 7 @ @ @ O # # # # 0 # # # # y r = # @ @ # = 7 7 ",
"7 7 0 0 0 # # = , , , 0 y 0 7 0 0 0 # # = = @ # # # O @ @ @ @ @ @ @ @ # # @ # @ @ @ @ @ # 7 y ^ ^ ) f u u u = 0 u f ^ ) ) k y y q u _ _ f  .3.L _ q y , ' @.#.X.K e q e { y ` 9.' X.u u ..e k _ @.{ { y u ) 7 q y u u u ) e X 0 ) ) _ 0 e r @ r 0 y y @ 7 0 7 { e K ' ' K y ' ) y ..) ) ' = e _ K { { u ) 0 @ K ..e ) K ) ) y ) y 8 y ) ) u = 0 k y k ) u y u K K ) k ) ) u k 7 @ u u K K u u u u u ' L 0 X q # 0 f u u 7 = K K ) ) u u e q k ' 0 # e K ) k e u @ e u 0 e 0 y 0 7 y 7 @ e y q f _ e _ ) ) e y u ) 7 y e # 7 = 7 @ 7 7 # # = 7 7 q 0 y 0 7 0 y = # # = 7 # # 7 7 7 = 0 7 7 4 # # = 7 7 # 0 y # 7 = y y 0 7 # = = 7 0 7 0 7 7 @ q =.0 = # = # # 0 = = # # #   O O   O   @ X X # # # @ # # @ @ O O O   O O   O O O O O O O O O O O     O O O @ 7 u ^ ) ` u u u e # 0 e k u ) ) u y , , u _ ) f I 4.L L u q 0 0 ..| $.K w u 0 K ) 0 ) 9...#.e e ..0 k _ =._ ..e e ` 0 0 y u e f f f # o e k K u # u 7 @ 0 7 q 7   = 0 * ' u K _ _ f y u ' # ) ..u @.q # f K ) X.) K k # @ ) _ e ) K ) K 0 K = @ y ] k u 7 @ 0 y e K u 0 0 K K K ) ) ) K u e O O e y u u e u f u K _ f 7   # # , e f f 0 # q ) K u u e y q e K K # # e K ) u e e X e e # w # 0 = # y e   0 , 0 e L f e K ) K e = e u @ 0 = @ # 7 # @ 7 @ @ # # # 7 0 0 0 7 # = 7 # # # 0 7 # @ # # = # # # # @ @ @ # 7 0 # = u 0 7 = @ y 7 O @ O @ # @ @ # ",
"0 0 = 7 7 = # @ X   O   @ @ @ # # = @ 7 7 # # # # # # # @ @ @ @ @ @ @ @ @ @ @ @ @ @   O @ 7 u ^ ] ` K f u u 0 0 u K k [ ` k y y 0 u ' L f  .#.K _ y u , _ @.@.X.K e y u { q ) -.X.$.u e @.y k ` =._ ` y K ` 0 e u u u u _ e o e ) k ) 7 e y # y r y y @ 7 0 7 ` e ) ` ) K r L _ # X.) ) | 0 e _ f ....K ) y O u { e ` ) ) ) y K 7 # e ) K u 7 = u y ) K u 0 u ) ) ) ) ` ) K u # O y e u u u f f u ) _ f 0 X 0 , e f f u 0 0 ' _ u u u e e y K ` 7 # u K ` K e u @ e e = y = y 0 7 u 0 # y q e K _ e K _ _ u 0 w K 0 7 0 @ 7 = 0 @ 0 7 # 7 7 7 7 0 0 7 0 = 7 7 7 7 4 0 0 = = 7 7 7 # = 7 7 = # @ 7 0 0 7 r y 7 7 # r 8 @ @ @ # # # @ = 8 7 7 O u @.y = = 0 = # 0 = # = = = = = = # # # # # # = 7 = @ = = # = = @ @ @ @ @ @ @ @ O O O @ X O O O O O O O O O @ 8 u ^ ) ` u f u e # 0 u k u ) ) u w 0 0 u } L u } #.K _ u e q q X.| 7.' 0 y 0 k ) 7 ' 9.X.#.e e @.0 u _ =.K ` 0 e ` e e u ) u f f u # X 0 u ) ) # u 7 @ y 0 0 7   # 0 # ) e K _ K K y e ' = ) | u =.u # f K ) #.) K K @ @ ) ` e _ k _ K e K = @ y ) k e 0 @ q y e u u y q K K ) ) K ) K u q O O y y Q u u f f u ) K f 0 O , , , e f f 7 @ K _ K y K u y 0 e k K @ # y k ` k y y X y e = w = 0 0 7 y u O y 0 , e L K u _ ) u u @ e K 0 0 0 @ @ # = = 0 7 # = # = # @ @ @ O @ @ @ # # @ = 7 @ @ # @ @ @ # # 7 @ @ @ @ @ = = 0 0 @ O O   @ O   O O         O ",
"0 0 = 7 7 7 0 0 0 0 0 q q 0 7 0 0 0 7 r 0 7 0 7 7 7 = # @ # # @ @ @ @ @ @ @ # @ @ @ X O @ 0 u ] ) { ) u u u 7 0 u ) k ) [ ^ q y 0 f | K g  .| g _ u f , ` @.@.#.u y y u ` y K -.X.$.K e @.0 u ` =.) ) q k _ e k ) _ K f ) q X 0 ) k { 0 u r @ y r 0 0 O 7 r # ) e K _ _ _ y K ' = X.) ) ..0 q _ f ..{ u ) y O k ..u ` K _ ) e ) 7 # e [ k e 0 7 u y k k u e u ) ) ) ) ) ) k u # O y u ^ k k f K u _ ) K 0 @ e , q g ) u = 7 _ ` u k K e e e k ) = # e u ` ) w y # e u 0 y = q y = u 0 = y 0 y K _ u K _ u u 0 0 _ u 7 u 7 7 # 0 = y r # 7 # 7 7 = = 4 @ @ @ # # = # 7 7 # # # # # # # 4 7 # # # # # = 7 0 4 X   O @   O O O O O O O O @ @ @ O e =.0 # = = # # 0 7 = 0 = # = 0 = = = = # # # # 7 = @ = = # # @ @ @ @ @ @ O @ O O @ X @ @ O @ @ O O X O O O @ 8 u ^ ) { u u u u # y u u u ) [ ) y 0 0 e  .L f } | f ' s u q e X.| 9.| y e q ) ) 7 K 9.X.@.u u ..= u ) @.K _ q u _ e k _ ` ) u u e @   0 u K ) = e = @ r 7 # #   = y # K u K _ L _ e y ' = K ' e ' f # K K ) -.) k K @ @ K ' e ) u _ K e K # @ u ) u 0 0 # e u e K u u e ) K K ) u K K K q O X y y u u u u f q K K K e X 0 0 , s K K 7   e ) ) u ) K e y e u u   = e u ` u 0 0 O 0 y , e # 0 w # 0 y O q 0 0 u H e 0 _ u = u 0 K L 0 # k e = 0 0 0 7 @ @ @ @ 7 8 @ @ @ @ @ O @ @ @ O O @ O         O   O             O O                                 ",
"0 0 0 0 0 7 0 0 7 7 # = = # # # 7 # # 7 = 7 # @ @ @ # # @ # # @ @ # # @ @ # # @ @ # @ @ @ 7 u ^ ) { ) u u u 0 y u K k ) [ ] y e 0 K @.L g  .} L _ e K 0 ) X.@.-.f u e ) ` y f -.X.#.f e @.0 k _ { K ) y k ) e ) ` ' K u u 0 O # u k ` r y r @ r 0 = 0 O = y 7 ) u K _ _ ` y ) ' # ' ) f ' 0 q ' K X.@.K ) y @ K @.K ) f _ ) e _ 7 # u ` u e y 0 k u ) K u e u _ ) ` ) K ) ) u # O y e u u K f K e K K K 0 # e 0 0 K K k 7 # K ) u K ) u u e u ) 7 # u k _ K 0 y # 0 e 0 u = 0 e 7 u 0 = u 0 y K L 0 f ) 0 y e K ' u # k f 0 0 u 0 7 = @ 7 = 7 7 7 # 7 7 7 = # = = # = # @ @ @ @ @ @ @ @ @ O O O O O @ @ X O                   O O O O       # u ;.0 0 q = # 0 q 0 0 0 7 # q e # = # = # @ = # # @ @ = = # O O O O X @ O O   X O @ X @   O @ O O   O O O   @ r Q ^ ) ) u u u u , e u K k ) [ ) y y , e #._ s |  .K | e u q u | | 9.| q u 0 ) _ 7 ' 9.X...0 e @.= ) _ ' f ) 0 u K y K ..' ) u u e @   = u K u # u 7 @ y 7 = =   = u = _ u K _ _ ..e y =.0 k | e _ f # K _ K X.) u u O O ' ..u K e K f e _ # X y ) e # 0 = u u e k u y 0 k ) _ _ k K k K q O O w q u u k u f u f K _ q O , 0 = f f f q X u _ ) e u f e e u k u @ 0 e K _ e 0 0 X 0 e , e = 7 y = y e # u q 0 f L u 0 ' u = y e K K u # K K 0 K k w # @ # 7 7 @ # @ 7 7 0 0 7 = 7 7 7 7 8 7 7 7 7 7 7 # # = @ @ # # @ @ @ O O O O O O O O O   O     O O O ",
"0 y e y 0 7 y u 0 0 7 0 7 7 0 0 7 # 0 y 0 7 # # @ # 7 = # # # = # # # @ @ # @ @   @   @ O 7 ) ) ) ) K u u f 0 u u K K ) [ ) e e 0 u $._ g @.| _ _ q u q K X.X.3.K u 0 K { u K -.| X.e e @.0 ) ' { K ) q u ) y ) ' ` K u K 0 X @ u k K 0 u r @ y 8 7 r O 7 k 7 _ u K _ } @.y ) @.q _ ) u { q q ' K { ..u K y = u -.) k u ) f e _ 7 @ y ) e = y y k u ) k u q e ) ) ` ) k ) ) u 0   0 y u k ) u K u K ) ) 0 @ 0 0 q K K f 0 = _ { K k K e u u k ) 0 = u K ` u 0 0 @ y u 0 y = 0 y 0 u y 0 u 0 e L _ q K _ q 0 u f K _ 0 f K y K ) w 7 # @ 8 7 7 7 7 = 7 7 7 = 7 7 7 7 7 7 7 7 0 7 7 0 7 7 7 = 7 0 0 = = # # @ @ @ @ @ @ @ @ @ @ @ @ @ X @   @   u o.u @ # # # = 7 7 y y 0 # = = # # # = # = 0 0 r = # 0 0 = @ # = @ 7 = # # = 7 # = @ O O O X O O O O O O   @ r u ^ ^ ) f f u u , e u K K ) ` ) u e = q _ _ u | | L X.e e y f ' } $.| u u # ) _ 7 | 9.X.' y u =.0 ) ` @.) { e u ) u k K ) K u K f 0   # u ) u 0 u 6 @ y @ r 0   = k 0 _ u f K I $.f y -.e u ' u K u # K _ K ..) u u O @ _ @.K e y K u e ) # @ y ) e = e y u u u ^ u e 0 u _ ) ) u k k K 0 O O q 0 u e ) e f u f K K 0 = = 0 q f f f 0 O K { ' K f u w u u k u X 0 u K _ e w 0 O y e , 0 # # e 0 y y @ y 0 0 f L u e _ K y u ) e f K 0 f e 0 ) u 0 @ @ @ # # @ @ @ X O O O O   O   O O   O O X X O @ @ @ @ X @ e e # @ @ @ @ @ O O O X X @ @ O O O O X O ",
"0 7 0 y y = # 7 # 7 # 0 7 7 7 y r 7 0 0 = # 7 7 7 7 0 = 7 = r 0 7 7 # # # # # # @ # # @ @ 7 ^ ) ) ) ) K f u q e u ) ) ) { [ u e 0 u X.L f @.} ' ' e k u ' | | $.K f 0 u ' y k @.....u u =.q ) ' @.) ` u k { u K K _ K u _ e @ @ e ) ) y u r @ y 7 r y O 7 ) 0 ` K K _ ' X.u k ..q K _ u ) 0 0 _ K ) { u ) q   e ' ` e y ) u e _ 7 # e ` e , u u k f ) ^ u e u K _ ) K u ) ) u 7 O 0 e u k K e f f f ) ) 0 q 0 u f K K u 7 # _ | _ K K e e k k K = = u ) ` f e q @ y u 0 y # 7 u y e y = e 0 y K _ 0 K _ u u _ k e K 0 u e 0 f K 0 7 7 @ 7 4 7 7 7 7 7 # 7 = @ O @ # # # @ @ @ @ @ = @ # = # = k y # # # # = # @ @ @ # @ = # # @ @ # @ # @ @ O e [ y @ @ 0 0 0 0 0 0 y = @ @ @ # # @ = # # = = 7 7 # @ @ O # # @ # 0 # # # 7 u 8 7 @ @ # # = 7 7 # 7 = = O @ 7 ^ ] ) ) K K u e , e e k ) ] [ ) e e , 0 I f u  .| I @.e u 0 f ' L #. .K u # k ` = ' 7.X.| e u @.0 ) _ @.K ) q u ` y u _ ' K e k K 0 O w f ` k y u 7 # y @ r 0   = K = ) u K _ ' 0.K r @.e e _ f f e # K ' u ` ) u f = 0 K @.) e y f u y ) = @ u ) e = u u e K ) ) u e e u _ K K k k u ) q   O 0 0 u e u q u f f ) K q e , e f f f f 0 O f ' ' K K u 0 u k u u @ 0 u ) ' K u 0 O 0 e , 0 @ = u y y e X 0 0 7 e L u e _ K 0 u ) 7 0 7 @ y , # K q 0 = 7 # 7 7 7 7 y u y y e 7 = = = 0 y y , = # # # , # @ @ @ X = , @ @ @ @ # # # # # # @ @ = @ @ # # @ @ ",
"e q 0 y 0 = # 7 7 7 # = 7 7 7 0 7 7 7 # # 7 0 7 = 0 y 7 0 7 u y 9 # # # = 7 7 0 7 0 7 7 @ 7 ] ] ) ) ) ) K u 0 u u ) ) ` { ) e e 0 q L f K @...' _ q u u _ | | 7.K f 0 y { y f @.X.X.u u -.q ) ' @.) ) y k ` 0 ) ' ' K u _ u @ = u ` ` e k r @ u 7 0 e O 7 ) 7 ) u K _ | 7.u u ..e k ' f ) q 0 ' L K { u ) q 0 e X.` u y K f y ) 7 7 ) ` u 0 u K e K ` ) e u u K K K ) k ) ) Q # O 0 e y u u e u f f ) ) e q 0 u f K K k = = ) { _ ) ) e e ) ) ) = 7 u ) { ) u y X 0 u q y # 0 u e y y @ y 0 w K L e K ' e y _ y 7 e @ q 0 0 u u , 8 8 @ 7 7 0 0 r y e y y y = = 7 y y e 0 , = 7 , 0 7 = = @ @ = # @ # # @ = = 0 # = = # = # = = = = # = # # O 0 [ = @ @ = # = 7 # # 4 # # # = 0 = @ @ # = # # # @ @ @ @ # 7 7 @ 7 u 7 7 # = y @ O O O @ X O @ 7 7 7 @ @ O @ 0 ^ ) ) ) ) _ K q 0 u u ) ) ` ) k y q = 0 K f u } | _ _ , f < K | _ 3.' f e = K { 7 ) #...X.e u =.0 K _ ..K ` u e ` 0 u | ' ) u k K 0 O y _ { ) k u 7 7 u # y y   = u 0 ) u K L I 0.K q ..K u ' _ K u # g | u { _ u u q 0 ) #._ u 0 K u q _ 0 = ) ) e # 0 f q e ) ) e u u K K K ) ) ^ ^ Q q O O 0 e k u u e u u f K K 0 # # e u f f f 0 O K _ ` k K e 0 u ) ) k # q u ) { ) u 0 O 0 u y e # # q e q e @ 0 0 0 u L f K ' u # e u , y u @ y y 0 K 0 0 @ @ @ 7 r 0 7 @ # @ @ @ O O O O @ @ # @ X X # # = # # # # # # # @ o o @ @ # # @ O   O O X O         O ",
"# # # = 7 7 4 7 0 0 = # = = = = 7 7 = = # 7 0 7 = y y = = @ 0 7 @ @ @ # @ @ @ 7 7 7 = = @ 7 ^ ) ) ) ) _ _ u 0 u u ) ] ` ` K u y 0 q K f f X.| L K q u e _ | | 0._ u 7 e ' u ' -...@.u u -.0 k ` { K { u u ) 0 _ ' ' ) K ) u O = u ..{ ` ) 0 = k 0 y u O 7 ` u ` k L L } 4.u u @.K K @.) ) q 0 _ L _ @.K K 0 y f @...K r K f q _ q 7 ) _ 0 # w K 0 K ` ) e u K ` u ) ) K ) u u # O 7 u ) ) u u u u f K _ y @ , e f ) K u = 7 _ ` ) ) u 0 u ) ) ` q 0 u ) { ) k e @ 0 u e u = = e e q y # e 0 q K K f K _ e y K e q ) 0 u e y u u 0 0 = @ 0 0 r 0 0 # @ # # # # # = 7 = 0 0 = # 0 = 0 0 0 0 , , 0 , , , , = , = = O     O @ O   O   @ O O   O   0 [ y O # 7 @ @ @ O O O @ # @ @ = @ @ @ @ @ @ @ # # @ @ @ @ @ = 7 0 7 O O   @ @               O O O O O @   # q u ) ) ) K ` _ e 0 u u ) ) ) ) ) u q , q K f u | | L g = K = K ..I 7.@.f e @ e _ 7 ` @...@.e u @.= K ` { K @.K y ) 7 u ' _ ) f K _ # @ u ) @.{ o.K 7 7 u # u y   # K k { f _ _ L $.e 0 | K u ..' _ u # s _ _ X.` K u 0 0 u X.' u 0 K e q _ 7 # _ ` e o 0 K y u ) _ e y u ) u u ) K ) k u e   O 0 e K K u e u s s u _ e @ # e s f f u 7 O u ) ) K K e e K K k u @ 7 u _ { K u q   0 u 0 e # # e y 0 y # 0 y , e L u K L L e u K e u ) 7 u e 0 K 0 0 7 7 7 7 7 7 y 0 , , 0 q e u u f s u K f w 0 y 0 u e u u e e q q 0 q w q y w , # # = # # @   @ @ @ X X ",
"# # # # @ # # @ # # @ @ # @ @ @ @ @ @ # @ @ @ # = 7 #     O   O O O O O O O   O @ @ @ @ O 7 Q ^ ) ) ) ) _ K 0 K u ` ) ] [ ) u e 0 e L s K @.| L e e K y ` X.| 9._ f 0 0 ) y u #.{ @.K u =.0 ) { { K =.K u ) 7 ) ' _ K f _ y # q K @.....K y @ u r y K O = ) ) { ) | ' ' ..u y ..f K @._ _ y 0 L ) | @.) K q 0 e ' ..K 0 ) u 0 _ 0 7 _ ` e # e _ e k { ) y u K ` e ) ) ) ] k u 7   7 u ) ) u u f f f u _ u # = u f K K u # = _ ) ) ) k u u K u K 0 = e ) ..) u e @ e u 0 u 7 = u y 0 e = e y y f K K _ ' ) u ) u y ` 0 e e 0 e e 0 y q 0 0 = 0 u u e e u u k K K K _ ) _ ) u e u y ^ k k K k f f e e e u u u e y 0 0 q r q = # 7 = = # = # # @ 0 ` 7 @ @ 7 @ = = = # @ # # @ @ @ @ O O O O O   O O           O O                                       O   @ r u ] ) ) K K f q 0 u u ` ^ ) ) ) u e 0 q K s u | X._ f , K , L .._ #.X.K e @ y ` 7 ) { ' { e u ..0 ` ' _ K @.) y _ 0 u | K f u ) K = @ f ` { ` { K 7 7 u 7 y y   # ) k ' f | | ' #.K 0 ' ) e ' ' ' f # s K K #.` k u , , u | { u y L e q _ # # _ ` q # q _ y q ) _ e q u ` u e ) ) ) ) u y O   , u ) K e e u K f q ) u # X 0 u f K u = O f _ _ ` K u e e f k u @ 0 u ` ` u e 0 O e u 0 u = = u 0 = w # 0 e 0 u K u ) ' | ) f K e e u @ 0 = = w 0 q y u y # y k ) K K K ) L ) _ ` ) _ ) ) k 7 0 0 = 0 7 7 y w u K K e u u u 0 0 , = 0 y e u q @ = 7 = , , ",
"8 0 0 7 7 0 7 7 7 7 = 7 7 # # # @ # @ @ @ @ O @ @             X                   O   O O 7 ^ ] ] ) ) K K e 0 u u ` ) ) ) [ u e 0 u L g K X.@.} u e u e _ | ' 9._ f 0 0 _ u u #.{ | K u =.q ` .._ K =.K u ` 7 ) | _ K K ` e @ 0 k ` { ` ` y * y 0 0 e O # K ) _ u { { } @.u e ..) f .._ { 0 q ) ) ' X.K K u , # K @.) y ) f y ` 7 7 ` ..e , e _ 0 u _ ) y u ) { e ) ` ) ) u u 0   = u ) ) e e f L K 0 ) u 0 # q u K L e = 7 ` ) ' ` f u e k k ) 0 7 u ` ..K e e @ e u 0 u 0 , f w 7 y = e u u f _ k _ ..{ f _ f y k = 7 0 0 0 y 0 u y y y 0 k k u u K u K K ) _ ) ) ) K u = 7 7 # 7 = 7 0 7 u ) K e f u y = = 7 0 0 y y 0 # # 7 7 0 0 0 7 7 # 0 [ 0 @ @ = @ # @ = # @ # # # # # = 7 7 7 = 7 = # 4 # @ = # O @ @ O O O O O O O O O O O O O O   O O O O O   @ r ^ ] ) ) f K u e e e u ) ^ ^ ] ) y q 0 0 L s u } 3.| f = e 0 u ' K #.X.) q @ u ..0 _ ......u f { 0 ' .._ K @.) 0 ) 0 u { _ K k K K # X e K ` ' { f 7 = y # = =   7 ) e K e ' ' I | K 0 ' ) e _ _ ' u = K K K | ` u K u = q ' ..u q ) u y _ = = _ ' y , e ) q 0 ) _ e y u { ) K ` ) ) K u y     = u k u y e u K f , K K 0 @ 0 u f g e 0 @ K K _ _ K u u u ) K u # # f { { f e y O e e , q # = u 0 , 0 = 0 f e f L u K _ _ K K K u e y O 0 e 0 e 0 0 q q 0 @ 7 8 7 = 0 0 0 w e e u y y y q 0 = # @ @ @ O @ @ @ 0 e e 7 0 0 e = @ # @ # # = 7 = O O @ # = 0 ",
"@ # # @ @ # @ # # # # 7 7 # 7 7 7 7 = 7 r 0 7 = = # # @ @ @ @ @ @ @ @ @ @ @ @ @ @ @ @ @ @ 0 Q ] ) [ ) ) K u e f u ` ) ^ ) [ u e 0 e K f f | #.' e e q u ' } ' 9.' u 7 0 ' k u #.{ =.) u ..y ` ' _ ) -._ e ) 7 ) ..' K K ` u # q K ) ....` y * r 0 8 y O 0 K u f K | | _ } K e ` ) e ' ' ..q q _ ) ` @.K ) ) e # k =.K y ) K q L 0 = K ` y 0 u ) 0 u ' ` e e ) @.` ` ` ) ) k k 0   y u K u e u K L K 0 ) ) q # e f f K e = 7 _ ) { _ K u u ) ) ` 0 = e ' ..K u u @ e u 0 e # = u y 0 w 0 u f u K ) e _ _ K f ) K y K # 7 u y y e 0 y 0 # 7 # 7 = # = 7 = 0 0 0 y y 0 0 0 w 0 7 = # 7 # @ # # 0 y 0 # = w q = # # # @ 7 7 = @ @ = 7 7 7 0 = 0 # q o.8 O @ 7 # # @ # # O O O X @ @ X O @   O @ O @ @ @ @ e e # @ @ @ @ @ O @ O @ O @ @ @ O   @ O @ @ O O @   @ y ) [ ] ` ) ) K q e f k ` ) ^ ) [ u e , , u f s ' #.Y s 0 q 0 ) ' L #.@.K 0 O e { 0 ) ' { =.K f ' 0 _ _ K K =.{ y ` 0 u ..' ) K ) _ # X f K ` ` @.e = @ r 9 y 8 @ q ` e K ) X...K _ K 0 K ) e _ _ ' u , L K K ..' e _ ) q 0 { ..K e K u 0 K 0 # u _ 0 = e K y y ) { e 0 y _ | _ ` ) ) K k e O O 0 e u e y e ) _ K q K K = X y u f f e 7 O f f ` ` K e e u K K f = 7 u ..' u u q   e e 0 u # # e 0 0 0 0 0 k u f ) e K ' f u f u e e u # e K 0 e , 0 # @ @ # 0 # # # # # @ # @ @ @ # # 0 0 e y 4 # = # @ @ @ @ # 0 = @ @ = 0 = @ # @ @ O @ O O O @ # # @ = ",
"q 0 0 7 = # = 0 0 0 # # # # = # # = # = e e # # # # = # # @ # @ @ # @ # @ # # @ # = @ @ @ 0 ^ [ { ` ) ) ) u q K u ) ) ) ) { k u 0 = u f K | #.L q y 0 u _ | | -._ u # q ' k u X.' ,.` u ..e _ ' K ) ,.{ e ) = L | ' K ) ' f @ q ) ` ` @.) r @ 0 0 0 y 7 7 { k K ` @...K _ _ e u ` u ..| ' q u ' ) _ -.) ) ' k # K -._ u K f y K q = u { r 0 u _ e u ` ` u 0 u { ` ) ` ) ) k u 0   = e u u u u ) _ K e ) K 7 @ e f f K e = # ) ) { _ f y u K K ) 0 = e ..{ u e u @ e u e K 7 = u y 0 0 q q K u K _ e ' _ u u u u w K 7 q K 0 e e 0 q 0 = y y y 7 0 7 7 # 7 = @ # 7 7 y u u u 7 7 0 7 = = 7 # 7 q 7 = 0 y = # # 7 @ @ # 4 # @ @ @ # @ # 7 # # @ 0 o.y # = 8 7 y 0 y y = = # 0 w e 0 = = # # , # @ @ @ X # = @ @ @ O # # # # # # X # # @ # # # @ @ @ # X @ O @ y ^ [ ] ` k K K 0 e f u ) ^ k ) ) e e 0 # e K K | #.L f 0 0 0 f | } 7.| K q O u ..q _ ..' -.K u ' q K _ K _ -.{ e _ 7 e ' _ K K _ _ # X u ) ` ) @.u = @ 7 # 0 y 7 q ) u u ) @.' K _ ` y e ' e ' | ..u , _ _ f ' ..u { ' 0 0 ....f f f e 0 K 7 # u { e , u K u q ) { u 0 0 _ { ) ) k k u u u O   = u u u u u K _ g q K f #   0 u f f u 0 O K K _ _ K e w u u u e # # u .._ q u y   0 e e K = # q 0 , = 0 7 K u u _ u g ' f u e 0 u e K O e u @ u e 0 u y e ) K 0 7 = = = # 0 q 0 0 y 0 k K u u 0 = 7 = = # # @ # 7 = 0 0 e = @ @ # @ @ @ @ @ O @ @ O @ O @ ",
"= 7 7 = # @ = = 0 0 = # # 4 0 7 # # # # # # @ # # # = = 0 # = # # 7 # = = = # # = # @ @ @ 0 u ) { ` ) ) ) u q K f ` ) ) ) ` u q , 0 K K L @.#._ u y 0 u ) @.@.#._ u 7 7 ' ^ u -._ :.{ u ..q ) ` u _ ,.` y ) # K ' ' K ) _ f # 0 u ` ) { K u # 7 7 0 k 0 0 { u e ` @...K _ ' e u ` u ..| ..y u ' _ ) -.) ) ..f @ ) @.K K f u 0 ) 0 # u { u q f K u y ) ) u 0 u { ` u K u K u K 0   0 u K u ^ K ) ' L f K K # @ y u K K f 0 7 ) K ' _ K y u K u K 0 = y ` _ e u u @ 0 u u K 0 = e w 0 7 0 0 ` u K ' q _ _ K e e u u _ = r K # e e , K _ K { ' k 7 0 7 0 0 y K u k k u u k u u y 0 7 0 = = = # = 7 y e u y = 7 = 0 # # 4 7 7 # = # = = # # @ @ O = ` y = 7 0 # X @ # @ @ @ @ = @ # = # X # # = = # = # # # # # o # # # # #     O   O O     O O . O       O   @ y u ` ] ) K K K 0 e f f ` ) ] ] ] y = # # K K g X.3.} s q 0 y ) X.X.7._ f y X y ..y ) ..' 9._ u { y K ) u _ =.) 0 ) 7 e _ ' _ K K K # @ e ) ' K ` y # # 7 @ 0 y 7 0 ` y y ) X._ f K _ e e ` u | | X.e # K ' u _ ..e ' L # 0 X.' f K g e y ) = # u { u 0 f e u 0 u ) u 0 q _ ` k u u k u u u @   = u u e e k ) ) L f K f #   0 e K ) K q O f K _ _ f e u K u u u 0 # e ' K 0 f 7   , e u ) = = u 0 0 # 0 = K k f ' e s ' ) f u u u _ _ = ) u # K , = ) K ) _ ) = # = # 0 0 y u e u u 0 0 0 0 0 0 = # # = @ @ O @ # 7 0 w 0 # # @ = = @ @ @ = @ # # = 7 7 = ",
"7 0 0 0 q 0 y e y e 0 0 0 0 w y 0 y y q 0 w 0 , 0 0 , = = O @ @ # @   @ O   @     O   @ O 7 u ) { ` ) ) ) e y ) f ) ` [ ` ] u 0 = = _ K L #.2.L u e 0 K ' #.$.X.K K 7 7 ` ^ u @.) -...u @.k ` _ u _ ..K y ) = u _ X._ K ) K @ 0 f { ' ` k 0 = y 0 7 y 7 # u u y ` X._ f ) _ e u ` K @..._ 0 0 _ _ e =.K f ` u @ ) @.K L K K q ' q # e { u y u e u q ^ ] u y f ' ` u ) k K k k q @ # u K y u ) K _ K K K K # @ 0 e ) _ K 7 = ) _ .._ f e K ) u K y = 0 ) K y u u @ 7 u f K 0 0 f e 0 0 y 0 ` u K { 0 _ .._ u _ u u =.e e _ 0 K e @ K _ e u u y # 7 7 7 y y y q 0 y 7 = 7 = 7 0 = @ # = = = @ @ # 7 0 0 = @ 4 # 7 @ # # # = = 7 7 7 0 = = @ # @ 4 ) q # 0 u e y q u u u f f _ K K ) u e u y u K e K e e e q q q q e e y , # # = = = # O @ @ # # @ X @ O @   @ y u [ ) ) K ) K 0 e f u ) ] ] [ ` e 0 = , | K g #.3.} s 0 , e K X.| @._ K u @ y { r f | _ -._ u @.K ` _ e ) @.) 0 ) 0 y ) ..' K K ` = O q ) { ) ) u 0 7 y 7 7 7 # = ) k y { ' ) K K _ y y ` K ..| @.q , K | q _ =.q _ f @ @ @.' f _ K u q ' 0 @ u { e , e 0 f e e ) u 0 e K ` ) K K K u k e #   = u q y u K k K g u K q X   = 0 K _ K = O f ) .._ e w e ) u u e 0 # e ) u 0 K e X = y u K # , u w 0 , y 7 ) u e ..e u ..) u u K , K { # _ K u ` = , ' k u K y # @ = = 0 e y q 0 # 7 @ O @ @ @ = @ O O @ @ = O O O O @ # # O # @ @ O O @ @ @ @ # # @ # = # ",
"K ) K ) _ _ ' ' _ ` k q y q e u y u u K K K u e u k u e y 0 y y e y 7 0 8 7 0 0 0 7 # = @ 7 ^ ) { ) ) ) ) q q K u ) [ ` [ [ u e 0 e @.K L 7.3.I g q @ u ' | | | ) f y 7 { ) u ..f =.{ e ..u { ) e _ =.` y ) 7 u ' ..` K ` K @ = K { { _ k y 7 y y 0 0 = 0 ) ) u ..) f K ' ' e e ' _ @.| | 0 s } _ q :.) f ' q @ ) =.f _ _ K 0 _ e @ e { u q e q _ e ^ ` u 0 u ) { f ) K K u k q   # u u q u ) K K u K ) f @ # 0 e ) ' u # # ) ` ' K e y ) K u K e 0 0 ) _ u K k @ 7 y u u = 0 e e y 0 y 0 _ e g ..0 ' | f w _ u 0 ` y K ' k ) e = _ ..u ) u 0 # 0 y q k k u u y y = # # # # 7 # @ @ @ = 0 # # @ 7 7 7 7 7 0 = @ @ = # # = = 7 4 = 7 # = # # @ 7 ^ 0 0 u K e u u K K ) _ _ K ) K k 0 # = # 7 = = 0 , y K K e u u e 0 0 = = 0 y y u 7 @ = 7 7 7 0 = 7 @ 0 # @ y ) [ ^ ) K K f # u f f ` [ ) { ` e e < u ..L H 3.3.+.L 0 # 0 K | _ @._ u u # y { K K | _ =._ u ' e ` ) e ) =.{ = K 0 e ) _ _ K K ) # O 0 ) =.{ ) e 0 7 0 7 7 7 @ 0 ) ) u @.u q f ' ' e 0 _ K @.X...u u L | q _ -.q ` f @ @ { | u _ K u 0 _ y @ u { e 0 q y K e y ) k 0 0 e _ ) f K K u u y @ O # K e y u ) ) f s f K u     , q f _ f # O f K { ) y 0 e ) y K e q # q _ K f K y   = e u u # # 0 y y 0 e # K q q ' y u X.K 0 u _ 0 q K = ' _ e ) # 0 ` u K f q = = 0 0 0 u u y u 0 y = @ @ @ # @ @ @ O O = 0 , = @ 7 r 0 0 7 y 7 # O @ = = 7 = = # @ @ @ X ",
"e e u u f K u u u u w # = = = # # = = y K u y u u y = = 7 7 0 q y 7 @ @ = 7 q 0 0 0 # 0 # 9 u [ ) ) ) ) K 0 y ) f _ { ` { [ u e e u @.I I 4.3.} K q # u ' } ....K q y 7 ) { K { _ -...K ..q ) ) e ) -.{ 0 K = u _ _ ' K ) K @ 7 K @.=.` k 0 7 0 0 7 7 @ 0 K ` ) =.f e K ' ' e y ' ' -.@.' u K _ ' q -.) u ` 0 @ ^ =.e ) ) K , ) u # u { e 0 q e _ e ^ ) k y y k X.) ) K k u u 0   # u K e ^ ) k f u K _ f # # 0 e K _ e @ # f ` ..K e y ) k u K q , 0 K _ u u e # 0 e K f , , q u 0 y u 0 u 0 u ' 0 | ..u 0 _ ) 0 K e K | K u 0 = u u 0 K r 0 7 0 0 7 y 0 0 0 7 y 0 7 7 7 7 7 # # = # 0 e r 0 7 y y y y q 0 7 = # = 7 0 7 y y 0 , 0 = 0 0 7 # # ^ = @ @ # @ = # = 7 0 0 y 0 0 0 0 0 = # @ # @ @ @ @ = e e = , 0 w # @ # @ # # = = O O O # = = 0 = 7 # 0 = @ u ) { u ) ) K u # u k u ) { ) { ` e e 0 u #.| I 3.2.| L 0 @ 0 K | L @._ e e = 0 ..' K .._ ,.{ K ' 0 K K e K -.) 0 K , e _ K { ) f _ =   y K @.` K y # = 8 = # X   O ) ) ) #.e u _ ' | f 0 _ K -.@._ s K f X.q _ =.0 _ f X @ =.' 0 _ K u 0 _ y @ e { q 0 0 q ) y e ) u 0 7 e ' ` K K K u e e @ O 0 u e u ) ) u e y K K e = @ 0 e u K e @ O e ) ..) e e u ) e ) e , # e _ K 0 q 7 X 0 u K u # = 0 e 0 , u @ u , e ' e k @.) 0 u _ e y K 0 ) ) e e @ , y 0 e 0 # 7 = = = 0 0 # @ @ # q = 7 7 7 7 # @ @ = # 0 e e y = y y 0 e q 0 # # @ = @ # = 7 e e y r y e ",
"= # = 7 # = 7 # 0 y e 0 7 # 7 # # # # 7 q , @ = 0 0 = # = # # # # # @ @ 7 7 7 0 0 0 7 y = 0 u [ ] ] ) ) f , e K u ) { ) ` ` u u q f 7.| } 4.3.| K 0 # u _ _ | | K e e = ` -.) ' _ :.-._ =.u K _ u ) ,.) q ) 7 K _ ) ' ) ) ) # 7 K ..X.` K r 8 0 0 7 #   @ k ' ` #.u f ' ..| u q _ ` ,.X.K _ K L _ 0 -._ k ' q @ u =.u K _ K 0 _ u # e o.y q 0 q K e u ) u 0 0 u ..) ) ) k u k 0   @ e u u ` ] k f e f f u = # 0 e K f q @ = u _ _ u e u ) k u ) 0 # 0 K ) e 0 = @ , u ) f = 7 e f 0 0 u 0 f e K @.y ..@.f q ) ) 0 k e f _ u e 7 = e u y u 0 q 7 7 y e u q 0 0 = q y y y y y 8 = # 7 0 u k k u 0 k u u K u y 7 7 7 7 = 0 = 0 0 0 q 0 7 y 0 7 7 7 W e y = = = = # @ @ @ @ @ # 0 e e u 0 = # = @ @ @ @ # 0 = @ @ 7 , # @ # @ O O @ @ X O @ @ @ @ # # = @ = # @ y ) [ k ) ` _ u X u u u ) { ) ` ) y e q K 9.| } 3.3. .s 0 @ u K ' L #.' u q = 0 ..@.) | _ q..._ @.e _ ) f K ,.` 0 K 0 u _ f _ ) K ' 0 O y ) @.' ..u = 7 0 = # @   O ) ' ' X.e f _ | ' f 7 ) ) ,.#.H K ) u X.0 ) @.w { K @ @ =.' q _ L u 0 _ y # e { q 0 , , f q y ) ^ e 7 0 _ _ k K K u e u     # e u u ` ) K f 0 f u 0 @   = e k u y @ @ u K ) u e q y k 0 ) e # @ 0 _ f 0 =   @ # e ) u @ # 0 e # # k # f e f ' u K #.` 0 e u u y f 0 K K 0 u = , u u u e u y = q u K k e y 0 , q 0 e e u e 0 = @ 7 0 u k K u = e k k ) ) k 0 7 = # @ 7 = @ # # # # @ @ ",
"0 = 0 y 0 0 y y K k K y 0 7 0 = = 7 = = q 0 7 0 e = # # 7 @ # @ = # # # @ # # # # @ # # @ # k [ [ ] ` { ) 7 e ) K ) { { ` ] e e q K $.| ..3.3...K , # e _ _ | $._ e q = _ -.` ' K ,.-._ @.u ) ' ) K q.) w ) 0 f K f _ ) _ ' # # u ..@.=._ y r y 0 7 = # @ K ..` @.u u _ @...f 0 ) ` q.X.K ' f _ ' y -._ K ..q = f -.u K _ K = _ u = e { y y q 0 K e e ) ) e 7 f ' ) ) ) k u K y   # e u u ` ) ) ) e u e 0 @ @ 0 e ` K e # 7 ) _ ) e u q u u y ) 0 # f ' ) u q X # @ e _ K = # e u = = u , K f K { q ' ..K 0 y K e K q u _ K u y = u e q K K _ u 0 K K u e e u q e w e e k u 0 0 = 7 y u e u 0 = y e u u k y 7 7 7 4 7 0 7 # # # # @ O @   @ @ # W ) K 0 # # = 7 = e u e u e e k u u y 0 = 0 = # # # # = = 0 0 e = @ @ # @ @ @ @ @ @ @ O @ @ @ @ O @ O O X X 0 ^ [ ) ) ` ` u @ f ) K ` { ) ) ) q w 0 L X.| | +.#.| e 0 o 0 K ' H #...u 0 = 0 ..-.f _ ) S..._ @.0 ) _ _ K :.) 0 K 0 f K u K _ _ ..0 O y ' @._ @.u 0 y y 7 @ @ O 0 ) { ` | e u L #...K = K ) ,.#.K K K u #.u | @.e ' _ 0 O @.| q ) L e , ) 0 = u { q 0 0 # K e y ) ) u 7 7 ) ) u K u u e k     = k k u ) k ) ) 0 e u 0 X X # q ` K u # # K ) ) e u y e ) q ) y @ # e ..K k =   @ @ e ) u @ @ q u 0 # u # e s s _ u u X.) 0 0 y u u u # u K e K , , 0 0 w e K f y 0 e q 0 , 0 0 , , = 0 = 0 , , = = 7 7 0 = 0 = @ # = 0 , 0 0 # # @ @ @ # @ @ @ @ @ @ O O ",
"0 y y K u k k y q y y y r 7 7 7 # = # # 7 r u e y = = = 0 # # 4 7 = = 7 # 7 7 7 @ @ # # # # u { ) ) ` { ) 7 e _ K ` _ ) ` ` u e e L | } | #.#.} u 0 @ e ' _ } #._ u q = ` =._ ) f q.@.) -.u K ' _ ) q.) y _ y ) K f ) _ ' ' # 7 u @...' ` e y y y 7 # = O u { ) @.K u L #.@.) q ` ' 9.| K K f ' @.K -._ K ..e   f ..u f _ f 7 ) e 7 u @.e q y 0 K e y ] ) u 0 u ..k K K u u K y O # e ) u ) K ) _ e e u q @ # 0 e ' _ u # 0 ' ` K 0 u e ) K k { 0 # q _ ) K y   # # e K K # # e K y 7 u 0 f K f _ 0 _ | u 0 u K y ) 0 q u e e y 0 y 0 # 0 7 y 0 = 0 0 , 7 = , # = @ @ @ # = # # @ @ # # # # # @ @ # 7 # 7 = # # @ @ # @ = = 4 # # @ @ # @ # @ q ^ K e # @ # = = y y y 0 0 0 = = = = 7 = @ @ @ X @ @ @ @ = 0 0 0 @ @ @ = # @ @ # # @ = # = 7 # # O @ X @ @ @ 0 Q { ^ ) ` ` u @ f K K ) ) ) ` ) u q q L | I | +.3. .s 0   u _ X.L $...u 0 = 0 ..-.) ) ) q.' ' @.w ) _ ` f -.K 0 _ y _ _ f K _ _ ..# O u ) X.f { u 7 7 0 8 @ 4 @ 0 ) ` _ ..f u L #.@.K 0 ` ) #.| g e K K 7.K ' X.u ` _ 0 @ { { q ) _ e 0 ) 0 # u ..e 0 q # f e y ^ Q e 0 y ' ) u K u u u K O O 7 K u k ) K ) _ q e u 7 O @ 7 y ` ) u = 0 _ _ ) 0 e 0 u ) u K y X < K =.K u 4   # = u f K # # e u q # K , f L K _ e u X.K 0 u K 0 e u # e 0 # 0 # 7 = @ X   # # X @ , = # @ # # X o O     O   O       O O   O O O O   @ # # = @ O O O O @ # # # # # # @ @ ",
"0 e y q 0 7 0 # @ = = = 7 @ @ = # = # # @ # 7 = # @ # # = @ # @ # # 7 7 4 7 0 = # = @ @ # # u { [ ) ) ` ) 0 e ) f ) ) ) { ` K e e _ | I | 3.3.| u 0 @ u _ | ' -.' u q = _ #.-.@.K 9.| ) -.k f ` ' K { ) 0 ' y ' ' ) ) _ ' ' @ 7 u ..{ _ ) 0 7 0 r 7 7 0 0 ) @.) @.K f _ #.#._ e ' K @.L K K K | @.K @._ K @.e O _ @.K K | K 0 ) e = u { e q y = K e y ) ^ y q u @.K k K u u K y   # q ) u ` ) ` _ e e f q O # 0 u { _ u # r _ ..K q u y K ) K ) 7 , s =.) u e @ 7 0 u f K = # e u e 0 u 0 K } L ' u _ ..K y ) u 0 ) 0 u u 0 # # # q 0 # 7 # q 0 = 0 w 0 0 0 q 0 0 0 , 0 0 # 7 # # # # # # # # # = = 0 0 q 0 # @ @ @ # = 7 7 7 7 7 7 @ # @ # X r [ { q # # = 0 q K e e w 0 0 @ @ @ @ # @ O O O @ = @ @ O @ @ # # O = @ @ O @ @ @ @ @ = @ @ 7 # # @ # O X O # q u { ! K ) ) k # K f f ) K ) ` ) e 0 , L } L | #.3. .g 0   q K #.L $.X.K 0 = 0 _ ,.9.| ' q.) ) @.q K _ ` u _ u 0 ` e ) _ f K K _ | # @ e u @.) _ e = # 7 7 O 7 7 7 ..{ _ X.K f _ #.X.K 0 ) K X.} K e K K -.K ' ..K ' _ 0 0 ' | s ' ' u 0 _ q # e _ e 0 0 # f e y ] u e 0 q ` ` u k u u e k O O , K u u ) K _ ` q e f 0   O = y ` _ f # = u { _ , u 0 e ) ) k q o q g ..K e 0 @ 0 , e u u @ # w u e , u q f } I _ k u X.` q f ) 0 e u = K e = # X # 0 0 w 0 e e 0 0 e e 0 e u u u s g K H s , w 0 0 0 0 , = # # = 0 0 0 e y 0 = # # # @ @ # = @ @ @ @ @ O ",
"0 u k u k e e = # # = = 7 @ @ @ # 0 0 7 @ 7 8 0 7 0 0 7 # @ 7 = = = 7 7 # = 4 # 7 7 @ # @ , u [ [ ) K ) ) q f _ u ) ) ) [ ) u e q L _ _ X.@.$.' u 0 = K #.X.} q.' u 0 # ) @.F.9._ q.' f @.e u ' ' f ) u r ..e ) _ K ) ) _ K @ = k { { K k r 7 0 y = 7 0 @ u @.) -._ f _ #.X._ 0 K ) #.L K f f ' @.f X.' ) { e O f @.L _ | K 0 _ u 0 e _ u 0 y # ) e u [ k y 0 e .._ k u u e k 0   = u K u Q k ) ' u e K q O # 7 y { _ u # 7 u @.u 0 f 0 u ` ) e = < K @.) e e # y 0 e u K = = e u u 0 K u ) T L { u ) X._ q ` k , u # u u y = 0 @ y 0 = 0 , u K e u u u f K k f u f s g K e u u u K u y w q 0 0 y y u u y 0 0 0 7 7 7 # 0 # # @ @ @ @ # @ @ O y o.) 7 # 7 = = 7 r 0 0 0 = 0 # # @ # # @ @ O O # 0 0 = @ 7 0 0 0 = 0 = # O # # = = = = # @ @ @ # = #   @ O @ 0 u [ k k K _ K 0 ' K u K ) ] ` ) y 0 0 L _ ' X.} $.| L 0 @ e ) #.H -.-.K 0 # 0 ) :.F.@.X.9.K u { 7 u ' ' f ) y 0 { u g _ K K ) _ ) # @ u K @.K u y = 7 0 7 O 7 # # K { _ #.) f _ #.X.L , u ) X._ f u g f #.K _ | K K ) y O ' ..g L } e q _ y 7 e _ e 0 0 @ f e u [ Q y # 0 _ ` f u e e e e O O , K u e u K ` ' e u K 0 O 0 0 q ` _ e # # e | ) = u 0 y ) _ e = X s L @.f e 0 @ y # e u u # = q u e # u u K T L | K u ..| e u _ 0 0 0 = K u 0 q # # w , = , e K u e u u u e u e 0 , , , q q 0 y 0 0 e 0 = , 0 0 = , = 0 q 0 7 7 = 7 7 # @ # # @ @ O O O @ ",
"7 0 7 @ 7 # q 0 7 7 0 7 = # 7 = 7 e y y 7 y e y y y 0 7 7 # = = 0 7 y y 0 0 0 0 y y # 0 = , y ] [ ) ) ) _ e K ) u ) ) ) [ [ e e 0 L _ X.@._ #.L e 0 , u @..._ 9...u q # ) X.F.9.| q.' e ` e e _ ' _ ) y 0 { k K ' ) ) ) _ K = 0 ) ..{ u y r @ 0 r = 7 7 @ k @.K -.` K ' 9.X.) 0 u _ X.K K K f _ @.K X.' u ' q O e #.L K L K 0 K u 7 u ' u q y # u q ^ [ ^ e 0 e { ) u u u u k 0   # e u u u ) ` ' u u K u 7 ^ y y { _ e # 7 ) @.u = u 0 u ) K y = q g ..) u u # y = y u K 0 , u u y # k K _ L g { u _ ..) 0 ` K 0 K 7 f K u 0 r @ u K y u e K K f f u u u u u k u u e q e e e u u u 0 = 0 q 0 0 0 = = 0 0 7 0 7 7 7 # # 7 = # @ # # @ 7 # = @ @ u q = = = = y e y , # # = w 0 y 0 0 = # @ # = 0 u u u = y e y u e 0 = # # # @ # = 0 u y y y y u y 0 = r = # q u %.) ) ) ` f % K f u K ] ` { ] w q , g L | #.L #._ u , 0 0 _ X.H $.-.) e # 0 _ q.q.#.#.9...u _ 0 u _ ' _ _ e , _ K u _ K f K ) _ 0 0 u ) @.K w y # @ 0 8 @ = O # @.' L #.) ) ' 9.| ) y u ` | L K K L f @.L } X.) K ) 7 O ' X.L f L e q L e = e _ e 0 0 # e 0 u [ ^ u 7 y K _ K u u e u u @ O # e u e u ) { ` e e K y 7 ] y q { _ e @ # u { f X u 0 e k ) 0 = @ < K ` K u 0 X y @ w u f # = e u q   e ) _ g u _ K f X._ , u _ 0 e e 0 ) K 0 0 # 7 ` _ K K K u f g u e e u K K K L I g u K K f f s u 0 = 0 q 7 = w = # = = # # # @ @ @ @ @ @ @ @ @ @ @ @ ",
"k K u y y 0 q e u u u y 0 = 7 8 u K ) k 0 e K k ) K y 7 7 # = 7 0 = 0 0 0 0 0 0 7 7 # 0 = 0 u ] *.{ ) ` _ 0 e ) f ) ` { { ` e y , u L ..@._ 7._ u 0 y u X.| ' 9...k 0 # K @.-.....w...f ) u u ' ....` u 7 _ _ K _ ) K K _ ) 0 0 u ' { u y 0 # r r 7 = @ @ ) #.K #.` ) ' 0.| _ u K ' | L H L K L #.L @...f ' e O y @...K ) K 0 K K 0 y ) u 0 y 0 k y ^ [ ) u q u K _ u K k u k 0 @ @ 0 u u e ) ' ` u e K u y ` y e ' ' y @ 7 u ..u 7 u y k ) u = # q g ' ) u y @ e # 0 f K 0 = e u q @ u { | u e _ u _ @.K = _ K q K 0 K K e = = @ u K K _ K u u K K u u K K ) ' ' } I K K K g f f K u 0 y y 0 0 e 0 = 0 0 = # 4 # # = = # # = 7 # # @ # @ 7 @ # ^ u f u y 0 K f u q q 0 0 0 0 e e e 0 0 # = 0 y e u e # 0 e e u f u 7 7 # # # 7 # @ @ # # @ O @ O O O # @ # q e o.{ ` ) ` f @ f f f ) [ { ` ) 0 0 # e L | @.L -._ s , 0 y ' X.L -.#.K e = 0 K -._ ' #.q._ e f y K ' ..{ _ u 7 ` ' K _ K K K K _ u # u ) ..f 0 y # 7 y 7 @ @ O @ ` ' _ $.) K ) 0.} _ u u ' ' I g L L g #.L _ #.K K ' q   { #.| u _ e 0 ) u # 0 K e = q = K 0 k [ ^ u 0 y u _ ) u k k u u # @ @ 0 u e u ) ` ) e e f u y K y e _ ' y @ # u _ u # e 0 e K K 0 = # s K ) u e 7 @ u @ q f k # @ 0 e q O u { ' u 0 K K K @.` 0 u _ y e e 0 ) e = 0 @ = e e u s e e u f u u u u K K K e q s e u e q 0 < q q , , 0 = # 0 = = 7 0 = @ @ O @ @ # @ @ @ @ @ @ O O ",
"u y q 0 0 q q 0 0 0 y 0 q = 7 0 e y y 0 # 7 y y y u y 7 7 = # 7 7 7 # # # # @ @ @ @ @ # # 0 e ] =.` ) ` _ 0 e ) ) _ [ [ { _ e q 0 u K |  .L 7._ u 0 0 K X._ ' 9.' u e 7 u { X.) @.F..._ u u K ' ' ..` ` y ' ..` _ u u u ) ) y @ u { { q y r 7 u r 7 0 @ X ` @._ -.' K K 9.| | K e ) ..L K _ _ _ ..s X.X.K ' u # y =.| f ) K 0 K K 0 = K u 7 y 7 K y ^ [ ] ^ y u K ' K K k K K y @ # , u u y ) ` ) e q K K u ) u k _ ' 0 # 0 ) { u 0 u y K ) u 7 = q K { K e u # f 7 q u K 0 # q K e @ u { _ u y _ u ` @.K 0 _ ) w u 0 K f 7 0 0 # e 0 0 u q y e e e q q q e e y w 0 , 0 , , = = = 0 0 0 0 = = # 7 # = 0 0 # # 4 # 4 = = # # # # # # @ # @ # @ 7 ] 0 , = , # 0 < = # = # # # @ # # # = = # # # 0 = = = @ # # 7 , 0 0 @ # @ @ @ # @ @ @ @ @ O O O O O O @ X # y e { { ) ) ` K # K K K ) { { { ) q 0 = f L | | s #._ u = # 0 | ' _ 9._ u e 0 0 _ 9._ _ #.9._ u u e K _ ' ..' ' y { @._ ' e q u K _ 0   y ) @.u = e 0 0 y 7 8 7 O q ..' ' -._ u K 9.| ..K 0 ) ' L u L _ K | K L #._ ) ..e O { #.' e _ e 0 K u @ = K e # 0 # f q u [ ) u 0 y K _ K k u k k e # @ # 0 y e e u ) K e 0 f u u k u u K _ e # 0 ^ { K 7 u w e K K 0 , # s K ` u u 7 # K @ 0 u f 0 @ 0 K e   e ` _ e 0 K u K #.' 0 u K e e y 0 ) y = 0 @ 7 e 0 r 0 0 0 0 , = # # = = = # # X @ @   O X @ # = # 0 = # = # # @ @ # = # # # # # # # @ @ @ @ @ O O O ",
"0 = = # = # @ X O O @ O @ O O @ @ X @ # @ @ # # = 7 7 # # @ @ # # = = = # # @ # @ # @ # # 0 u ) %.{ ) { _ q u ) f ) { { ` ) e q 0 u _ #.| g #._ e # # u | _ | 7.K u u = u -.=.) ..q.@.K u K K | _ @.' ..y { | _ _ e e f _ ` 7   q { =.k y u 0 u y r r @ @ ) @.' 9.{ K K 9.....K q _ X.L f _ | K ..K X.X.K ` u @ r =.X.K K f 0 K K 7 = u u 0 0 = K q ^ { ) u 0 u ) ` K K k k u 0 @ 4 7 u u u ^ ) ) e 0 u u u ^ u k K K 7 # y ) @.u e u w u K u 0 # < K =.K u u # ) 0 q e f 0 @ 0 K e @ e _ K u q K e ' ..K 0 ` K y ) 0 ) K 0 7 7 7 q 0 = q 0 y 0 0 # @ # # = # @ # = # 0 , # = 0 # 0 = 0 0 0 0 7 = # # 7 7 0 0 0 0 7 7 7 # 7 # 7 @ 4 # = @ @ O 0 / 7 # 4 , # 0 , = , , = # # @ @ @ @ O O O O O O     O O O O O @ # 4 O O O O O @ @ @ @ @ 4 @ @ @ @ @   @   # y e { { ) ` ` K , k K f ) { [ ] ) q 0 , f _ #.| g X._ q @ X e ' ' L $._ e f 0 0 _ q.{ ' #.D._ u f K _ _ ' @.' ..y ' ' _ _ e q u K X.0   = ) ;.K = u r 7 y 7 8 =   q @.....9.' f K 7.' | K 0 _ ..I e _ | K _ _ | #.L f ' u O { #.{ u ` e 0 K u = 7 K e # = # K q u { ) u 0 q K _ ) K f K e e @ @ @ 0 e e u Q ` K e , e e e u u u u K = @ 0 u { K y u w q u f 0 # o < _ ' y u = # ) # 0 u f = @ 0 K e O q K K e 0 u u K X.K 0 u _ e u e y ' e # 7 @ = # @ = 0 0 0 = # @ = = 0 = # @ 7 0 q e 0 , , < = 0 # 0 7 # # # @ @ # = = = 0 0 = = # 7 , = 0 # = # # = ",
"e y e u f u f g g K e 0 0 0 w 0 0 = = 4 = 0 0 0 q y 0 = # # @ # = 7 7 7 4 7 # # @ # @ # # 0 e u *.` ) ' ) e u _ K ) { [ [ ) e y 0 e _ #...L $.) q @ 7 f | _ ' @.u k K 0 u { =.) ..q.@.K K ' ) .._ -.' ..y ' ' _ _ K u u ) _ 0 # u ` =.u u u 0 u r 8 r @ X _ :...q.' u f -.| ..K u ' @.L u L | f _ } #.X.u ) K   y =...) ` ) , k ) r 0 K u 0 # 0 K 0 ^ ` ) u 0 y ) ` ) ) ) K k y @ # 7 u u e ^ ] ` u q e u u k u ^ f K 7 # 0 ) { u k u w u ) u 0 # < f =.u u e X ) 0 0 e ) 0 # q K e   e ) ) e 0 u e _ ..) 0 _ _ e ) 0 _ _ y 0 0 = e 0 0 e e e q e 0 0 u e y q 0 e f K K K K f e y e 0 q 0 # # = # , y y 0 0 7 = 7 = 0 u 0 e q 0 0 q 0 y # 7 # 0 ] e , u e 0 e e u e f f s K p s 0 q 2 0 0 2 0 2 2 : : : : , , 0 , , - o @ @ X o o o @ o &   @ X O @   O   # e y [ { ) ` ` f , ) f u ) [ [ ) ) q 0 = q _ #.' K X.K 0   0 u ' | L 7._ q K y 0 ) -.' ' @.F...u _ ` _ _ ' -.' { r ' ' ) _ f u u f ..e # r ) -._ y u 0 0 y @ 8 7   X { =...-._ u u -.' ..L u ' X._ e L ' K K _ X.#.K e _ = O { #.' K ' e 0 u u 7 0 f u # # 0 f 0 u [ ) u 0 0 u ) K ) ) ) u u # @ # q u e y u ) ) e # e u u u e u u K = @ 7 k ` k y u 0 e f K 0 # # u ' { 0 K # @ K @ 0 e K # X 0 u e   , K K u = q e u .._ q u ' e u e e ..k 7 0 # 0 f s f f e s s e q u u e y q w K f u f K g e u e e 0 0 0 = = = , = 0 y 0 0 , = # = = y y w e 0 0 0 0 0 ",
"k u u u u y , w 0 e e y e e u u 0 0 0 y 0 y 0 y e y 0 7 7 7 7 = # 7 # @ @ @ @ @ @ # @ @ @ 0 u Q *.{ ` { ` q u ` u K { { { ] u y 0 e ' #._ f | _ 0 O y u { ' } @.u u f = u X.@.K ' -.X.u ` @.K K _ 9.{ { u _ .._ _ ) u k _ X.q 7 y ` :.u u u 7 y 0 0 y @ O ) q.' -.' u u -.| X.| u K ..K e L | f _ | #.@.K K f # q @.X._ ` ) q u K y 0 u K 9 # q K q ) { ) Q 0 0 K ) K ) ) ) K y @ # 0 K u e u ) K e 0 e K u u u ^ u K r # 0 ` ) u u u e K ) k 0 = < H :.u u e @ ) y 0 y _ 0 # q u k @ q _ K e 0 w 0 _ ' K , ) ) q ) 0 ) K 0 = q 7 ) K K K e f f H G s u e e e e u e q e u e e u e e q q e e e u e 0 7 0 e e y w 0 = 0 e q 0 0 = 7 7 = 7 # # @ q [ u q u K e u e e u e e 0 0 > x l x l > l l l l i l l l i l i i l l l l > i l l i i > m > . @ @ O X   O   # e q [ [ ) [ { f # ) K u ) { =.` ^ y w # u ..@.L u _ K @   e e _ _ K $.K 0 f 0 0 u #.) K ' -...f ..' e f ' q.' { y _ ..) ) K u u ) @.u @ 7 u -.) w u 7 7 r 7 y 7   X @.-.| -._ e f 7.| X.} e K ' K q _ _ K K ..| @._ q _ , O { -.' K ' u 0 u e = 0 u K # @ 0 K 0 ) @.` u 0 = u ) u ) K K k u # O @ u K e u u ) u e 0 e k u e u u y K r # = ) K u e e u e K K y = # s ..{ 0 K # # ` 0 0 e ) # # e u u X = ) K u , , 0 e ..K = u _ 0 u e q f 7 @ 0 0 r s u e 0 0 e s q q e e q w 0 0 q 0 0 0 0 0 0 y 0 0 0 0 e y 0 = 0 = = 0 e y 0 0 0 = @ # 0 = = # # = # @ ",
"u u u K K K I I K f K K K f f u 0 7 0 q 7 q 0 = 0 0 0 7 7 7 7 # = 7 = # # # # = # 7 # @ @ 0 u u { { [ @.' 0 u ` u K [ o.{ ) u e 0 e | X._ f _ K = ,  .u _ _ _ @.e 0 K , u X.@.u _ @...) _ ' e u _ 9.{ ..u _ @._ _ u y k ` | 0 # 0 { -.k u u = y 8 r u @ @ _ q.' -.' k u #.#.#.| u K ' f u K | g _ _ ) | K K } # e -..._ _ _ y u f 0 0 K K 7 @ 0 f e ) =.` k 0 0 K K K ` ) k k q @ @ y _ u e ) ) k e u u K u y u u y K 0 # 0 ` K _ u e e u ) k 0 # u L -.u K u @ ) e y e _ 7 = u e ) @ 0 { ) f e k y _ ' K = ) ) y ) 0 e 0 @ = y 0 u 0 0 u , q q 0 = q e u e 0 y y 0 9 7 7 0 0 0 r 0 0 0 y 7 # @ # = e u u 0 # 0 = @ @ = 0 # 0 0 7 0 = 7 # # @ 0 / ) e e f u f e u K K _ _ { U Z B B c B c c c z c c z x l l l x x l x z c z N B B B V z > O O @ @ # X X   # e 0 ) ` ) { { f # ) K u K ` o.` u y 0 # u | | K u _ H , < } u K _ K 7.f = K 0 0 _ #.) K { -.` f _ K 0 K | -._ ..u ) X.) _ f q e K | e O = k ,.) u u 7 7 r @ y 7   # =.-._ =.) y e -.@.$.| u f _ f q K _ K f _ u _ _ e @.e @ @.=.' K _ u 0 K u # 0 f K # @ 0 f 0 ) o.` k 0 = u K u ` _ K u e @ O @ y K y e ^ k u e e e u y 0 u e 0 k = X # ) k ` k e e q k ) u # o f ..{ y ` # # ) 0 y e ) o # u y K @ 0 ' ) K e u e u | ) 0 u _ e u e 0 e @ @ y # y q e u e 0 0 , , , e u e 0 0 q 0 7 = = , , # , 0 = = 0 0 # @ X @ # 0 K e 0 # = = @ @ # = = # = = = 0 # ",
"u u u K K K K K f u e u e u e u w 0 0 0 7 y 0 7 0 0 7 # 4 @ # = = # # = 7 # # # @ = @ @ # 0 u e { ` ` =.) 0 e { K ) ` { { ) u y # u | | L f | I f Y K q _ _ I @.q L | 0 u { ..u ' =.#._ _ ' k K ' ,.' @.) K ..) _ _ u K ) _ 7 # y ` ,._ u y 4 r 7 8 y @ X @.q.' @.' e e @.$.3. .K ) ..K u K ..K K _ e _ K K ' # u -.X.K _ ) y u f 0 0 K ) 7 @ 0 K r ) [ ) u 0 0 k k K @.{ K u q # @ = K u e ^ ^ ) e u u k u q u u 0 u 0 # 7 K k ` u u q u ` ) 0 @ e K -.f K e O k y e e _ 7 # e e ) # 0 ` _ f q K 0 _ ' ) 0 _ ) y k 0 k y # y u 0 ) f K _ u u e e u K e u q 0 e w y y e u u 0 0 e w y e e 0 0 0 0 q 0 e u e 0 q 0 0 q e y = w 0 = 7 # # @ # X 0 [ ) , 0 e 0 e y q q e e 0 q 2 B B V m B m c c c c c B N B B B c c c c c c c B m B B B c > r O O X X O O O # y 0 ] { ) { { f # ) _ u ) [ { ` u e 0 # g | | g L @.} g | s , L _ f #.f u 9.u , K ..) K X.9...K _ _ e K ..-.L @.) u X.K _ _ u u K ' 0 @ 0 _ -.@.u u 7 7 0 @ 0 7   # ' #._ =.) q e #.X.#.| K K ..L q K } K s _ 0 f ' q _ 0 O =.=._ f ) f , u u = 0 f ) # O = g 0 u { ) u 0 7 u K u { ..) u u 0 O O e u e e ^ k k e e u f y 0 u u 0 u 7 @ # u e ) e e q y K { 0 O X f ..' q K @ @ u # e e ) # # e e e @ 0 _ _ f 0 e 0 u .._ y f _ e u y u u 4 # k 0 y f K K u e e w q u e q q 0 y e 0 e e u u e 0 0 e q e e u 0 0 w y e 0 q u u 0 0 0 , 0 e q , , , , # # @ ",
"7 = = 0 0 # # # # # @ @ @ # # 0 0 0 7 7 = 7 # # , 0 = # 7 @ 7 7 4 # = # 7 @ @ @ @ = @ @ @ = q e { [ ) { _ , y ` K ) [ o.[ ) u y # K | | L _ 4. .T H , L | K K | u | 3.0 0 ' @.u ' -.#._ _ ' u u | q.| X._ u ..K _ ' u u ) { q 7 u ` q.' k q 7 y 7 7 r O O @.q._ @.' e e X.#.X.| K K X.L e f X.) K ..e _ K e u O e =.| K ) K e u ) y = u _ 0 O 0 f e ^ { ) e 0 0 ) k K =.{ ) ) e # O = e u e k K K e u u k u u ) K e ) 9 # = K k ` q e 0 u ) ` , @ e K =.u u q   u e u e ` 0 # e K ) # 0 ) ` f 0 u # K ' ) y _ _ e u y u 0 # y u 0 ) f e u 0 e 0 y e e 0 e y e u 0 u u K f u u u u e K ) ) u 0 k ) K u K ) ) y y y = 7 0 , = , # # # @ @ @ @ O ) ;.` # = 0 # @ @ X @ # @   4 : B c B c c c z z z c c c c z l c z c z z z z c c c N c B z ; - O X O O   O O @ # e ) { ) ] ` u @ K K u ) [ @.` u e 0 # K | | g I 4.2. .g # L | ) u | s K 4.e @ u ..) K ..:.' f ' _ 0 K _ q.' -.) u | k _ ' e u K ..u @ r ` ,...K 0 # 8 0 O 7 =   @ q.-.K #._ q q @.@.X.' f K | _ , f | } u ..f g ' 0 u # O X.X._ f ) f 0 k K = = u _ # O = f 0 k ] k e 0 = u k u { @.) K u # O O , q e e u k u e q u f u e ) k u ^ = @ # u u { e y 0 0 K { 0 X # q X.' 0 f @ @ K q q e ) # @ u K K # # K _ u 0 u 7 e _ ) e K ' u e y u 0 @ @ u 0 0 f u u q u u e e f 0 u e 0 e w , e u u u u e e y 0 ) _ _ e , e K ) f K _ K y 0 y # @ # # @ # @ X @   O ",
"# 0 0 0 0 7 0 e e u e 0 0 0 0 0 0 q 0 7 = 7 # = 7 7 0 0 q 7 0 7 0 = 0 # 7 7 = 7 # 4 @ # @ # = y ` ] ) ` ) 0 e ` u ) [ o.{ u e y # K | X._ _ _ 2.I % q | X.K g L e $.9.0 0 _ ..u ' -.@.K ) @.u e ' 9...=.` e { u ....e k _ ..e 0 u ` { @.k 7 @ 0 7 7 r O X @.S._ ....K u X.-.X.| u ` #._ q e X._ K @.e _ ' u u O e ..| K _ ) y y _ q # u ` q @ 0 u u ] ) ^ u 0 0 ) k K -.{ K ) e = @ = q u e ^ ^ ^ e q e K f u ) k u k = # , k ) ` q k 0 e ) ) 0 = 0 s =.K f y @ u u y , ' q # e K ` # = k ) u y ) 7 K ' _ e ` ) w y u u = # 7 0 # K f u ) f ) ) K ) K ) K e 0 = # 0 0 e e u e y 0 0 u K K e = e e e u K ) k 0 q y # # # @ @ @ @ @ @ O @ X @   7 ..{ e 0 q , , 0 y q 0 0 = r v V B V m B B c B B V l - l l z z ; l N B c c c m c B c B z ; o # # @ @ X @ O X # y ) [ k ) _ f = ) ) u ) [ { ) e e 0 # u | | } L s +.H # 0 } X._ s K q _ 9.u # ) ..) K X.q.X.u ' ..q f _ -.' -.K u ` u ' ..e K _ ..f 7 w K ` | K 0 @ 7 0 @ r =   # 9.@.K @.` u u o.#.X._ e ) @.' , f | | u #.u u X.K u # @ X.#._ K ) u # e K = = f ` = @ , u u ) ] ^ e q 0 f K K @.@.) u k 0 @ @ , 0 e e u K e q 0 e f u e K u e k # @ # e K { q u y y ) ` e # = s #...e e # # K e 0 q _ % X y u _ @ @ u K e 0 f 0 e ' ' u K ` e 0 y f 0 = # 7 # 0 _ f K K ) K K f ' K _ K 0 , = # 0 y e e e 0 0 # , y e u 0 # 0 0 0 0 e e e , # 7 = @ X   O O O O       ",
"u f u e e y u f u K K K e u e e y y 0 7 = 0 , y e y 0 = = = 0 q u 0 u y y y q y 0 7 = = # # 7 u ] ] ) ` ` y k o.) ) { @.[ ^ e q # f X.| } _ H R < O q } #._ f s u X.#.e 0 _ =.K ..,.#.u K -.u u ' -.' @.) ) ..e _ ..u K ' X.e y e _ ..$.K 0 0 r 7 7 r O @ ..-.K ' { K u ..7.X.' 0 ) @.L q K X.' K =.e _ @.) u X u =...K _ ) y y _ q # u _ 0 # y k u [ ) k u y y ) K _ :.{ f ) f # # 0 0 0 y ^ ) ) y e u ) ) u ) u u ) 0 # 0 f ` ) q K y u ` _ e # q | q.) u q # q u e q _ q # 0 e ) # # k ) e y u 0 K ' _ e ' ) e q u u 0 7 # 0 # ) ` K ) f K u u K ) K K u k f u k K ) u e e y 0 0 0 0 0 = # , = , 0 0 0 # # # # @ X           X     @ @ @ = 0 q.-., u H K s s e w 0 0 0 e 2 B c B c B N c N l > o o : > l l : : l z z c z c c c z B B ; r = # @ # @ = @ o = 0 u ) K ) { K 0 ` { k ) { { ` u y 0 # K @.| } | L  .<   0 I @.' s s q Y 3.s # f .._ _ -.q.@.q _ @.y u | -._ ..f ) ..e L X.u f ) | u 0 q K ..X._ y 0 0 7 @ r #   # -...u .._ u y X.#.X.L = K X._ , K } | u #.u u -._ K # @ =.-._ f ) u 0 e K # # u K # # e u u ) ] u u y y ) K f =.{ K u _ , X # = # 0 e u ) u 0 e u K K u ) y e ) 7 @ # f _ ' 0 u q y K ` e # # H #...f e 0 # 0 u e y _ 0 # 0 0 ) @ @ k K 0 0 e , e ..' e K ' u 0 0 ) y # @ = # y _ K u u u e e e k u u k u K u u u u u 0 0 , , 0 , = = = @ @ # # # = = #                             X ",
"q e e e q y e y 0 0 0 q q e y 0 0 e e e 0 q 0 0 q e u y y 0 0 = y w 7 7 = 7 7 7 # 7 # = # , e e ) ) ) ` ) q u [ ) ) { [ [ ) y y 0 H @.| } #. .} , @ g _ #._ u u q | | e 7 ' X.u =.q.-.) f @.f y ) ,.' _ y ) ) e } X.u K ) ' e q y K ..@.K y y r 7 8 0 O X @.9._ ..{ e u #.@.X.| 7 ) @._ e K | L f =.e | =.` u # K :.X.u ) K e 0 K q @ e K 0 # u u u ) ) k e y u ` K _ =.) u ) f @ 0 0 0 0 y u ) ) y u f _ ` k ) u u ` e = 0 K ' ` e K e u ) ) q # 0 L -.) u u 0 # u u 0 K y # 0 e ' # @ K ) y e y # e ' K 0 ' { k 7 e ) y 7 = 7 7 k e 0 e 0 e 0 w y y , 0 = w 0 0 0 = 7 = # # 7 0 0 = 7 = @ @ @ X # @ @ @ O O O O O O O O @ #   @ # # , # = @ e ,.{ e , q , , e e u 0 0 0 0 2 V c V B V c z l ; > i l l z z z z z z z z c N N c c c B B ; 9 # O @ @   @ O @ 0 q k ) ) ) ` u # ) { u ) { { ] u 7 q q L X.| _ #.| L 0 X e L X.' u f q s  .s # ) #.K ) @.q._ 0 ) =.e u ) :._ ) 0 ) k q } X.u u f _ f 0 7 K { ..u 0 7 r 8 @ r =   # -.@.L X._ q = #.| @.' = K X.' < K _ } w @.K K q.' k @ @ -.-.) u ) u 0 0 ) # @ u u # # e u u ] ] u y q e ) ) ) -.) u K K , @ 0 , 0 q y u ) u 0 e u ) ) k ) u u ` y = = e _ { y K u u f ` e # # e ' ..K u e # # k e 0 K 0 o 0 e ) @ X u u 0 e q @ y _ ) 0 _ @.K y = u u = # = # 0 , = , = = = = , , # , 0 = # , @ @ X # X o @ # # # # # # O       O O     O     O O O O   @ # @ O O # # ",
"e u u y 0 y y 0 0 0 0 0 0 y 0 0 0 q 0 # # # # 0 k u q # 0 = @ @ 7 0 # 7 7 7 0 7 = 7 # # @ , e q f ) ) { ) 0 u o.) ] ) [ [ ^ f K u K X.| _ | H L 0 = K _ @.} u f u L I u 0 ....0 { D.@.K ) -._ 7 ' q...` r ) K u | X.u u K { u e 0 k =.K y 0 0 r 7 0 r @ @ ..9.K ..{ y u X.| | | 7 K .._ q L | _ K ,.K | -.K e O u ..#.k K K u 0 K q @ u K 0 # e u u ] ] ^ e q u ) ) ` @.K u ) e O 0 0 e e y u ] ) k e K ` ..f ) ) u ) e 0 0 K _ ` u K f u ) { e # q g @._ u k y X u f y ) e 7 0 e ` # @ K u 0 u q @ e _ u 0 ....K e 0 K r 7 = y e 0 o   # X X O o O O O                 @ O @ # # = # = 0 0 0 7 7 7 = = 7 7 0 7 0 0 0 0 7 r 0 # # 0 = 0 # = # u =.K , 0 q , e u e e # 0 0 0 2 N c B x l > ; > > i l l > z c i l l l l l l z z c c z N B ; o # @ # @ X X O @ 0 0 u ) K ` _ e # ` { k ) ) [ ] K ) K 0 K | } L } s L u @ K _ X.X.e f u s L f = u -.y ` @.!.@.f | -.e 0 { q...) 0 ) K f | | e u K ..u y r q =.K 0 7 7 0 0 * r =   = -.@.u @.K 7 u #.| | | = K ' _ q K ' ..u -.) K :.) u # X @.9._ e K K e 7 ) # # K u # @ y u k ) ^ K y 0 0 k ) K ` ) u u u @   0 0 0 0 y u ` _ K e K ' ` u ) k u K 0 # = u ) ` e f f e u @.u 0 0 K ' ..K u K # X u e y K 0 # = e ) @ @ k u 0 e 0 O = K u # K | K u e e e 7 # 0 e ,       O .                             O   O @ @ # # = 0 = 0 r 0 , , , , 7 0 0 7 = q # = 0 q # X @ = # ",
"u e e y y u q e u u K u 0 e u e u f e y y e y e w u u y 0 0 0 e e e , w 0 7 7 # # # @ @ @ , y e K ) ) ` u 0 u { ) ) ) ) ' ' _ e # u | | _ | u ..u @ ' ' -.| u f e f f u 0 { | q ) @.#.L ' q.` = _ q.@._ 0 ) _ K | ..u k ` ..q u 7 u ,.) 0 0 0 y 8 7 7 O X @.9.) ' ' k u #.#.#...y ) ' ' q L | | K @.) ' =.K u O e ..#.K K _ ) q u q @ f f 0 @ q k K ` ) ) u 0 y K u u ) u f f q O 0 q e e y k ) ..` u K _ ' u ) K e K e = 0 k K u 0 f K e ^ ) y 7 u ) -._ K K y # K ) q ) u 7 = u _ = # k ) y e e = e ` k 7 k K u K e K q = = y 0 0 , # 0 0 0 # , , , 0 , e e 7 0 y q 0 0 0 q y 0 q r e e u K K f k K K u u u u k k u e u u y , # = # # # , @ q *.) e < q , u 0 0 y , e 0 0 2 A m c i > i i l l l l l c Z <.z z x l l l z z z z c z B B > @ @   O   O O   @ , 0 u ) k ` f 0 0 ` ` K ) k _ ' _ u # X f | } _ | e ..e # f _ #.} u K e e u f = u #.u u ' q.@.f @.-.0 0 ' q...) # K K g } | u u K X.K 0 0 0 =.) 0 y 7 r 0 @ 7 @   = 9.X.f ..) 0 u #.#.$.| 0 ) ' ' 0 K } | q .._ ) -.K u # X @.:._ e K _ f 0 ) # # f u @ X 0 u K ) k k y 0 0 K K e u K f u u X X 0 0 0 0 e K ) ..K e K _ ) e ) k e f q # = u u u 0 u f e e ) y @ 0 u { ..K f f # # _ u q K e # # e K X @ e f 0 y e 7 0 _ K 0 y u u u u k y = @ 7 0 = q < q q q 0 0 0 0 0 q 0 0 q e u K y e y 0 q 0 0 y e e u e u f f u K K u u u u u f f e u u e 0 = # # # ",
"f e K e 0 e , y e f k u u u y e K ` K e y K ) K K _ ) e y y = = 7 = = = # # # # @ # @ @ + # q e K ) ) _ y 0 k [ ) ) _ L L u 0 # # K | X.| _ q ..u = ' ' $.} u K u f f u # _ ' _ ) -.#.K ' 9.` # ) q.=.{ 7 ) K s } } u f _ X.0 u = y @.K u e 0 0 7 7 7 O O @.9.L _ { k e @.7.#.@.q K _ ' y K | | u ' K ..-.K u X e { ..K f _ _ e K e @ e K 0 @ e k K _ ^ u y e u { ) u u K f K e X 0 0 0 e e K ) ` K y k K ) e ) ) e K e = 0 u u e 0 u u e K ` y = e K -.' K u y # ) ) 0 f u 7 # u ) # @ u K 0 e K e e _ K 0 u u e f u ) 0 7 # 0 @ K f u K _ _ K _ ) ) _ _ ) _ ' ' ' K _ _ L _ K K K _ K K f K L K K K K H K f f f u K f s s e e 0 , # # @ # X # { { u u f e K u u K 0 0 # 4 2 N l > > > l l z c V F F F y.p.p.p.p.i.Z c z z z z z x c c > # O O O     O     , q u ) K ' e 0 q [ ) K _ I L s 0 = o , I | | } L , ..e # K ' #.| q K u u u K 0 u X.K K #.w.#.K X.@.0 0 _ q..._ = ) u u ' _ u f K =.0 y q 0 @.K u u 7 7 7 = 7 @   0 -...f ..` y 0 | #.#.| , K _ ' 0 g _ | e L _ _ ,.K u # X X.-._ u K _ f 0 _ # @ e e #   y e ) ) Q e 0 y e ` ) e u K f K u X @ 0 # e q u ) ) ) u e u K K e ) ) e u q # 0 u u e # e u e f { u @ 0 e ' ..) e e # = ) u q f e @ = u K @ O e K , e K u 0 ) f 0 w e 0 u e K e = # 0 = 7 _ u ' ' ' _ _ _ _ _ ' _ _ _ ' ' ..' _ I _ L K f f ' L K K L L H s g K f s s f e e u e u q e q 0 = , # ",
"_ K ) k e e 0 y e u e e y y 7 0 e u u 0 , y w w e K u 0 0 0 = = # @ @ @ @ @ O O   @ X @ @ # 0 e K ) _ ) 0 q ^ { f ' } K q e e 0 , L ..X.} L q | u , } | #._ q f u u K K = _ ' L ' 7.-.K @.9.' = ) q.=.K = K u s | _ K ) ) @.y ) u 7 @.u u e 7 0 8 7 # O @ @.-.K _ ..) q ) 9.@.| e u K K 0 f } | f | _ ..-.) k X K =...K K _ ' y f e # u k 7 @ e u u ) k e q e u { ) u u ) ) _ e # 0 = q e e f ) _ K e u K ) y ] ) y K 0 = e f K e , u u e ) ` u 7 u K =.' f u q X e f e u u 7 = u ) # @ u ` y u ) u e _ k , K u y K e ) y 0 0 y @ ) ..L .._ _ _ ' _ ' _ _ _ _ _ _ ' ' _ _ } _ L K K | ' L K L L K f K K s e K K u e e e u e e q 0 e 0 0 = 0 # e -._ u u u u K K K K 0 e 7 9 2 l > > l z V y.F y.i.u.F Z Z Z <.F i.i.d.p.<.V c z z l B c >       O O   O   O # 0 e k K _ q , y { ) K Y L s e u y , , L | X._ L , | u # ' | @.} , f e u u K 7 u ..K K X.9.' ' -.@.y 0 ' S...f # ) e u } L k K ) =.u u ) = { K 0 y 7 7 7 # = O   e -.' u { { K 0 K 3.@.| e e f f , u L  .f } ' _ -._ u =   | =._ f K ' K 0 _ # # K e @ @ e y u ) u e 0 y e ' ) e u ) K _ u # # 0 # u 0 u f ) ) u e u k u y ) ^ y K 0 # q u f e @ u u e u ) f # 0 e | @.K q e @ @ u u q u u # = e K # X u ' 0 e _ u y ) f = u k 0 u e K k 0 = 0 7 0 ..K _ _ K K L K _ K K K K K K L ' L _ I L H K K K ' I L s K K K s f s e u s K u e e e e q q 0 , , , < ",
"u y u k u u e u e e y q 0 0 0 0 7 0 7 # = = # = 0 0 # @ X @ O O O O O     O O @ @ # @ # @ @ 0 u u k ) K 0 y ) { H L s u ) ) u 0 , K | X._ _ e ..u 7 ' X.9.| e K e u K u # K L L _ 7.#._ -.#._ = ) q.=.) 0 u y q _ L K K _ @.f _ { u { u r y 7 y 7 7 7 O @ @.#.f _ #.` 0 ' -.@.| f u ) K q e I | _ @.' ' @._ K X f @...K K ) { e K e # K f 7 @ e e y ) u u q e f @.) u k ) _ | K # w 0 0 e e K ) ` K u f u K e ) ) u ` 0 , u K K y # u K u ) K u = u ) -.' f u y @ e f u f K 0 = e ) # @ u ` 0 0 ) k K ` K 0 ' k y k 0 ) K e 0 y # K K e f e u u f u f u u u u u f K K K f e e u s u f u s e u u e q 0 0 0 q q e q q q q q 0 0 0 = = # 7 # # X u =.k , 0 0 0 e e e u e y 4 e i i l F p.s.d.d.y.y.V B z i c c c m B B Z F u.i.i.y.m l l z l 3 O   X X X @ O O = e u e K _ 0 0 e { K H g u ) ` ) e # , L | | L L 0 ..e # | X.9.X.f K e u f f @ q _ K K ..9._ | @...0 0 ' Y.X.) 7 u , 0 _ L u K ) @.K K { y ` k 7 q # 7 0 @ 7 @   f -.' q ` @.) # K -. .| f e ) K q e H #.L X.| _ =._ u 0   ' #._ K u ' ) 0 _ @ # L u @ @ e e y ) u e 0 q u { ` u u K K ' _ = # 0 # u 0 u K _ ) e u u u u e ) k u ) = = e u f e   e f u f K u # q e | X.) u u # # u u u f u # = e K # O e _ # , K u u ' K 7 ) ) 0 u 0 e K e 0 y 7 7 K q e e e q u e u e e q q u u f K K f e q q e u q e q q q q q 0 , , , , , 0 0 , , % , , = # # = @ @ # ",
"# # # # # @ @ @   @ @ @ # # = = 7 0 = X X O @ @ X @ O   @ @ X @ @ X # # @ @ # = # 7 # 7 # @ 0 w u e _ L y y ) { K ) ) ) o.[ u , 0 L X.| _ L w | u 7 ' ..9.| u f e e f u # ) _ _ ' 9.-.) -._ u = K ,.=.) u u 0 q | | u ) _ ..) ` { u ) u u y r e 7 7 7 O # -.9.f ) ..` y K 7.X.X.) e K ) f u } 2.} #.' _ ..K k X 7 X.X.) u K | y K e # _ K 7 # u K u ) Q e 0 e ) @.' K ) _ _ X.e # 0 # 0 e q ) ) _ u q u u K K { ) u ` 7 = e f k 0 @ e K f K u u y u ) ,.| K u y @ e K f e y = = e K # X u _ 0 0 K ) K _ K 7 K _ u u = k u y 0 y # u u q e 0 e q u e q 0 0 q 0 q e u q y y 0 0 0 e 0 0 0 0 q q 0 0 0 0 0 , 0 = # # # @ = = # = # 0 4 @ = @ # @ e o.0   . X X X X O X     o > c a.p.v.x.F B c z i > > - - - > ; i z c m V m V F i.i.F z E - 4 @ o @ # @ # # O = 0 e 0 K _ q q y { ) K _ ) ` { ) y = 0 } | | L K < | q = X.| 9.| u f q 0 e K # u ' _ f @.T.) ..@.K 0 0 _ @.| ) y u , q | ' u K ) ' K K ..y K K k u 0 r 0 @ 7 @   e -...e { { ) 0 ' 9.| | K e K K f q I 2.Y X.| K ..K K = # ' -._ u e _ ) 0 _ # 0 _ u @ @ u u u ] u y 0 e K ..' f u _ _ ..f # # 0 o e 0 e ) K K 0 0 u u K ^ _ u u ) = # e f u q . e f f f u u 0 u e ...._ u u # # u f u e y @ = e u   O u ` # 0 K _ u _ K # _ ' u u = y K 0 7 y 7 = f q q , 0 0 0 q 0 0 , , , , , 0 0 0 0 0 = 0 0 < 0 , , 0 0 0 0 0 , , 0 , 0 0 # # # # # = = = = = = # X ",
"@ O # O O O @ @ @ @ # @ # # # 7 = 0 q 0 e q 0 0 e e 0 0 0 0 y 0 = 0 y q # # 0 = # 0 = 0 # @ 0 q e u X.L u e ) .._ { [ { { ) u , w } X.X._ L q | q 0 X.' 3.| s u e q u u # _ @.' f 9.-._ q.' K , ) :..._ u y u u ' | f ` ` { K ) ' u ....) y y r 7 0 8 O @ @.9.K _ @.{ k u 9.#.@._ q f K K u T #.} 3.' ' { K k X u #...k w K { y ) e # K K 0 # u q e ` k u 0 e ) { ` f f _ ' =.u @ 0 0 0 e q ) ) ) e = u u ) ) ` K e ' 7 7 u K K 0 # u _ K _ k u e K K -._ K u u O 0 u u e u = = e k # X u ' q e ) { u _ K 0 _ ..) e = ) e 4 7 r @ y e 0 q 0 y 0 e e y 0 0 0 q 0 0 0 = = 0 0 0 q 0 0 0 q 0 0 0 e u e u K f K u e u e e u k K u e k e , y , 0 # e [ y < = # @ O # # # . : x.b.N.M.d.B l z z l i ; . - ; > > l ; - - i z z z m m B y.i.p.F l y @ @ # = @ = #   = 0 e q | L u e e { ' ` { [ { { k 0 # u } X.| L K < | 0 0 X.' $.| s u q 0 q K # q ..@.f _ 9.K @.$._ y 0 _ =.' ) 0 e y e T | u ) _ { k K { u { ..` y 0 0 = @ 0 @   K 9...e ` { ` q u 9.| @.L 0 u f f q L 2.Y  .| L X.K u =   | =._ e y _ K q ' @ = _ f @ # u 0 u ] k u 0 y u ' ` K f _ ' @._ # # 0 # e , e ) K k 0 = f u ) ] ) u e ) = = q K u 0 X y ) K _ K u 0 K u ..{ K u K @ @ e u u e y # # e u @ O u ` 7 y K { u ) ) , K #.k u # y K = = 0 = # 0 # 0 0 0 0 0 e q 0 0 0 0 0 0 7 = # = , # , 0 = = , 0 0 0 7 w y 0 e u e K u w e e q e e e u q e u 0 = ",
"f f K u u K K K K u k e u K e u u u u u K K K K K K f u u K K f u e u e 0 = = = # 7 # = # # 0 q 0 K #.f u u ) ` { { @.` { ) u 0 g | @.X.} L u ..q 0 X.| #.' u u u q e u # ) -.X.f 9.#.) 9.#.@.u K X.| ' K y u q K | u ) ) ` ) { { e { -.` y y y 7 7 7   0 #.9.K ) X.{ ) u 7.@. .' e f K ) u L #. .4.| _ _ u k O q -.| K e f | u ) u # s ) = @ k 7 u { ) K q 0 u ` ` ) _ ..{ -.K @ 0 0 y e 7 ) ) ) u @ u K ) ] ) u q _ 7 # 0 K K 0 # u K u _ K e e K ) -._ u u u @ q ) u y u 0 @ e k 7 X u ` 0 q _ ..K ' K , ' =.` y = ) u = y u = u f e f e u f K K f u u u e e e f e e u e e u e y 0 0 y y 0 0 y y q q q u u e e e 0 0 , 0 , = 0 0 # # X O   # ~ ) g f K K K K K K t g.x.d.<.z l i i > - ; > l l x N B c B z c h > ; ; i l z z m V p.y.i.B #   X o   o o . , q 0 q | K k u u ` ` { o.{ { ` K 0 q g | @.| L K e | 0 = ..| @._ s q e q 0 f @ e _ -.u | w.K X.9.#._ y _ =._ { y q e < K | u ) K ) f ` ..q ` =.{ u 0 u 0 O 0 O O K 9.| e ) ..' u K 9.| @._ y u f K e H  . .2.@.L _ u k # O @.@._ u e _ K q ' # < f K @ @ u # u ` ) K 0 0 u ` _ ) _ ..' @.#.# # 0 0 u 0 q ` f K 0 = K u ) ] ) e q ) # # , f u = O e u e ) f 0 0 K f @.| K e ` # # u K e q e # # y k #   u ` # q K ..K _ ) = ) -._ e # y ) = 0 y 0 y f u u e u K K f K u e u e e e u u u e e e e e e y 0 0 0 0 , 0 y 0 0 0 0 e e q e y 0 = = # # # # # # O ",
"..' ' ' ' | ......' | } ' L K K ' _ K K _ I K K K K K f K f u u f s e e y 0 , , # = # = # @ e L 0 ' | k u u ) { { { { ) { ) u e K L X.| _ K e ' q 0 ..| X._ e u f q e u 0 _ #.X.g 9.X.K 7.7.X.K ) -..._ K 7 k 0 f ..f K K ) ) ..{ 0 _ -.u 7 y k 0 0 0 O 0 #.q.) _ X.` ) u 7.@.| | e f K K s L O.| $.| _ ' u u O y ..' _ u f ' y K e q K ) = # u 0 u { ) ) y 0 u ) ) ) ..-...=.f # 0 y y 0 7 K ) ) ) 0 u k K ) ) k y ) q = q ) u # @ q e e ) u # e K ) -.` u e e @ e _ u 0 u 0 = e K 0 @ u @.e e ) ` K ' K 7 { -.) y 7 k u 0 0 u e k K u f u u K k e u e u e 0 q u K L L K K K K K K e e e u e u u e e 0 0 0 0 0 u u 0 0 0 # O O O @ @ # # = = # y ) I _ ' ' ' ' _ ` ! G m i > > ; l l x z B B B B B m c c N c B B m c c l i i l z c m F y.y.0 @ @ # X # o   0 H q s #.f ) e u { { { [ ) ) ) ^ 0 f s L X._ L K q ` 0 0 ..| X._ q u f q 0 f , f ..-.f | 9.f ..9.7.| e ' :._ ' q 0 u = K | u K u ) K { { 0 ) =.{ 0 7 u y @ y @ o K 9.X.f ' ..` u 0 9.| | _ 0 f f K e g | T +.| L | u K @ O #.| L K 0 _ f 0 ) 0 u K g @ # e 0 u ` ) ) 0 , u K K K ` -...X.' # @ 0 0 0 # 0 ) K ) u q f u u ) ) u q K 7 # 0 ) u #   7 e q K K = 7 f u { { K , k # # _ K y 0 u # # u K = X u ..0 e K ` f _ ) = { =.' e 0 y u 7 0 0 u e f e u q e u u w q 0 0 e 0 0 0 f K s K s u f f K K q e e u u u e q q , # # , , 0 e q = # # O O O O O O ",
"K f f f f f K K L _ L K K K K K ' L K f K K f s f u s f K e u e e u e q q 0 0 0 , 0 = 0 = # e I u | ) ) ) u ) { { { { ) { ] K g u _ X.| } _ q _ e u #.X.#._ e K f e u u 0 _ @.X.f 9.-.K #.9.@.e _ =..._ k 0 K 0 K X.K K u ) u ) ) 7 ) :.) 0 y ) 0 r y O 0 @.w._ ` @...) 0 -.#.X.@.e K ) K f K  . .3.| X.| u ) X q ..K { f u _ 0 K u q f K 0 = e 0 u ` ) K y 0 ) ` _ ) =.q.#.X.K # 0 u u 0 0 k K ` _ u u u u ) { ) e K q = q ) k 0   0 u e ) K # q k ) =._ k e u @ e _ u 0 u y = e k 0 O u ' 0 q ) _ K ' K # _ { K u e K u 7 = u u u e 0 e e e 0 e 0 u e e e e u e u u e e 0 0 0 0 e e y e K ) K u e y # # @ # # # 7 # 7 0 0 0 0 0 0 0 0 # 0 = @ ~ ] u u f u u f u u t p ; 2 v c z B c B c B c c c c c c c c c c c B c m N c z l l i i l c V @ # = # @ = # X q L e ' _ k ) u ^ { { { { ) ) [ ) K e e } X.| _ L e _ q e @.X.@.' s K f e q f # f _ -.u | 7.L | 9.9._ 0 K =.` _ q 0 K , g @.f K u ) u u K 7 ) =.` 0 0 K y @ k @ @ _ 9.#.K ' @.{ u y q.X.@.| q K K K s g |  .3.@...| e ) # O -.' K _ q ) u 0 ) 0 e f f # # e 0 u ) k k 0 0 K ) ) f ..q.X.| ) = @ y K q 0 0 K ) _ K q e e u ] [ u y f , # 0 K u 0   0 u y ) _ = # u u ..' K q u 7 # _ K e 0 f 7 7 e u = O u ` = 0 K _ K _ K X K ' ) e u u k 0 = w K e e 0 e e w 0 e q e e e u e u e e u e e 0 0 0 , 0 e y 0 e u K f e 0 0 # # # # X X # # = 7 0 0 0 = 0 0 7 ",
"e e q 0 q e u K f k e q q e e q q q q e e q q 0 0 , , 0 0 0 0 0 0 0 0 0 7 = 4 # = 7 @ = # # K s ' | e ) ) u ] ] [ { [ { { ) g e u | #.X.' ' u ) 0 u ..X.$.| K _ K e u e # K X.X.f 9.#.L #.9.| y K ..{ _ u 7 ) 0 L #.f f u ` ) K k = K ,.` 0 0 ) 8 0 y O 0 @.F.' ` X.{ ) y 9.#...@.e ) _ K K K @.3.0.@.X.' q K X e -.K ' f K ` q K u e f ' 0 @ y y ) ) u e 0 0 ) ) f u ' #.....f # # K ) e e u K ` ) u u f k ) { ) u K y = , ) K # X 0 ) q ) _ # w u ) @.) K u u @ q ` K y ) e = 0 e 0 @ q ' , 0 K ` K | _ 0 ` @.) k u K u 7 u _ e ) ) K ` K ) K K K ) ) K u K ) ) ' ` _ ) K u u y 0 y 0 0 0 w 0 0 0 e u e y e y y u e q 0 0 0 7 = w 0 0 # , # 0 [ ) # , q q 0 q , 0 0 e 0 Q G M B V c B c c c B B B B B m B B B B c c c c c B c c z c l l z o O @ @   # o X u s L  .e ) ` e k ) ) ) { ) { ` K s < K X.#.| _ _ u ) , e ..| #.| K _ K u e e X y ' #.f _ 9.) } 3.$.L , _ .._ _ 0 , K # g #.u f u _ K k ) 7 e =.{ 0 = u y @ u @ # _ 0.-.K ..@.{ u y 9.@.X.X.e ) _ K K f @.#.0.#.| | 0 K # O -.' K _ e _ u 0 ) 0 u f _ , X y y ) ) u y , , K K u u ) #.| | ) # O q ) e y e K ) ) K u u u u ) ` k y ) q @ = K K #   y ) 0 f ' = = u u .._ K e K 7 @ K K e y ) 0 # 0 y 0 O y ` = 0 K ` K ' _ 0 ) X.' e u e u = 0 _ K e _ K ` K K K f u K K k u u K K _ ' K ) K k u e 0 0 q , , 0 0 # = 0 e u u y e 0 0 e e q 0 = # = # = 0 = ",
"q 0 0 q 0 0 0 q 0 7 0 0 0 e w 0 0 0 0 q 0 e q 0 q w y q = = = # 7 0 0 0 = 0 , # # 7 # 7 @ 4 K q  .L y [ ) k ) ) ) { { _ _ u 0 q L | X.| _ ' u ) 0 u | X.$.| K ' K u f e @ K X...f 9.#.K #.3.| 0 f ....' ) 0 K 0 _ -.u u u | ) k u # ) -.) y 0 ) 0 7 y O y @.F.| ) @...) q -.$.X.#.u ` _ L K g X.@.9.X.| _ e K O q ` ` ..k u _ e u e 0 e ' 0 O 0 e ) { ^ u y q K k k f ) | _ _ u # @ e u q e u K ' ) K K K K ] [ ) y K u # , ) ) , @ e K , ) _ # q u ) ,...f u ^ # y ` K 0 K y 0 q u u 7 e { 8 0 K _ K ..' e _ _ u y 0 u y 7 u _ 0 ) _ K ` f ) ) f u e y e u u u u u u u u u u e y e k u e e e e y e e e e 0 0 7 0 7 = = # = # # # # X @ O @ @ u { ` , , 0 0 0 0 , 0 = 0 # 7 : V c B c B c B N B c N c B c B c m m B B B c c c c V B V B b P @ @ # # o # X @ g q } } 0 ] { u k ) ) ` { ` ) K q # q Y | X.} _ L q ) 0 f ..| #.} f _ f e u u X f ' @.u L 9.K ' 3.$.g % ) .._ ` u 7 f = K #.e e e | K e u # K =.{ y 7 u e O y @ @ L 9.-.K ` @.{ e e 9.X.X.@.e ' L K f s  . .3.@._ | e ) #   @...' _ y K f 0 u 0 0 e ) # O , e ) ` u u q 0 f u u u K | _ K K 7   0 K 0 0 e u ) ) f f K f K ) { u 0 K y X , ) K # O e K , u ' # = e u -.' K e ) y   K _ e 0 K 7 = y u e # u { e < K _ f | ' u ) ) k 0 0 y u @ 0 _ e e _ K ) u K ) u e y 0 q e e u e e u e e e e e q 0 e k e e q q 0 0 0 y 0 w , , = # # # # # @ @ @ @ O O O ",
"u e e e e u e q 0 0 0 7 7 q 0 7 0 0 0 0 0 e y e u u K K e u e e e u u f e k e 0 0 0 # , o 0 ' 0 X.u e { ) u ) ) { { { ) ) e q f } X.#.X.L L e _ 0 K X.@.3...) ' ) u K e # K @.' u 7.9._ #.9._ u u ' { { ..k ) y K #.K K u ..K u u = ) @._ e 7 y 0 0 u O u ..w...u @.@.) q #.#...-.u ` ' _ s L @.@.$.@.| _ e k O u { ) ..K e _ f e e q 0 _ e O = e K ) ^ u y 0 f u K u K ..' _ K = X u ) q q u ) { K f K K K ) %.) 0 K u , , K K 0 @ y u 0 ) ) = q u ) ,._ u u ) 7 # K ) q ) e y u u e = u @.k q K { K .._ u ' ) u 0 0 k u 7 u ) 0 K u u K q e u K u e e e u e e y e e e e e u u e e q 0 = 7 = # @ X @ # 7 0 0 q 7 = 7 0 0 7 7 7 0 = = 0 = 0 # u { ) e 0 u u u e q e 0 u 0 0 > Z m B N B N B B B B V B B B V B V V B B B B B B c N c V V ; r # # = # @ o   # L , | u 0 ) ) e K u ) { { ) ) u 0 q H |  .#.| L L e K 7 K ..| 5.| K ' K q u u @ u | ..f ' 9.' | 9.@.L q f { ' ' _ u ) 0 e @.K f u | u e k # K X.' u 0 0 0 = u @ # ` 9.$.u K :._ u e #.X.@.#.y ' ' L s K X.@.#.#.' ' q K @ # ` ) ) _ q f K e q 0 0 q ' @ X # e ) ) u y 0 , u u u u u { ' ' f 0   , _ e , e u ` ) e f f u K ) [ u 0 K u # = K K = O q u , u _ = 0 e k :.{ K y ) k O u _ u e ) 0 0 e u 0 = u ..u q f | K .._ e ) ) u 0 0 y k 7 0 ) u 0 u u u 0 0 e u e q y q e e q w e e w e e e e e e 0 0 # # # = # O   O   # = 0 0 = # # = 7 7 = # = = = = ",
"K u u e e e e K K K K f K K K u e y e e 0 y e e y 0 y e u e e q 0 , = = # 7 = # @ @ O @   , ' q K q u [ ) K ) k { o.{ ) ) u u L | X.#.#.| _ u ) 7 K X.X.#.| ' | _ u K e 7 _ X._ u 9.7.L #.0.| u u { ..{ | u K ' } X.' ) u | K u u = ) -.` e 7 y y y u O = -.F...q ..@.) 0 ..@.X.-.u _ | _ s K X.X.$.@._ ) e ) @ u ` u ..f e _ K 0 q e 0 _ y 7 q e k ) u e u q K k K u f @.' _ f 0 @ f f 0 e K _ { K K ) K K ^ { K 0 K K 0 0 f K = @ 0 0 7 f K 0 e u ` ,._ u u { q @ f _ 0 _ u y e u e 7 k =.0 q K ..) ' ) 0 ) u q = 7 K k 0 e K y K u f u e y 8 y q 0 0 q e 0 e e e u u K u y 0 0 e q 0 y u u u e y y q y e 0 0 0 7 7 # # 7 0 0 0 7 # 0 # 0 # e =.{ q f _ K K e e e 0 w 0 Q G C m V B V B B B V B V B B c B c B B B B B B B B B V B V V ; .           O   # L 0 L 0 u [ ` f ) e ` { =.` ) f u f '  . .3.X.} L q f = K | X.#.| _ | _ u f u @ u | ' u _ 9._ | 9.3.g q f ..' | _ u ) } } | ' K e ' K e u # f @.@.u = 7 y 0 k @ O 0 9.9._ u =.K e q @.X.@.| 0 ' ' L u f | X.#.#.L K 0 ) = @ ` u ) ` 0 f K e = 0 q 0 ` # , y e k u e y u 0 k u f u u ..` _ f 0   y K 0 7 e ) ` ) u K f u u ) { e 0 ) K 0 % u f = O = , # u f 0 0 u K -...K 0 K y @ , _ u u _ 0 w y u 0 # K #.0 q f | ) ' K , K f q = # e ) 0 0 u u 0 u u u y y 0 0 0 7 0 0 e 0 q e e e e f u e 0 , 0 q 0 0 y u k u y e r 0 0 0 0 0 = # # @ @ @ # 7 7 = # # ",
"0 0 0 e e e 0 u e u e e u u e K u e u u f K u e y = # 0 0 0 e y 7 0 = @ O O @ @ # 7 = 0 = 0 I H u u ) { ` K K u [ { { { { ) u _ | _ #.#.| _ e ) 0 K | #.9.@.' ' K e K y 7 K @.' q -.#.L #.9.L q q ' @...| K ' 9.4.} { ) u | _ u u 7 ) -.) y 7 y y y u @ 7 _ F.#.u ..{ k q @.#.#.9.f | | _ s f @.#.-.#.' _ q K X e { 0 { k u ' ) 0 e e , K e y k K k ) u u q 0 k ) _ K e ` K K K q # K K 0 q ) ' ..K K k e u u ` ) e u e < = u ) # # e q 0 u u y u K { -.@.K u { e # K ) e _ e 0 e u u 0 u =.y q K ' K | _ y @...k 0 # ) _ e q u y ) u ) ` _ { { ..' ) ) _ ` ) ) ) K u u K k u y q q 7 7 7 7 0 0 7 7 = 7 0 = 7 0 0 0 0 = = 0 0 y 0 7 7 y 0 u e u =.) # , 0 , , , , 0 0 w , r p A B V B V B V V V V C V V V V B V V V V B V B V B B B V Z > 3 X   @ # # , # = I s u 0 K ) ` k ) e ) ` [ ) o.` K e .._ } 7.X.| K 0 u 7 K | X.3.X._ _ K e u e @ u { ..u L 9.L | 7.@.L , e @.' .._ f ..0.2._ { K u ' _ u k # K -.) u # 8 y 7 ) = O y 9.#.L u @.) 0 y #.X.#.#.f X.| L s s X.#.#.#._ _ 0 k @ @ ' e K _ 0 K _ e 0 e , , _ 0 e f u K K e y 0 , u K _ K q ) K K f q o u _ q 0 u ) { ` u K u e y u ` f q u q % # u K @ @ y , 7 e e y q k ) =.#._ e K ) # = _ u e K 7 q y u y # K #.0 0 K _ K | _ q ' @.K 0 # y | e 0 e y y e K ) _ ..{ { { ) _ _ ' K ) K k u e u u u y 0 0 0 # # # # = = # # # # 0 # # = , 0 7 # = = 0 0 0 = # 0 ",
"K ) K K K K u ) K K k e e e q y y 0 y u u u e e 0 0 = 7 # # = , 7 0 y q 0 0 w 0 = = # 0 # 0 ' | e u ) ` ) K k k { { { { [ ) e _ ' L @.#.| L 0 u 0 _ _ #.3.| _ ' K e K 0 = f @...f 9.$.K #.5.L u 0 ) ....X.e k | | K _ ) 0 _ _ e u y ) { ) r 7 u 0 0 y O 7 ' ~.$.f ' { u , -.@. .-.f ..X.' L g #.#.X.#.' ) 0 u O e ' 0 ` k u | ) 0 f u # f u y k K u ) K u q y k ) _ K q _ f ) K e # K ) q e ) ` { ) ) f u u k ) ) u e u 0 0 u _ # # u 0 , u e , e K ` ` ' u u ` u @ k K 0 ) e y e k k 0 k =.q q ) ` K | _ e ' { k 0 @ ) { k y u 0 u 0 0 q 0 q e e y e e e e y 0 0 = # = # # # # r y q 0 7 7 7 7 0 0 0 0 y 0 0 0 e y e y q y y y y y 0 k u K K u ;.) e u K f f ) K K u K u Q v C B V V V V C V Z B V V V B B B B V B B V V B B B V B V V c , 0 # # # o # O < L T e q ` ) ) u K u ) [ [ ) [ ) u q ..K L #.X.} f 0 e 0 _ K +.#.} _ _ K q u y @ u | @.f | w.L } 9.$.u 0 e ..' X.' 0 k | | K _ u 0 ) _ y u 7 u { ) r @ y y @ k @ O e $.#._ u @.K 0 0 9.| @.#.u X.| I K f @.#...$.' _ 0 y   @ | y u ) 0 _ _ e 0 K , # _ 0 e f u u K f u 0 0 K ) ) K q ) f K K u % e _ e 0 u _ ' ` f ) e u u u ) ) q e e , # u _ o X u , , q e = 0 k ) ` ' ) e K ) = = _ y y K 0 e 0 k e 7 ) -.0 e K _ u | ` e ) { k 0 # q @.k w u y 7 0 7 0 # 0 q q q 0 y q y 0 0 4 # # @ @ @ o X # 0 0 0 7 = # 7 = 7 = = = w , , 0 0 q y y 0 , e 0 0 0 0 w ",
"u u u e u K K K K K K u u u y q e q q q 0 0 0 y u u u e y y e e y 0 0 7 7 = 0 0 7 , # 0 @ s | H e ) ` { K K u u [ ` [ { { ) e _ K K #.7.| L , t y ..K $.3.} ' ' L q f q = K @.X.f $.| s | 9.K s # _ ....X.y u L | ' _ K q _ @.u ) { { K u r 7 u y y y O 0 ..!.#.u ' @.u 0 :.@.X.-.f ' | ' _ K @.@._ -.' ) K u @ f ..y ` u u | ) 0 K L e _ f e ) ) u K _ ) e 0 u ) ` ) K { ) _ f u # f ) e u ) ) ) u u u u y k ) ) u e e 0 , e K @ # K q 0 u u 0 u ) ` ) _ f u ) u @ u K 0 ) u K u u q r ) =.q q _ ` K ' ) u u K e y @ ) { e 0 q = ) k u K e u u e y q q e y e u e e e e e e y r u u y 0 0 0 0 0 0 q 0 q y q 0 0 e q 0 0 = 0 0 0 0 7 = y 0 y , u =.) u K K q e e e q q f u ! G C V Z V C Z Z C Z V Z Z F F F Z Z Z V Z V V C V V V V V Z n o = @ # # @ #   s | H q u ) ` K u f e ` [ { ) [ ` u e _ q _ 7.X.| s % y q X.g 3.3.} _ _ L q u e @ e K #.K _ 7.f L 3.@.K 0 , ' ' @.) 0 u L | _ _ u 0 _ @.e ^ { { K e r @ y y = y @ O u 9.$.K e #._ 0 0 q.| @.#.e | ' } L K X.X._ -.' ) f u @ = { u K ) 0 _ _ e q ' g q | 0 u ) K e ) ) K y , u ) _ K u ' ) K f u # 0 _ u 0 k ) ) k q u e y y u k K y e q # % e L   @ f 0 = u e 7 q K ) ) K K e k ) # # ) w e K e K e e , 0 ) { 7 e _ _ K _ ) e e K e w @ y @.e 0 7 0 q K u K e e u y 0 0 0 e y 0 e e e e e y e e 0 y u q 0 , = = , = 7 0 0 0 0 0 0 0 w 0 0 % # # , # # = # , ",
"e u u u u u e e u e e u u e e y u e y q q 0 7 0 0 0 q 0 0 7 7 = = # # # # # @ O @ @   7 O s 3.e ^ [ [ { u K f u ` _ ` ) [ ) u ' e _ #.#.| L 0 u e @.f 4.5.| .._ _ s _ y 7 _ #.#.u #.X.f ..7.| f , ) ....@.e u K X.X._ K y ' 7.e ` :.{ ) k 0 8 ^ ^ u y O = ..D.@.y _ @._ y { @.} -.K _ | @.} K @.X.K :._ K K e X e ..u ' k u ' ) 0 f L u _ K u _ ) e u ) ) y 0 u ) ` K ) .._ ) u 0 @ e ) e u ) ) k u e u u u u u k u u u 0 , e L @ , _ e 0 K u e u K ) ) _ ) K K u @ e K q ) u K u e 0 q ) @.0 e _ ) _ .._ k e ) u y # ) u 7 7 y = K u e k e u u u y e y e e y e e e e e u u 0 7 0 q e y u e 0 0 0 7 7 q , 0 = = 0 = = # # = 0 0 y e 0 0 , 7 # e [ ) 0 u ) K u e u u e e 0 r j Z V Z V Z Z Z Z Z V Z Z Z > 2 b Z <.V Z V Z Z V V V V Z N b #     O O O @ O e  .q k ` ` [ K u ) y ) ) ` ) [ ] u g g 0 _ 7.X.} s , e q X._ 9.3.} | _ L u L u # u ) -.f _ -.K L @.| K q , | ' X._ 0 e K @...K u 0 ` @.q ) :.` K u r # u ] e k @ O u -.$.K e ..' K e ,._  .#.u | | X.T K X.X.f -._ K f e O # _ u K _ 0 ) _ e 0 K g q ' e K ' K 0 K ) K 0 7 u K ) f K .._ K f q o # f e q u u k K q u e e u u u k y u q = , s K   # ) e , f f y e K K ) ) ) f u ) # # K y e K u K e y # q ) ) @ e ' K _ | _ k u k u q # e K 7 7 7 0 0 u e u e u e e 0 q 0 0 w 0 e q 0 w e y f w # = , 0 e y e q 0 = = = = 0 # = # # = # # # # # = , 0 0 0 = ",
"= 0 0 q q y e y e e u u e q e e 0 0 7 0 0 7 # # # # 0 0 0 0 7 7 0 0 0 0 0 0 0 7 0 0 7 r = s 4.y ` { ) { ) ) k e K _ ` ` ` u K } < L #.#.| L 0 u e X.u 4.5.| X.' _ u K 0 # K X.#.f #.@.K X.9.| K , _ =.....u k u ` | _ K y ) _ 0 ` { K K k r 0 ] ^ y y O 7 =.F.#.) _ X.@.u ....' #.g _ } ..Y K -.#.f #.) K K y   e ..f ..) u { K 0 e f 0 K u 0 u _ K ) ) K e 0 k ) ` K _ =.' _ ) q   0 K u u u ` { ) e f K ) ) ^ ) u K e , 0 u f # e ..e , K u q K K ) ) K ) u u u @ e K 0 ) u K u u 7 0 ` @.0 e ' ) _ | ) k e u u y 7 ) u 0 0 y # u e e u e e q q 7 q q 0 0 r 7 0 0 y q e e 0 0 0 q w y 0 0 # = 0 = 0 y = 7 # # # = # = # = = , 0 0 7 # @ # @ q ) ) # @ 7 0 # = = 0 0 0 0 r v F Z Z Z F Z F Z F Z F <.v o O O A y.V F Z Z Z Z Z Z C Z Z > = # = # # # = @ g 4.q ] [ ) { ) K ) 0 f K ` ) ) ) y L s 0 | 9. .} f 0 y q | u 3.3.} .._ L e K q @ u K 7.K | 9.K ' 9.X.K q u #.X...' u u k ' | K u q ) ) 7 u @.k K k y # u ` y y @ O ) D.9.L u ..@._ e 9.K | @.u ' _ | I f $.#.f X._ f K e O # ` ) _ ` y ) _ e 0 e e 0 K q 0 K K f K ) K y 7 K K _ K ) =.' _ K u   # k K y u ) { ` u e u K K K u K e f 0 # , s s X q | q , f u q f f K _ K K f u K # # K q u ) u K e y # e o.{ # u ' K _ ' ) u e e y q = u K 7 0 0 = = e e u 0 q 0 0 = 0 0 = 0 0 = = 0 0 0 , e 0 = , 7 0 0 0 , = # # = # = 0 # # # @ # # @ # @ @ = = # , 0 # ",
"K K K K K k k u k u ) k e 0 q y q 0 y u u u u u e y y 0 0 0 0 7 # @ # 7 0 7 = = = # # 0 = L | r o.{ ) ` ) ` K u K _ ` { { k _ | < } #.#.| K 0 u e X.u 3.3.| X.' L u ' r 7 u ) @.K #.X.f X.9.' K 0 { ,.X...K u f ` ' ) K e ) ` 0 ` { y y u 0 0 ] ^ 0 0 O 7 A.T.#.e ) @.{ q ..{ _ #.K _ | | T e #.#.f ..) K ) y O u @.) { K u { f , e K e e u e u f ) _ _ ) u 0 ) _ _ ) _ @.{ ' K e O = ) ) u e ' ..) e f K ) ) k ) u ) e , q g u X y @.e , ) k 0 ) K _ ' ) K e k u @ e ) e ' ) ' u u = 0 { { 0 e ' ) ) ' ) u e y y 0 0 ) u 0 q y # k e 0 q w u e 0 0 q e e e e e f K f k K K ) u u f u u e 0 0 q e y 0 y q e , # # = @ # @ @ @ @ @ @ @ # X = @ 0 ) ..K _ ' _ K u u K u u u y v i.Z F Z Z Z Z Z F V F <.e O # O 1 i.V F Z Z Z Z Z Z Z F F > # @ @ @ # # = @ H  .0 { o.) ) ) ) ) y K ) _ { o.) s | s q | 7.| } H 0 e u | u 3.3.| .._ _ u _ y @ e u #.K ' $.u _ -.X.u 0 0 @.#.X._ K e u ` ' K k y K ) = ) { y w u 0 7 ^ ) 0 0 @ O ^ Y.9.' y ` -.) u -.K | @.f ..' | I u #.$.s | ) f ) u O # _ ) ) ` 0 _ _ 0 , u f 0 e e 0 f f K _ ) K e 7 ) ) _ K ) @.' ' _ u   # u _ e e u @.` u e f K ) ) u ) e ) 0 % < g q @ 0 @.q = K f 0 u f K ' ) K u u u # @ K u f ` K ) e y X y ` ) # u ` K ) ' K e e q 0 0 = K K 7 q y = = u 0 0 0 e q 0 # 0 y w e q q f f u u u f K k e u u e u 0 = 0 0 e 0 7 0 0 e = @ @ # O X X O O O O O O @ ",
"u K f K u u e y y 0 e q 0 0 0 0 7 = 7 # # = # # @ 7 7 = 7 0 0 0 0 0 0 y y q 0 0 y f e K e K u y { ` k { ) { K u ) { { { { ) | } 0 | 7.3.X._ q K u X.f 9.9.@..._ ) u ' 0 = u u | K @.' u X.9.' u , ) :.=.| K u K _ _ f ) y u u 7 ) @.u 0 u r 7 u r 7 7 O 0 q.T.X.u ) =...u #.) _ -._ _ _ | | u @.-.f ' ) K ) y O f @.) ) k u ' u 0 e K u q K u y f s K _ K u 7 k .._ ) ) ' .._ K y   0 K ) u e ` { K e u ) ) _ u ) u _ e = 0 K e   u ' q , ) ) , f u ` X.) f K ) u X e _ f { ` ..u u = 0 { ` 0 y _ K ) ' ) u k u y q 0 ) y r 0 y @ ) _ _ _ _ _ ) ) ) ) ) _ ' ) ` ' _ _ _ _ _ ` K K K u u u q e u u u 0 0 q e 0 0 q y 0 7 y 0 7 7 = = 0 r # = # 7 { ' , e k u u u K K u u q r 2 i.F F F F F F F F C F y.>   O O b y.V F Z F Z Z Z F Z F C > r # # 0 e u f 0 K e 0 { ` u ) ) ) ) y ) _ { { =.` u .., e @.0.#._ f q u s ' g 9.9.X..._ ) q _ q @ u y ..g } #.u | -...e , , X.,.X._ K e f _ _ f ) 0 u e # ) o.u 7 e y @ y y # 7 O O k S.9.| y ' ,._ 0 -.e ..-.f _ L | } q #.$.f ' K u ) q O 0 ` ) f K 0 _ ) 0 , u f 0 y K 0 e u u K ) u e = k ' ) ) K ' ' ' K e X   e _ u e k @.) u q u K ) ) e ) u K 0 # 0 K q @ 0 ' 0 = K ) = e u ) #._ f u K k # X K K K ` ' _ e y X u ;.) = u _ f K _ K u u e 0 0 7 K e 7 0 0 # 7 _ L _ ) _ ) ) K ) ) K _ _ ) ` _ _ L _ _ _ ) K ) e e u e 0 e e k e 7 7 0 q 0 = 0 0 # 0 , 0 = # # # # 0 ",
"q 0 q y 0 q 0 0 0 0 0 0 0 7 y u e 0 0 0 q 0 q y 0 y e 0 q y u y u q 0 e q q 0 0 e K u K u u e y { ` K { ] { ) u _ { { { { ) ..I , X.0.7.X.) 0 ) u #.K 0.9.X..._ K f ' q 4 u y ' f | _ e @.$.K u @ ) =.X.{ K K K K K f ) y u u 0 { o.u 7 y 0 7 y y 0 0 O 0 =.F.@.q _ -.-.e -.` _ -.` | | '  .q X.-.K @.K K _ u O q ` u _ k u | u , u K u 0 K u = u e f _ K e 0 u ..) K f _ .._ f <   # u u u K ' ` K e u K ) ) k ) K ' u 0 e L u @ f _ y 0 ) ) = K K _ | ) K K K ) @ e K u ) ) ..f K = 0 { ) @ e _ K ` ' ) K u u y y 0 ) f u 0 y @ ) K K K k K K K ) K K K K u u u u y y y 0 q q r 0 0 0 0 7 7 0 q e y 0 q y e u u k ) K _ K u q q y q e , 0 = 0 ..' y 0 r 0 0 , 0 q 7 0 # 0 2 F Z F F F F F Z F V F F C o + o A i.V F Z F F F F F F F y.> W = = e e e K 0 e q 0 { _ f ` ` ` { q ) _ { { @.{ K | % f -.C.#.} s q u g | K 0.9.| .._ g u | 0 @ u , _ f L ..w | 9.} f 0 e ..@.| _ K u ) K K u ) 0 u u 7 { o.u = 0 0 @ 8 r 7 r @ O ) Y.9.' q ..-...u q.f X.#.K | L } T q @.$.K ..K K ` u O 0 K u u ) 0 _ ) 0 0 K u w y ' 0 , f q K _ K e = u ..K K u ) { _ u 0 O X e u e u K ' K u 0 e K K ) u ) K _ e = q L q o f _ 0 = ) ) # f f K ..) u u K ) ,   K u K K ` _ e e O u { e O e _ K _ _ K u e u 0 0 = f K e 0 q 7 0 _ f f K K K K _ K K K K u u e u e 0 q 0 0 0 0 0 = # = = # = 7 0 0 0 = 0 0 y e e u K K L K e 0 0 0 0 q ",
"e y e e y u u u u u u K u y e e y 0 0 0 0 0 0 0 0 0 y 0 q 0 y 0 = # = 0 0 = 7 7 0 e , e 0 e u k ,...K ) K { ) k _ { { { { ) #.L , ..9.7.| K 7 ) K #.L 4.5.X.X._ s u _ q q f e | K | _ f #.#._ e , _ -.....f ) ) K K K ) e u u q ` ` k r u y 7 y u q 0 O 0 ..F.#.K ) =.X.u #.` K | K | X.} T u ..#.K @.) ` ' q 7 e u e _ k u ..u , u u u y K u @ e 0 e ) ) u q q { K K f _ ..' K 0 O 0 f k u u u K K u u f K ) u k ) ) u , s } e # u K y 0 K f # ) u K { ) K f K ) # y K u K K @.u K = 0 { f # e ) u ' k 0 u K u u u 0 ` { u 7 y = u q = # 7 , 0 7 0 , , = = = 7 , 0 0 , 0 = , 0 0 0 0 e e e u e e u u u u u u u e y e e e e e e u K u u e u , u -.` 0 e u e y 0 w e 0 e e r v <.Z F F F F F Z F V F F A O O O v <.V F Z F F F F F F F Z > 1 @ @ < , # 0 , q u e @.@.) ) K ) { u ) ) { { o.{ _  .# 0 #.0.X.} e 0 u K X.L 0.3.| .._ u e ' y # ) 0 ' f _ X.q ' 9._ K 0 0 ' X...) K K K K K g K 0 u u 0 ` ) k 0 y y @ 8 y 0 0 @ O ` ,.q.K q @.X.' f -.u L ' K X.} | T q ..#.K @.K ) ' u @ y u e u ) , _ ) 0 0 u u y 0 ) # @ e , u _ K e 0 y ..f u u _ ..' f 0 O   u K u u u f f u e e u K k q ) K f 0 , s I q o u u q = K ) # K f f ' ) u K K ` 0 X K u K u ` ` u u O u @.e o e K u ' u , u f u e u 0 K | K 7 0 7 = q = # = = = # # # = # # # # # 7 = = = # # # = 0 = 0 q y y e q y u u u u u u e e 0 e u q e e y u f k e ",
"q y q q q q 0 0 w 0 e u , = = 0 y u u e 0 0 0 7 0 0 , = = = 7 = = = # 0 0 y e y , 0 # 0 = e K K =.@.) { k ` ) k _ ` { { { ) $.K , ' -.#.| L = u K X.g $.$.| ..) u u ` y q u e | K @.| L 3.3.' K e ` =.@.#.u ' _ ) K ' _ y u y 0 ^ k u 0 u y 7 y y 0 0 O 0 ..F.#.K ) ,...u =._ u ..| -.#. . .K ' #.' X.K ' ' 0 7 e u u { u u { u 0 u u K y u k 0 u 0 0 ) _ f y y { ) f u _ { { K q X = u K k u u e u u u K K ) u ) ) K e , u ' u # k ) y 7 K f o ) e ) ..) ) f ) ) @ u ) u K ) ..e _ 7 y =.K , u ` e | u 0 u K y u _ 0 ..{ u 7 0 7 u y q q q 0 0 = = 0 = # # 0 y e e u u e u u ) k u u u e y k e y y 0 0 0 r 0 0 7 = = = # 0 0 0 0 e y y y e 0 u @._ e 0 e 0 0 0 0 0 , 0 , 2 j F Z F F F F F Z F V F F z @ @ # 1 i.V F Z F F F F F F F Z > - 0 # = # o # # e f f -.@.) ) K ) ` u ) ) ` ` { ) ' } # q X.8.X.} K 0 u K | K 4.@.| | _ u e ' q # f , ' f | @.g | 0.} L 0 0 ' X.#.' f _ ) K K | K 0 u 0 0 k k e 7 y y # r y 7 0 O O { ,.9...0 @.-._ f -.u K ..' -.X.| | f ' @._ ..K _ ' u # e e u ) K 0 _ K 0 q f f e 0 ) y 0 e # q _ K u 0 y { K u u _ ' ' K 0 O O q u u e u e u u u u f K K e ) ) u 0 , f } w o K K 0 # f f X K u K .._ K K u ) , # _ e K e ' _ e K O ) @.K @ K ) e | e = u K y e _ q K @.u 7 0 7 7 y 0 0 0 , # # # # # @ # 7 0 0 y e u u e e K K u y u u y u u y q y 0 0 , 0 0 = = # # # @ = = = , 0 e y ",
"7 0 q q q 0 y u e e e u u e q e q 0 , @ # # q = q 0 7 = # # # # # # # = = = 7 7 # = @ # @ q K u ' ' ) { ) { ) k ` { { ` { ` @.e 0 | #.#.| L @ u ) #.L $.$.| ..K u u ' 0 7 u u ' _ #.' L #.$.K K 0 ) =.#.#.e ' ) K K ' K 0 u 0 K ) k k 0 k y 7 y 0 0 0 O 0 @.F.$.K K ,.@.f ..) u @...9.9.#. .K _ X._ ..) | ` = O 7 K e ` k f ..K 0 q u ) e u u 0 u 0 = f _ ) u u K ) K u _ { ' K q @ = f K u e u y e u u K K ) k K K e e 0 s } f < K K y 0 K f X f e _ ..) ) u u K # K ) u ` _ ..e ` 0 u @.K 0 u ` e @.@.K f _ u k u 0 _ ' y = 0 = u e q e u y e e e u y 0 0 e e e e u u e u u K u e e 0 0 0 e y q q 0 0 q q 0 0 7 0 0 0 7 0 0 7 = 7 # = # @   u 9.' u 0 0 # # 0 , 0 , 0 = e v Z Z F F F F F Z F V F <.> O @ O l u.B F Z F F F F F F F V > 9 # X X X O X @ q f e _ ' K { ) ) ` e ` ' ..` ` ) | H = e X.7.X.} K # k _ X.L 5.@.| { g u e ' e @ u 0 ' K ....s | 4...H e q ` @.-.` e ' ) f K ' u = u = K ) u u 7 u u # 0 0 = q O O ..,.9...0 @.-._ f @.u _ -...q.$.+. .f ' X._ | ) ' ' =   @ u e ) ) e _ _ u = e f f , u y q e @ 0 K ) f u u K K f u _ ' ' f q   @ q K u y u 0 q e u u K K K u K K e 0 % g L e % K u y = f u O e q K | ) K K e K , 0 ' q ) K | K e _ X ) { K # K ) e #...f u ` u u u # u X.u = 7 = 7 e q e e y q q q e 0 7 = 0 e w y e u e e u K k e q 0 0 7 0 q q 0 0 = 0 0 q 0 = = 7 = 7 = 7 7 = = = = # ",
"u f K K ) K ) _ ) _ ) _ ` ) K K K ) u y u u K e y y e e 7 = = # @ @ # @ # # @ 4 # # @ 7 7 e K % { { K ` ) ` ) e ) { { { { { ..u 0 K 7.9.X.K @ u ` X.g $.#.' ..f u f X.0 # u e | _ @._ I 3.#.K ' f ) @.-.-.u ` ' K ) ..K y u # K ) u k 7 u k 0 u y y y O # -.T.-._ ) -.X.) ' ) f X.| $.$.X.X.u ) X.' | K { ..0 X = K y ' K K .._ y q e _ e u u q K 0 # u _ K K u y ) ) K ) { | f q @ # u ) u y e q y e y K ) ) k u ) f u 0 f | f , u e q 0 ) u X u u _ X.) K u u u @ K K u { K ' e ' 0 u | u # u _ 0 | $.| u { K ) u 0 | ) y = 0 7 u 0 , y q q y y q e e e e u e e 0 0 , 0 0 0 q 0 0 0 0 0 0 q 0 7 0 = = = 7 # # # # @ @ @ @ @ @ @ # @ # @ # O q 0.| y f f e e u u f u f u ) J S Z F F F F F Z F V F F : O @ O 2 y.V F Z F F F F F F F V > # O X @ X @ = # q f , _ { f ) ) ) ) 0 ) ` { { ` ` ..K # f X.9.#.} g @ e ' | K 4.@.' ..g u e ' 0 @ u 0 ' _ X.| H @.9._ L H u ..#.-._ 0 X.K f ) ..f 0 u @ ) ) u u # u k 7 y r 7 k O O ' -.9.#.0 ..=.{ ) | e ) #.' -.#.X.| q L X.' { f ' =.,   @ e q ) _ u ' ' u , 0 u K 0 u q e u # # f _ f K e 0 ) f K ) { { f q X X 0 ) u y y q 0 0 e y K K ) u u K u e , K Y u # u 0 0 , K u O e e K @.) K u e ) # 0 ' q _ ) ` K u K @ K ) 7 X K ) 0 X.$._ e { f K u = _ ' y # 7 7 = 0 , 0 0 0 0 0 0 q e y q e e q 0 0 0 , 7 0 0 y 0 0 0 0 7 0 0 = = # # # # # @ @ @ @   @ O O O O O O O O ",
"` ) ) ) ) K K ) f f f f k u u u q y q 0 0 q e q = = 0 q 0 q y q q 0 e 0 0 7 = 7 0 7 # 7 = u H , ....K ` ) { ) e ) { { { { { ) w e _ 7.8.@.L X k ' #.u +.} L @._ u ) #.q 0 K u | K #.| } 5.$._  ._ _ X.@.$.e ' ' ) _ @._ e y @ u ) e u # u u # y y y y O # -.F...K ) @...) _ u u { { -.#.| X.e K #.} ` K ` @.0 @ = K e { ) e K _ u e e ` u e y q _ e 7 e _ K K K 0 ) ) K ) ) ' K q o # e ) k y q 0 0 u e K _ ` K u ) ) f 0 K | K 0 e y y 0 K u @ f K _ ' u K u k k O q K u _ u _ e ' 0 K ' 7 @ u ' q | #._ e @.) ' u = _ ) u 7 0 7 u 0 0 0 7 e y 0 0 e y q 0 0 0 0 7 # # 0 # # = # = 0 0 7 0 y u e y e y y y y 0 0 0 7 7 7 7 7 7 = 0 = 0 # q = g w.-.u K ` _ ' _ ) ) ) _ u Q G S Z F F F F F Z F V F F : O @ O 2 y.B F Z F F F F F F F B ; . @ # # @ @ # # q K % ....K ) ) ` _ 0 K ` { { { ` ' e 0 f | 0.3.| L @ u ' | f #.' L @.L u K | 0 # f 0 ' K | @.H #.9._ ' } K ' | -.' 0 @.) K _ ..K y y X u ) y y # y u @ y y 0 u O O _ #.D.' 0 | ..` ) ` y f ..' -.X.| ..0 L #.' ' K _ =.w @ @ u q _ ` 0 u ) f q 0 f ) q u 0 u K 0 # u ' u K u 0 ) K K ) ) ' _ e @ X e _ u e 0 0 = 0 e e ) ) ) u u _ K u , L } e # e 0 0 = K u O u u ) ..u K e e ) = 0 K q ) K K K f ) = ' K = @ u ) 0 ..@.L e .._ ' k # K _ e , 7 7 = 0 # = = w q 0 0 0 y 0 0 q 0 = = # @ # @ X   # o # # # # = y y q 0 q 0 0 0 0 7 # = # # # # # # # # # # ",
"y q 0 0 0 0 0 0 0 = = # # # = # = 0 q 0 0 0 e u e e u e u u u K ) K K K e e e e y e 0 0 = s K q ....) ` ` =.) e ` { { { ` ` g 0 e K #.4.4.| % u ..$.u X.| | :.' f K X.y 0 K u | L 7.#.} 0.$.L  .L ' | ' 9.u _ f K ) _ ) K k @ u { k u 7 u u # u y y y O y @.q.@.K K | _ _ _ u u @.' -.9.| #.u K -.' ' K _ ..q @ 7 K y { ) q u _ f u u ..) e q 0 ' f 0 q ' K K ) y ) ) ) ) K ' u q # @ e ` k u e 0 0 e u K ` ` ^ u { K u q K | K 0 u y q 0 K u X u K _ { u ) k k k   q f u _ f _ u ' e _ ..= # f ..k | #._ 0 ` u ) ) 0 _ K u 0 0 # y # # # @ # # @ # # @ # = # @ # @ @ = y 7 = e u K ) k u u e e y y k u e y e e u u y y u u u k u K u K w u , _ -._ = , e w u q e e 0 0 = q v C V V y.<.y.y.F y.B C N : @ O # 1 D F Z F y.y.y.y.y.V Z B > r 0 , = , # = # u g 0 ....K ) ` { { 0 K ` { ` ` ) L , 0 u  .3.4.3.s # u X.X.u  .} ' -.' u K X.q # ) q ' f X.3.H 3.0.} } } K ..I #.X.q _ e K ) _ K u u   f ` k e = y u @ 0 y 0 y O O ) 9.w.' 0 ' ' ` ) _ 0 _ ..' 9.#. .X.0 K #._ ` f ) X.e O @ f q _ ` w w K K e q K _ e q # u ' y @ u | f u k w ) K ) ) K ' u q @ O q { f u q 0 # 0 u e ) ) ) u K _ f q q I } u = f 0 0 , K u O e K ) ..e ) u u ) @   f e K f K f K _ 0 #.K @ 0 K ' e | @.L 0 _ u ) K 0 ) ) u 0 7 = # 7 # @ @ # # @ @ # @ # # @ O @ @ @ @ q q = 0 u e k K u u u e e e y K u e e y e e y y y e y y e e e e e ",
"# = @ # = 0 0 y e e e y e u u e u u u u k u e u e e e e e y 0 r e 0 q e y u K ) u f u e , s f u { ` K ` { { ) u { { [ o.{ | u 0 u | 7.0.0.K # u @.3.g 3.$...#._ f _ ..y 0 K y ' ' q.3.} D.#.L  .u ' } L @.u K u ) _ ) u y ) # u { { ^ 0 y y = u u y r   e { q.9._ u { ) ....y q #._ -.7.| #.e K -._ ) K _ _ 0 @ = K q { ` u u ) f u e ` K e 0 0 ` K 0 , u u k ) e u ) { ) K _ u = # # u ` k k u e 0 e K ) _ ` k u .._ u q f } f 0 f q e y K u O e f _ { u ) u k k   0 K e K e K K ' u ' ..# @ u ..) ' #._ = _ 0 f ) y ' k u 0 u = y = 7 = # 7 0 0 0 0 8 0 0 7 0 7 = # # @ X @ 0 0 0 0 0 0 # # # # # = # = # # = # # @ @ @ 0 0 0 0 q 0 e 0 u w _ -.y @ @ X O X o X @ @ # # 0 h c z z z z z z z z l z c > - : - l m m z l z z z z z z z c ; r u q y e , , = s s q ' ` f ) [ { ` y ` { { { { ` _ = 0 K #.3.0.X.K # y #.X.K 4.#...@._ f L ..q 7 ) 0 _ L -.9.Y 9.9.I | H f | L | ' q _ u ) ) ) y e f @ K ` _ k 7 y u @ y k 0 y O O K -.F.X.e _ _ _ { _ # _ X._ q.#.| | < K $._ K K _ _ 0 O # u 0 _ { u e f K u 0 K _ u 0 = e ` u # 0 f e K K q u ) ` ) f _ u = @   0 K f u e e = 0 u f ) ) ) e ) ..K q 0 L _ e # u # y 0 u u   0 u K X.e ) u u ) 0 X f e f f u f K ) 0 @.K X # K ..u ..#.L = _ 0 f ) q ) K u 0 e 7 @ # @ @ O @ 7 4 7 4 # # = # # = @ O   O     # q 0 0 0 = # # @ @ @ @ = # # # # # # # # X X = 7 0 0 0 0 e ",
"e e 0 7 0 e e e u u u u u K k e y y 0 y u e y q 0 0 0 y 0 7 7 7 7 7 7 0 0 0 0 e q e 0 e = K K u { { k ` { { ] e { o.{ { ` ' y , e | 7.0.0.L # y ' 3.g 3.$...#.| K _ X.y 0 K y ) ' 9.X.) w.@.}  .e _ } ' -.K _ K K ` _ u q K # q ` :.) 8 y u 7 u y u y O u ` -.q.) K | K ....e 0 #.| #.#._ 7.u f $.} K ) ` { e @ # u q ' { K e u f u K ` ) y 0 = ' _ 0 , u f u ) u 0 f _ _ ) ) K e # # u _ u f f e 0 e u ) ) ` k u ..' f e f ' f q _ q e e ) u X u K _ ..u y e K K @ e K u _ q u _ | u _ _ = @ e ..' ' ' _ 0 ` r u k y ' u y 0 ) y u y y y y u u u u u u u u y u u q y e 0 0 = # # # # @ = , # @ @ # @ # @ @ @ @ @ @ @ @ = u ) K K K u 0 # = = e k y q 0 q 0 y y 7 # = q 0 e i i > > > > > > > i > > i l l l i i i > i > > > > > > > > i i @ 0 0 0 0 , 0 = K f u ..` k ` { { ` y ) o.o.{ { _ L o % f X.4.0.#.K = y #.X.g 4.#...#._ f _ X.q 7 k , K K 7.9.K 9.9._ @.f f ' _ ..| u _ e ) ' ) w 0 K @ y ..:.) 7 r y # y y 0 u O @ ) ..F._ e _ _ _ @._ @ K #.' 9.X.| #.q ) #._ f ) _ ..e O @ e , _ ..K y u K u e K _ u 0 # y ' u # % u u u k e 0 f _ K K _ f e X   0 K u u u u # 0 e k ) ) ) y ) | K u u g _ e q _ 0 e e K u O q K ) @.e e e u ) 0 # f u K f q K ' ) e @.g X # K X._ ' ' ) 7 ) 0 u k 0 _ u y # k y 0 y q y y u u u u u u u u e u u y y y 0 = # @ @ X @ @ @ # @ X O X     O O O O O O O O O @ e k u e u e 0 ",
"q e e y e e e e y e y e e u u e u y 0 0 y 0 0 0 7 0 0 0 7 7 0 7 7 = = 7 = = # = # = X @ O a u K .._ u [ { { u 0 { =.{ [ ` | u # q | 7.4.4.L # y ) 0._ #.3.X.X.| K _ | 0 7 k q K _ q.X.K 0.X.| } 0 0 K ' $.K ' _ K ' ' K y K = 0 ..,.) 0 u u 0 u y ^ ^ @ u ) @.9.` ) ..u ` ..y 0 @...#.#.L 9.f f #.' K ' _ ' q @ # e q ' _ K u f K k ) _ ) e = , _ ' e 0 f _ f ) K 0 u ` ' ) K u # @   e ) f u K e 0 e e ) _ ..) e { ' f u L | s 0 K q 0 e ) u @ e K ) ..u 0 e K ) # e K f { f K L ' K .._ 0 # K =.@._ K K e ' e u k 0 ..` u q ) 0 r 7 7 7 @ @ O O O @ O @ @ O   O O @ @ # 7 # @ @ @ @ O   @ 0 0 < q 0 0 O O O O # X # # 0 k ) ) k K u 7 O # # # 9 0 0 , 0 0 0 q q q , q 0 2 l l l l l l l i l l l l l l l l l l l l l l l l l l l l l l l ;   # @ X     , d e f ..` u ) { { ) 0 ` @.{ { { _ L @ # K #.7.4.#.f # u @.4.L 4.#.| X.} f _ | 0 # K 0 f ) -.=.u 5.3.I $.u 0 e L X...u X.u _ ' _ u y f @ 0 X.q.) 7 y u 0 y y u ` @ 7 ) ' 9.X.u _ ) u @._ # u #.' -.| } $.e K X._ K ' L ' 0   @ e # ) ' K e u K u u ) ) u , X q X.u 0 0 K ) u _ K , u ' _ K K e 0 @   0 _ f u f f # q 0 u ) ` ' q K .._ s u I } q < ) 7 0 0 K u   q K K @.u 0 q u ) @ , u e ) ) u K _ _ K } u # # K =..._ K K q _ y e u 0 ' _ u 0 ) e # 7 = # @ @ X X @ @ @ X @     X   X @ @ # # @ O O O       @ , # , , , @             X X # u ) ) u K K 0 ",
"y e u y e e y 0 7 # # # # 7 = = , # # 7 y 0 0 0 0 0 0 0 = = # @ @ # @ @ @ @ @ @ @ # # 5 @ < u ) -.` ) o.{ { u q =.=.{ o.{ ' 0 = u | 3.4.7.#.# y @.J.| #.3.@.X.} f K ' r # k q K ` ,._ K 0.| .._ , 0 K | 9._ ' ) f .._ K e ) 0 0 _ Y.) y u y 7 y q y r O e ' @.9...' @.u ) @.e 0 ' X.#.-.H 9.K f @._ K | _ _ e @ # y e { ' K u u K u ) K ) e 7 % _ _ q # 0 f u K u = q _ _ K u u = # @ e K u u _ e y u u k ) ' K e ) L u q L @.u 0 _ q q u K u # u f ) { e = e ) ) , K _ u ..u u K _ ) ..K 0 # u ..#._ u K e _ r e u = | ` k = ) 0 y 0 = 7 7 0 0 q 0 0 9 r 0 7 = = 7 7 7 7 0 = 7 7 7 7 0 q 0 q q 0 y e u e e u f f f K K K K K K k y 0 @ O , = 0 u y # 0 e 0 0 e e e q e 2 z l z z z z z z z z z z z z z z z z z z z z z z z z z z z z z m i . O   o   @   q 0 K =._ u { { { ) 0 { =.{ { { ' s o X K 3.8.3.3.q o k X.0._ 3.#.@.| } s K ' 7 @ k 0 u _ -.@.e 7.@.L ..e = y K @.#.f X.u ) ' ) u e K # 0 { S.' e y r # y y 0 y O @ K { -.#.) @.) q @.` # u ..' -..._ $.u K .._ K | ) _ e   @ 0 e ` { K u e f f u K ) k , X q ..K 0 % 0 f e K e @ e _ _ K u u = X   0 K u u K K , u w u K ) ` e u ' K q e T | 0 , _ 0 0 e f u @ q u K | K = 0 u { 0 q ) u ) K e f ) K _ _ u = # u -.=._ f K e ` r e u = K ..K = k y # 7 = @ @ # # # # 4 # 7 7 # # @ @ @ @ # 7 # @ # # 7 0 = = # 0 , 0 0 u e 0 0 0 y q e u u f u k K u e y @ ",
"= 7 0 = 7 # = 7 = # y y 7 0 y q e e y e u u u e k u y e e y q 0 0 0 0 0 0 0 0 0 = 0 0 e 0 , u ` ,.{ ` =.{ ;.) q { =.{ =.{ K 0 0 , _ 3.3.7.3.@ 0 ) $.' #.3.#.| L u K ..0 = K u f _ -.) K D.X.| I q 7 u _ @.f } _ u ' _ ) e K y 0 ..Y.=.u y 0 7 k y q 0 O y { @.9.) ) ..u K ..e 7 ) -.-.#.K $._ f ..K u ' f f e @ # , q { ..K e e f e u K _ u 0 7 { ` u 0 e f u u e 0 q K ` K f u = # @ e K u e K e y e q k ) _ u e _ K 0 q I  .q , K y q k ) u # u f ) ' e 0 e K ) # u ) u | u u K ' { ..K @ @ f @...) w u w ) 7 e u # _ u y = K 0 u 0 7 y e y y u y y q 0 # 0 u u e K f u u e u u f u u u e e u u K k k u k e K K K K K K u k ) ) y 7 @ @ 0 , f =.^ @ = = @ # = 7 = = 7 o - - o 1 2 1 - , , , q 1 , 2 2 e e q q 2 1 2 1 1 , = = = = , = 1 : X # @ , # , # , e ) ,.{ K =.` =.) 0 { =.[ { { _ u 0 o L  .4.3.#.L   e _ 5._ 3.#.@.| L u ) ..0 @ u q e _ @.| u 9.$._ | K o q K ..| u X.u K { _ u e K = 0 ` Y.@.y y 0 = u y 0 0 O @ _ @.-.X.K ..L 0 .._ = 0 X.X.9.| L $.f f | g u _ u K y X @ # 0 K ..K e 0 u u y u ) K q # e ..K 0 , 0 f q u 0 # 0 K _ u u u # @ X 0 K y y u f , f 0 e ) ) K q u _ u , e T  .< , L , w u K u @ y f K ' e 0 0 u _ 0 0 ) u ) K w s ) { .._ e X @ f -...K y u q K # y u X ) K e # u y 7 0 = 0 e y y y y y 0 0 # = q q u e u e e 0 0 e e u e e e 0 e e e u u f f k e K K L L K K f u K ) u 7 O ",
"7 # @ @ # @ # @ O   = # @ 0 u e u u e y q 0 0 0 e e y q 0 e y y q 0 y u u k K K u u 0 u 0 , u { q...) { ] =.K q { o.{ { ` K e e q } 3.3.3.X.@ e ) | f  .#.#.} L e ' X.q q { ' K { ,.' ) 9.#.| L # 7 K ) @.f | ' u { ' ) u ) e u ) -.@.y u y 7 u 0 0 9 O y _ @.-.) ) ..f u @.u 7 ' 9.$.#.f | | _ .._ K ' e e e @ # = 0 ) X.) 0 y K u u ) ` u 0 , K _ f u e K f K u q e K { K K u # # @ q f u K u 0 0 q y ) ` ) y e ' u , e K _ q # u 0 0 K K f 0 e K K ) u u u ) _ # u K e ' u u f _ ' ..K X @ e #.' ` K ) e ) 7 u u 7 ..) u # u = u # # 7 0 7 0 q q y y K u _ K ` ' | { ) K u u u K K K ) ) _ ' ' { ) K e u q q y y u k k u e y 0 0 # @ @ 0 = u [ u X X @ O @ O O @ @ O @ O     @ @ O @ y y u Q y y q 0 0 9 0 u y r r 0 0 r 0 0 r y y y e e y e 0 0 < 0 = # e { q.{ K { ) =.) 0 { @.{ { ` K q u # L X.3.2.#.f @ y _ | g #.#.@.} g < ' | 0 7 ) ) u _ -...u 9.7.| } u O 0 u | _ f @.f f ' ' K u K 0 e K ,.@.y u y # y 0 7 7   0 K | 7.| u ' _ 0 _ _ = u #.-.-.| g @.L ) | L f ' q q y   X # = ) @.) e 0 u u e K ` K 0 # e ' K e q e K e K e q q K _ u u u # X   # K u f u q # y 0 u ) ) K = K ) q , e I } # # K # 0 f K u % e K e _ u y u K ' , 0 K u K K w s f _ ..` e   X K @._ K u K e ) 7 e u # f ) e = e 0 = # @ # # # # 7 = = 0 0 f u _ ) ) _ ' _ f u e u u K u K K K ) ) _ ` K u e e 0 y y y e e u e e y 0 0 = O ",
"^ ^ u u u u u e 0 0 7 = # 4 = # = # # # @ @ @ @ @ @ # # # # # # @ O , 0 y 0 0 q 0 w w f e 0 _ ..q.{ ) ;.[ o.k 7 _ ..{ { ` K f e 0 _ 3.3.4. .@ = u X.K @.3.#.| } u _ ' 0 q | @.u ' 9.' _ 7.$.X.I e 0 e _ #.K | X.u _ ..) e u = k ) ..-.0 y y 7 k 0 0 0 O 0 _ ..$._ ' @.K K @.) 0 ) q.X.@.f } X.' .._ L _ 0 0 k = 7 0 0 _ X.) e 0 K u e ) { u 0 # K ) f e 0 f u ) K q K ) ) u ) k 0 @ @ 0 u k _ e 0 0 q e ) ` ` e u { u 0 0 0 f u 0 ` y q K K u w q ) u ) u u u _ ' 7 u K e ` e u e K ) { u @ # u $...L u e y u 0 u u 7 X.u y 7 y = u u y f f ) ) _ ' ..@...@.-.-.@...@.=.{ K u u e u e y q q q e e y 0 7 = 7 0 0 0 y f e 0 7 , 7 # # @ # @ 0 # 0 ) y @ r u e u e y y y q y 0 # # #     X # # # # @ @   O O O X @ @ X X o o o X   O @ # # # = , 0 , w q e , , ' ..S.{ k =.[ { ) @ ) { { { ` K e u , _ X.3.2.4.s @ 0 K | g #.#.X.} I u ' ' 0 0 ' #.f _ -.@.f #.$.X.} f 7 y K X.' f @.L f _ ..u e u = ) ) @.#.0 y y 7 u q 7 0   0 ) ` #.' K ..' e ' ' # e X.-.@...u | | ' X._ K _ 7 0 u # @ 0 = K @.) e # u f q K ` K q # y ' K u q 0 K u K e e f K ) e K u 7 O   0 u u ) u 0 , 0 0 u ` ) ) 0 ) _ y , 0 q g , , K # q f K e 0 0 ) e ) u e u K ` 0 0 K e K K 0 u e K ' _ e O @ f @.| _ u u y u 7 u u = K K e 0 q = 0 e 0 e u K K _ _ ' X.| ..-.:.#.#.#.=...K f u e u u e e e e u u e u q 0 = 7 0 0 7 0 e e y 0 0 # X X @ O ",
"# = # = # # 4 = = 0 4 7 # # # @ @ @ @ # , # = , # # O O O O O O O @ e ) ) K K K 0 # @ 0 = , ) ..,.` ) =.[ { u 0 ` @.=.=.o.) f u g I #.#.3.| @ # u #.| #.#.#.| | f X._ q q ..@.e ' q.{ K -.$.X.I 0 e y _ #.f ..@.k { { _ u u , ) ) ` @.r u u 0 ) y 0 7 O y ) { #._ @.#.K ) X.K 7 k F.' X.L _ X.L ' K K _ 0 y K # # 0 q ) -._ u e ) e q ) ` u 0 # f ) f 0 = e K ' K q K _ K u ) ) 0 @ 0 0 u K _ q e e 0 e ) ` { ) u _ u 0 0 0 u q 0 ' y 0 f u u e 0 ) u ) u e u _ K @ q K e ..k u e K ` ` K 7 # q $.X.K r 7 7 u 0 u y 4 ] y u 0 y = ) _ f { ..@.9.:..._ ) u u e e y e K u u u u K u u y e y y 0 , , 7 @ O # # = = = # , # @ @ @ = # # = = # 0 = 0 -.K @ # # @ 7 7 # 7 = # 0 0 , 0 0 7 7 @ @ X @   O @ # # o @ # o @ O O O O O O O   0 K K u u u 0 # # # , @ 0 ) | ,._ k =.[ [ k # ) { o.{ { ` k e q s  .3.+.2.L @ , K @.} #.+.#.| _ f X.K 0 0 ' @.u _ 9.@.f #.$.@.| u 0 = e | ' u @._ K ' { f e e # ` k ....0 u y 7 k y 7 7   @ K ' @.' _ @.' u ' ` # q ' -._ ..s } | K | K K _ = q f @ o 0 , ) =.' f 0 u u , K ' ) q # 0 ) f u , , u f ' u q K ) K u ) ) 7 O = , e u L e , w 0 0 f ) ) ) e K ) y 7 = 0 f 0 q ` , 0 f u e y , K e ) u e e K _ # % f e K L 0 e u K { ` w @ # f #...u 7 # 7 e 0 u y # ) e y = 0 = y _ f ' ....9.9.@.{ _ f u u u e u K ) u u u u e e e 0 0 0 7 # = # # O O @ @ = # 7 = , = @ O @ # @ @ @ @ ",
"4 7 # 7 7 # @ # @ @ # 7 # # # @ # # # # 0 0 0 e e q @ # @ @ q q = , e K ) u u k 0 @ @ = # = e ) -.{ ) =.) { K e { { { =.@.) u ) X.} #.2.3.} @ 0 K -.#.3.$.#.| _ u ' ) y e ..#.K _ -.' K 9.9.#._ 0 u 0 K #.u ' _ 0 ` { { K f e ) u u { 0 k u 7 u 9 0 7 = u ) ` X.f ..#._ K ..) y ) -.' @.' _ #.' @.K u ) 0 q f # # , 0 K :._ e u _ u y ) ) u 0 # u ) K e = 0 u ' K , f | ) u ) K 0 O , , f ' _ u u u q u ) ` { ) u K u 0 0 = u u e ..y 0 K u u u q u u _ K e u ) f # e f u ..u u u _ ` ) u 7 @ K ' ..L u r 0 k y r 7 # u 7 u 0 0 = ) K % q q u ) K f k ) _ ' ' | ' _ ' _ _ _ u y 0 = = = = 4 # # # 7 # @ @ # @ # @ @ @ @ @ # # # # = 0 y 0 0 # u @.) # O X @ @ @ O @ @ O O O   O O @ @ @ O O O   O O   = # , , , @ @     @ # = # , 0 K ) u u K 0 O O X # O % e _ -.` k @.) ` K q { { ..@.=.` u s } } | 2.2.2.L   e _ 9.+.9.#.@.| _ u ' K 0 q X.#.s K -...f #.3.3.I q e w y ..' e X.e k { ..) u f 0 ) q ) { 0 u y 7 y 7 7 7 @ 0 ) ) .._ _ :.| K .._ # 7 ` 9.L @.K | X._ | u e K # 0 u @ X , # K -.' u 0 K f = K ) K e = = ) K u 0 = 0 f _ u = K ` ) e K ) 0 O = , e ) _ u 0 u 0 q K ) ` _ u u f 0 7 = 0 K < u ' = 0 f u u u < f e _ f u e ) ) # , f e _ _ 0 e f K ` K u @ @ u @.| K y 7 7 u r 0 = @ u 7 y 0 0 7 y K 0 u u K ) ) K f K f f K _ K f K K f K k e q 0 , = , 7 = = # @ @ O   @ @ O O O     O O O X @ # # = 0 ",
"y y q q = 0 0 e u e y e 0 0 y y y y u y q y y u u K u K u L K K _ _ ) K K ) u 0 # @ # 0 7 0 0 u { ' ) o.{ [ k u =.@.@.{ { ) e ) 3.} #.3.4.} # y u #.| | #.9.X._ f ' ) q 0 ` #.K ' ,.` L 3.5.$._ = 0 0 K #.e ' K 0 K ' _ K K u ) u u ` 0 u e 0 ~ 0 0 7 7 u u ` #.f { X._ K ' u @ f 9.' X.| _ X.L ..K q K r q u # @ # 7 u =.' u f _ u q ` K u y = K ) K u # 0 u ' K = u _ ) K ) ) q O # 4 f ) _ f u K q u _ ` ` _ u K u q y 7 e g 0 ) 7 0 K u u e 0 f u ) K e e K e # u f K _ e u K ) ` ) u 0   e _ ..=.) y e ) q 0 0 7 ) u u q q # K ) f ' { { ) u u u K ) K k u u y 0 y u u y 7 # @ # 7 = = # # # = 7 4 7 0 0 0 y y 0 0 0 e y 0 7 = 0 0 # # @ ) -.u 7 0 0 0 0 0 0 0 = = 7 7 0 0 7 0 0 = 7 7 0 0 0 q , 0 0 0 y u u e e u f f f K f f K K u u r # O @ # 7 @ % 0 u ..{ ) o.{ { K e @.....{ o._ u u X.| | 2.4.2.u O 0 _ 3.| @.#.$.| K u _ K 0 8 ) #.K _ #.' u X.5.9.} , 0 0 y | _ q X., 0 ) ' ) K ) e _ q k { = u y 7 u 7 7 7 # e k K @.K K @.' u _ _ 0 # ) 9.L $.L } ..L ..u q ) 7 0 u @ O # # ) @.' u q ) K # K ) u y = , ) K K 0 = 0 f _ e # f _ ) f K K 0 O @ # u ) _ f 0 f e q K _ ` ` K e f q , , = g q e _ = 0 K u e e < f q ) K e 0 f u # 0 u u _ K q u K ) ` u y # X q ..' ..k 0 y u 0 7 # @ k y u y 0 = q f e K K ) K e u u ) ) _ _ L u _ ) k f k u , @ O   X X X O O O @ # @ @ # # # 7 0 = = = # 0 , , # # = 0 ",
"0 0 0 e K K u ) ' _ f K u u K K K u K k K K ) ) K K u u y k K K f u K u k ^ ^ 8 @ @ = q , , e u { { ` [ [ { u e ` { ..` { ) u K 4.| X.2.4.| # u _ @.| _ #.4.| L L ..K y y _ $.K ' ,._ K X.5.3.L 0 7 y K X.0 K e q ) ' ) u K u ) u y ) 0 u e 7 ^ 0 q 0 7 u ) @.,.K ' X._ K ..` 7 e q.' #...f @.L ..K 0 f y q u @ @ # 0 u -...K u | u y ' K u y # u K u u # 0 u ' ) 7 q K ) { ' ) q O @ 7 u ) ' u e K q u ` ' ` ) u ) u 0 q 7 f L q ) 0 # K u u e q ) K _ K q y K u 7 u f K f 0 f f ) ` ) K 0 @ u _ #.:.) y K ) y k u 7 ` ) y 0 q 7 K ) f K e y u q q 0 y 0 7 7 # = # @ O @ @ 7 y e 0 0 e e y y e y 0 0 0 e e e u u u u u e e y q 7 7 7 r 0 0 = f @.y # = 7 0 0 , = = u q u q K K f u e e u u u e y e y e u u K e u u e e k K K K f K u u ) u 7 O   # # 0 # % 0 u { ` ) { ` { u q ) ....` { ` u u #.X.| X.4.3.q @ e _ $.} } #.#.| K K } K 0 0 _ -.K _ -.| u | $.9.} 0 # = u .._ 0 _ , u ) ' f e K e ` 0 k ] = u y 7 u 0 0 0 # e K _ 9._ K @.' f ` ` e # #.9.K $.K L .._ ..K , K 0 0 u     # = u =...K q _ L # K ) u u = = K e u 0 , 0 f ' u @ q K _ _ ' ) 0 O X @ u K _ f 0 f e q K ` ` _ K u K e 0 7 7 L f q f # 7 K e q e 0 K u _ f q , u u # q f f _ e u f K ) _ u u # X s ' @.-.) y K K 0 u e # _ ) q 7 0 = y ` K ) K y k 0 q 0 y y 0 7 = 7 7 q X # # # 7 7 # # 0 0 0 0 7 0 = # = 0 0 q y u u e u u e e q 0 # # # = ",
") { | { ..-.-.@.@.#...) K u u K K u u f K ) ) K K u y y q q y e k k u y q 7 7 = @ @ , y 7 , y u *.{ ) [ [ [ u q ) -.-.{ { ` u K 3.X.X.3.0.I # e ` :.$._ 3.0.X.K _ | f y q ' 9._ ..-.) K #.C.X.} e e K ' @.0 _ u q ) ) K u ) u ` u u ) 0 k u y ) q q 0 7 u k _ 9.) ' X._ ) @.{ q q q._ X.X.K ..K ' ) = u y 0 k @ O # 0 K @...f e | f e { ) K e @ e K f u = 7 u _ _ q q u f ' _ ` e @ @ = u K ..K u f e f ` ' ` ) K ) u 0 q # u L K { q # f e q f e _ ) ..' u K ' k 0 u f ) K e K K _ ' ) K e @ e L #.) y 0 u ) 0 K K = _ ) u e q 0 u 0 = 7 # # # @ @ O @ O O @ O @ # 4 # = 0 e e k k e e u u K ) K u u k K u u K u u 0 0 0 0 0 y 0 q 0 e y e 0 f ) k , u e q u u ) K _ ) X.{ ..X.| _ f u e u K u ) K ) ) ` _ _ K u y y 0 0 y y u u u e y q 7 = O   = = 0 # # e k =.{ ) { ) { u 0 ` ..=.' { ` u u | #.X.X.4. .e @ K ' 9. .} 9.7.| K _ ' f 0 0 _ 9.L _ 9._ u X.9.9._ e , e K ..K 0 ' = u ` K u u ) y ` 0 u u 7 k y 0 ) r 0 0 # u K ` q.' K #.' K ' @.{ 0 ..9.K 9.L K ' K ..K # f 0 0 u X O X # _ #.@.K q L L = ) _ u u # # K u f 0 # , f _ f , 0 e K _ _ _ 0 O O = e K { K u f u e _ ` ) ) K u f e 0 7 # L K K _ # # K 0 0 u q _ K ' ) e u ) K = y u f _ 0 u f K _ ' K u # o f X.#.` y 0 K K 7 K k # _ ) y 0 0 7 e e q = , # = # @ @ @ @ O O O O O @ O O @ = 0 u u y r y e u k K u 0 e e e e u u y y 0 0 0 , 0 q 0 0 0 y ",
"@.{ _ ) ) K K K K _ ) f K u e e e 0 0 0 7 0 0 0 # # # # 0 0 0 0 e 0 7 # = # # # @ # # 0 = = 0 e %.{ K { { { u q _ -.:.@.{ ` u K 3.X.X.7.0.L @ q ) #.X.g $.0.| g _ _ u 0 4 _ 9._ ..X.K K @.9.@.L 0 0 f ' X.0 L u 0 K u k u ) u { k u ) 0 y y 0 k r y 0 = e u { 9._ ' X.' _ #...y q 9.K ..@.K X.K ' _ , u e 0 K # @ , e f ....K 0 ' K 0 u u K u # e ) K f # # e _ _ e e e f ' _ _ e @ @ 7 u K _ K u f q f ` ` { ` _ ` f y e 0 q < e ` 0 7 K e y f u _ ) ' K q f @.u 0 u K _ ) e f e _ ) ) k y # y K ' e r u ) ) r k K = ) u u ) y = y = @ 7 # = 7 = 7 7 y 0 q 0 e e u u k k K ) ) K ) ) ^ u u e e u e u u u e e u e e , = = 7 0 y 0 y 0 y 0 0 # 0 K X.) ..` _ X.=...' | ....` ' ..{ ) K u e y e 0 0 , 0 , 0 0 0 # 0 # # 7 7 0 e e = 0 7 = @ O @ O   # = = @ o 0 u *.` K { { { u 0 ) -.,...{ ` K u | @.X.#.0.| q O e ' #.| L 9.0.} f _ _ u 7 # ) $._ ' -.K e X.9.3.f e = e _ #.K 0 ..= e ) e K f _ e { y u k 7 y y 0 k q 0 0 @ q e _ 9.' f .._ _ { @.f # _ -.u #._ _ ' K ..K o u 0 0 f @ O # q u | ..K 0 L _ = u K u k # @ f u K q X # u _ K q 0 q f { _ _ q     # 0 f _ ) u u e y _ ` ` ) ` _ K e w , # u q K _ = 7 K 0 q f q _ f | ) u f ..e 0 e f K ' u u u u _ ` ) e # o e ' ' y = y K k 7 K k # K u e k y # # @ O @ O @ @ @ @ @ # # # # 7 = 0 e y e u K K u k k u e e u u k u k K f f u u k u e , # @ # # 0 = , 0 w ",
"K K K K K K K K K ) f K K u u e q 0 q q 0 7 7 7 @ O # # # @ @ # # @ @ X # = # = = 0 0 y 0 0 0 e [ [ ) [ ) { e q ) ' { ..{ ` u K | } #.4.7.} @ y ) X.$.L $.0.' K ' ' f 0 = ' 9._ ' ..u k ..9.X.K = # e ' ' u ) k e ` u u u K u { ) ` _ 7 r q 0 ) 0 e y = e y ' 9.' _ X.| ..@.X.e q -.) ' @.f ..K L ' , u y # e @ O # # , ..#._ , _ ) q y u ) e @ e ) f K # = e ' ) u u q u ) ` ` f # O = k K _ ) f f q f ` ` ) ) ) ' f e e 0 e o e _ 0 0 K e q u f { f ' K e K @.k 0 u K K ) e k e ' ) K u q 7 0 K #.k u _ { K q u k = ) e K _ q @ ) K y u e f K u u u K K K _ _ ) _ ' K f f k u u e u k u u y 0 = 0 y q e 0 # = , 7 , 0 7 7 0 0 0 0 # 0 , q = 0 #.-.u ' @.' _ K e q u 0 q 0 q u e e u u u u e w y q 0 = = # @   O @ @ # @ @ @ # @ O O @ @ @ @ # # , # , # < , u [ ` K ) ) { e 0 K { ..=...` K e X.| X.3.0. .q O u _ $.| H 4.7.L f ' _ f 7 # _ 9._ _ ..u e | 9.#._ q X 0 f X.K e _ 7 k ) 0 u u K e @.e ) k # 0 0 7 k 0 r y @ q 0 u -.| K #.' ' ..@.) # K #.u -._ K | f ' L # u 0 , u     @ 0 , ' @._ = g _ 0 0 e u k # # ) K K q   = k _ K q e 0 u _ _ _ u O O @ q K K K f f q e ` ) ` ) ) ' K q q 0 0 0   f f # 0 K 0 0 u u ' u ` f q u X.e 0 y f f _ e e e K _ K k e = # 0 _ ' y e ) ' f 0 f u # ) e u ` y # 0 q 7 0 0 7 e 0 y e u u u k ) K K _ K K f K K K u u ) u e 0 = # # 0 0 q q % # = , = = 1 = 0 0 y 0 q 0 0 ",
"u K ) _ _ ' ' ' ` ) K K k w = # @ @ @ @ O @ # 7 # @ # # # # = # # # # = 7 = 7 7 0 y = 0 # < < 0 ] { { { ) ` e q ` ..@.@.` ) f u e _ #.3.4.} @ y ) | $.L 3.0.| K ' _ f 0 e ' 9._ { X.k K #.3.' L 0 = K _ e 0 K ) K ) u u K ` ) { { -.` 7 y u 0 ] y u y 0 u y X.w.' K X.@.-.@.@.k q ,.f _ ..u ' K K ' e 0 =   , 0 q , # , _ @._ , K ) q q u _ e O e _ K u # # u | ` f u y y K _ _ K # # = u K ' L f f 0 K { _ ` ) _ L f u q 7 e % K ..0 q K e y u K _ e ) f e K ..K 0 u _ _ ) e K u ' ) k e 0 # # u @.k e K _ k 7 y u = k e k u 0 O ) ` u ) K K _ ) ) K K u u u u e u e r 0 0 7 # # @ 7 0 0 q y 0 0 0 y q y y 0 0 # = # # # # # # # = # 0 0 e 0 u F.:.y e u e u K ` ' ' | ..{ { ' ) ) ) e , # X @ X @ @ X @ @ @ O O @ O O O O   O O O @ @ # # # 0 7 0 = 0 # , , 0 ] ] ) ` ) ` e 0 ) ` ..@.` ) u e f f | 2.4._ <   y K #.#.I 9.7.' f | K u = y ' 9._ ' =.u u X.9.| I q O 0 _ _ q q ) u k ) 0 k K ` u @._ -.' 0 y q 0 ) 0 u y # y y ` -.X.f | } @.X.....# _ -.e @._ s } e L L # 0 # O #   o O . o K @.' = s _ e 0 u u K @ # K K K q   = u ' ) e e 0 w K _ _ u # o # 0 K _ L f u q e ' ` ` K ) _ K u e 0 , 0 # f ) # 0 K 0 0 e K ' e ) f e f ..K 0 0 K K ' u u e K ' u u y = @ , K @.u u ) _ u = e y @ u y k K 0 O y ` u K K ) ) K K f K k K K ) u u K u q q r 0 = # = q y y u u e , e q 0 e 0 = = # # @ X O O O O O O O @ ",
"y y y y q 0 7 0 8 = # = 0 0 0 7 7 r 0 0 0 0 0 = 7 7 0 q y e e e y y e e e 0 7 7 7 7 # = O = e # ^ [ { { { ` y e { ' @..._ ) K u q _ X.4.4.} @ e ) ' -.K #.9.| K ..` u 4 7 ' #.K ' _ e u ' X.L K y = u u 0 0 u ) ) K ) k ) _ u ' ` { ) 7 y u y ) y y 0 # y 0 _ 9.' u | #.9.#.@.K = ,.K _ X.u _ _ L ' 0 # , q K L I L e o f #...u K ) 0 0 K { u   y ) ) K 0 = u _ ) u u e y u K _ u @ # # u f .._ f f q K ` ) ) ) _ _ K u e 0 e # _ ` 7 0 ) u u K K ' u ) f e ) { u 0 u _ ..K e _ K ' ) K y = @   = K e e K K K e K u = _ K w u y # ) _ f _ K f K u e q y 0 0 = # # 7 = = = 0 , = , = 0 = = # = = # = 0 0 = 0 0 0 0 e e e u e f f s e q u q u , _ w.q.u ) ) e y e u u e e q e u 0 7 q y 0 # O O # # @ @   @ @ # @ @ # # = 0 0 , 7 = 0 0 0 = # = 7 # = X @   % < # ^ ) [ ` ) ) q 0 ) ` ..@._ ) f f q g ..3.4.| <   e k X.X.L 5.3._ f X.K u # q ' $.K _ _ u u ' @._ K 0 X 0 K 0 # q ) ` u ) u u K ' u X.) -.{ 7 y y 0 ^ 0 0 7 @ q 0 u -...u _ | -.-...@.# ) #.0 ..L e } s L L # # o # q L g s < . e ..| 0 u _ q = u ) K @ @ e ) ) 0 @ , u _ K u u 0 q K K _ e @ @ X e u ' _ s e 0 e ` ) _ K ` L H u e 0 0 0 # ' K @ q K q e u K _ q ) u 0 f ' k 0 q _ ' _ 0 K K K _ u e , #   O e K 0 q u K u 0 u y # K u y w 0 @ q _ f K K f K K f u u y 0 7 # @ = # # @ @ @ @ @ @ # @ @ # @ @ @   # # # # = # % = , , < 0 < e , q q < , ",
"# # # # @ @ O @ @ @ @ @ # 0 u u q e u u u u u y y e u u u u e e e e e y y 0 0 0 0 y 0 y 7 , u # y ) *.) { ) y u ` ..=...{ ) K u u _ 3.3.3._ # 0 K ' 9.K X.4.| f X.{ f # 7 X.-.u .._ y u @.-.) f y @ # # X # q _ _ ) ) K K _ u ..{ ) k = y e y ) y y 0 # q y @.q.' K @.-.9.#.-.) # ,.) ' @.f ' L g ' q @ 0 u , # # 0 K , e ' ' K f K q y f _ u O e K ) ) r = e _ ) u u u e u K ' k = , @ e K .._ f u 0 K ` _ ) ) K K f u e 0 0 # ) ` y 0 _ f u u u ' k K _ u K { e = 0 u #.u e _ f ' _ u 0 # # @ # e K ) ) ' f _ ' e = _ ) 0 u k = ) u 0 e 0 0 0 0 q y y y y q q e e u e e u e e e e e u u e u e e f u u e s f K K f g g f s g L L K s K s s , ' q.^ # = 0 = # # 7 = @ @ @ @ X O   O @ # 0 y 0 0 q q 0 0 0 0 # # , 0 0 y e e y e e e q q , # # = = = @ = @ , q @ u [ { ` { ) e e { ' @.@.` ) f u q f | 3.3.| 0 + e K #.#.g 7.3.K K @.) u @ u ..#.u { ` 0 e ' @.L f e @ = = @ o 0 u ..u ` ) K K ` e =.) { k @ y q 0 ) r y 8 @ 0 0 ' -.X.f _ @.9.$.....@ K -.u -._ e ..K L L ,   0 s q < 0 e K # e | X.K u _ e = u ) K = @ u K ) e = # e K K e u e y u K ' f # = X 0 f | ' K u q u ' ) ) u ) K K u u 0 , , # K K = q _ u u u u ` u K f q f ' u # , e ..K 0 K K ) ` K e # # @ O , f f g _ ) u ) ' e = _ K y e u = q K e u e q y 0 # # , , , = % 0 0 0 0 0 w 0 0 0 0 0 0 0 0 0 0 0 0 0 0 0 0 q u u u u s s s s g H H s e e ",
"# = 7 7 7 7 0 e y u y e u k u K u k u u K ) ) K K K K f K K k u 0 7 7 7 0 0 0 0 y u y e 0 0 e 0 q ) { ^ o.) y e ) =.=.{ { ) K u u L #.1.#.H o q u _ -.f X.5.K u | ' f @ 7 ' #.e ' K 0 u @...K u 0     @ @ = e .._ K K K K _ u ..` u u 0 k u y ) 0 y 0 # e e _ 9.' _ X.-.S.-.-.) # -.) ' @.s ' L f _ e # 0 0 X   O @ 0 @ = u _ K u _ u y K ) e @ 0 u _ ) e # y _ { e e u e y u ` ) , = O q ) ' K u u q u _ ` ) u ) K f u q 0 #   K { e 0 f K f ) u { f ) _ u u { u e q e @.u e K e ` _ e = @ O O O # 0 = w K K @.' y # K u , u k 7 u 0 0 0 = 0 0 s ) _ _ _ _ ) K K ) _ K K K K K K K _ K ' K K _ _ ' L H K L L K K K L L K g K K K K s L f K e _ ` r   O @ O O O X X @ @ @ @ # = = , 0 e e u y q q 0 y u K u w e q q q e e w q , = = = 0 0 0 0 q q u q y 7 0 q # y ) { k [ ) 0 0 ) { =.` { ) u u q u | 2.2. .%   u f X.X.u 3.X.u f @.K u O # ' #.e ' _ , e ..@.L u 0   O O     , e ..u K u u f _ 0 =.K u r = y r 0 k 7 q 7 @ 0 0 | 9.| f | #.9.-.@.-.@ K @.u #.L e | f K K % o , , O     @ 0 o # e _ f e K u = e K f @ X e K ) u = o u ) ) 0 u e 0 q u ` K # #   0 u _ K u e , e ) ) ) u f K f u q , #   # _ K 0 0 K u u u u ' u f _ f u _ e # 0 0 ..K , f q f _ u 0 X   O     , e 0 u K K ..L 0 @ f u , y ) 7 7 0 # = @ @ # u K K K f f u u u f f u e e u u u u u f K K e f f K K s K K g g f f f K K s s s G H K s H ",
"e u k K u ) K K ) ` K ) K ) K K k ) u e q 0 0 0 e e u 0 0 0 e 0 0 0 0 0 y y q e q 0 0 0 = # e < 0 u { ) @.) q y K =.=.{ { ` ) u u L #.X.X.L # q u _ 9.K 3.3.f u X._ u @ 0 ..7._ _ k q K @.' K u y @ O @ # = f | ' _ ) ) K _ _ S.{ e u y u e y [ y u 0 # u ) #.F.X.' @.-.9.9.@.) = ..K ) X.u _ L ) ' = 0 0 u q 0 0 q 0 q u f ..K u _ K q K _ e # 7 e ' ` u 7 0 K ` y e K f e u ) K 0 0 # f _ _ f u f q u ) ` ) K _ ' L f q 7 # # _ ' e y f K e K u { ) k _ e f ` u f f u ' ) k e e ' ) y = @ @ O @ # u X e ) _ ..' y 7 ) u 0 q 0 @ u K f K f K K L L L _ _ K L _ K ) L K ) ) _ _ K _ ' K K _ _ ' _ K f K K _ _ K K u K q e e 0 , 0 0 = = = = , # e ^ @ 7 q = 0 0 q e y q e e u K u u f K K K k k e y 0 0 0 0 0 e q q 0 0 q q 0 # # # # = , 7 0 0 0 0 # = # # q < 0 u { ) =.) q y ` @.:.' { ) K u q f X.$.X.| %   u u @.@.f 9.@.u K @.K e O 0 @.$.f ) k , u ....K e q @   O O @ 0 ) @.f _ f K K ..K :.) u u y u y y ) 0 q 8 @ y u ' 9.@._ X.-.9.9.#.#.@ _ @.e @._ s ..f K K   = , 0 = O @ # , = 0 e ' K u ) K 0 u ) K # # w K { K 0 @ u ) ` 0 f k e e e ` f , =   q ) _ f u e 0 e ) ` ) u K _ _ g u , # X , ' _ 0 0 f f u K u ..K K K e u ' u e g < | L e u 0 K ' u = O O       = 0 X e K _ @.` y = _ u , e e # q e q u e u s K L L } I L K L _ _ ' _ L _ ' _ ' ' X.| ' ' ' ....' L K K _ ' _ L _ f f e e f u s s u w e ",
") K K K K K K f u K u e e q 0 0 0 y e u k u y y u y e q 7 = 7 = = = = = 7 = 4 = # 0 0 w 0 e K 0 0 e { _ { ) y q ) @.@...{ ` ) u e f | X.=._ # 0 u _ q._ 9.$.K f $.' k # 0 { w._ ..' u k @...K u 0 # # # #   y ` _ ' ) ) _ _ _ ,.{ y u y u y 0 ) r y 8 @ u ' -.9.#.X.@.@.X.#.#.u 0 ..K K ..u ' | ' | 0 q # # q e q 0 = y K K ..) f K ) q ) ` e # 7 e ) ) u = # f { q e K f y u ) K 0 0 < K _ _ f u u e u ) ` k ) _ ' L f y 7 # @ K _ e y f f 0 K u ' ) u ' f f k 0 u K u _ _ K e e _ ) e e   # # # = u @ e _ ) f K y # K y # 0 7 @ f } L _ L I L I Y L I } } _ K q e e q y q , # # # , , % # = = = = e , # 0 = # # @ @   O         X   @ O     # { { 0 u K e k u K u K ` ` ) ) _ u u e e y 0 , 0 y 0 0 = = @ = 0 0 = # @ @ # # # = = = 0 0 7 0 = # 0 = 0 0 0 q % # q ` ) { ) 0 = _ { @.` _ ) k e 0 e _ } | | 0   q e | X.f 0. .0 u @._ e O 0 @.-.f ) ) y u ' ..f q 0 @   X @   0 K ' f _ u ) f | ) -.u y e q u 0 0 ) 0 y 7 O y K @.9.X.' | #.| #..._ # e X., | K e } K ' L 0 0 o < u q q e , y f u _ K e f K 0 e _ u # @ , u _ u 0 X u K ) = u f u q e ) f < , # u _ ) f q u 0 e K _ u K f _ L s e # @ O # _ K 0 q f e , u e _ u u ) u u ) 0 0 s 0 K _ u e = K _ e 7 @   X   O , q   y ) K _ K = X K 0 @ = @ O q } L L K L H K H s L L L K f u u K u e e y 0 0 , < q 0 < , 0 q 0 0 q 0 , u # 0 , , = # # , O O X X     ",
"u u u e q 0 # # 7 , # # = 4 # # = # = 7 = 7 # # 0 7 0 0 0 = = , 0 = , , 0 7 7 = = q e u e 0 u e K ) ^ u k ) u u ) ) _ _ ) ` ^ u e f ) @.{ K   0 q ) #.K _ 3.K K | L e # q ) -.' ....u u @...K e 0 @ O @ @   q ' ' ' ) K K L _ #.` u u 0 u 0 0 ^ 0 q 7 @ u K ' @.....@.X.@..._ { 0 _ ` ` #.K ' ' _ | 0 0 0 # # # # 0 X 0 ' ....' K K _ e _ ) y X 0 y ) K k 7 @ e ) q y u e , u ) ) 0 0 , u | | _ e u f u ) { k ) { ..' u q 7 4 # K _ e e s u e K K ' K e ) K K u y u K u K _ K e e ) ) k u @ , = o O 0 @ e ..K e K u 7 K e # = 8 7 K | ' | }  . . .@. .X.@._ } f q e u e u u f f f e w e w 0 # # # @ O O   # # # # # = # = , = 0 0 0 = # @ #   u { { u u ) K ) K K e e y 7 = 0 0 7 # # # @ X X @ # # 0 4 # o $ , # 0 , # # o @ o X     X X O O X = 0 < q 0 q u u f f =.{ { ) u u ` =...X.=.o.) K e f X.@.=.' #   e f -.@.I 3.3.f ' 0.K u O q ,.-.| X...u e ..-.K e q @   X     @ K X._ ..K ' K | L @.k y y 0 u 0 0 ) 0 0 7 O e K X.X.$.@.@.$.X.-.@.' 7 u @.u @.' g @._ | L # 0     o @ o o   0 _ _ @._ K K _ u f { u # X , u ) k 0 O # K ) = y k e 7 e _ f , , % u ' ' _ e u u u K o.) ` _ @.X.K u 0 @ O = _ K q u f u e ) f | ) u _ K f u 0 q K e K ` ) e 0 K ' u k X   X X . o 0   u | f k ) y = ) y X # = O 0 L g H L I } } | } | +.X.| f , 0 y 0 0 0 0 0 , , # = # # X O X O   O   O @ O                   O @ X   ",
"0 0 0 q 0 0 0 y y 0 q q e q 0 0 q 0 q 0 0 0 0 0 q q 0 q e e e u s e f K L K K K e s q e 0 q =   # @ # # # # # # = 7 7 0 0 0 , 7 4 @ # # 7 7 0 0 y 0 0 @ 7 7 7 9 q 0 q 0 e y 0 = 0 r u y y r 0 y u u u k u u u u u u k ) u u u Q u e y e u K ) K e u e u ) K K K K ) K u y 0 , , o 0 0 , y 0 y y e u k ` ` ` ` ` ` { ) ) u q 7 9 7 7 r 0 e e f K ) ` ` _ ' { _ { { _ _ ` _ f ) ) K K K u f f u e q y q 0 e y q r u u q 0 0 7 0 0 e e 0 q e e q u e f u u K K K f u f K u f ) K f f _ ) _ ' L L K K u u q u K e q y e q u y q _ | _ } | } ' L _ K K K f u u e 0 7 q e 0 0 0 e u u u u u e e y q 0 0 = @ # = 0 0 q e u u y q q 0 0 y e e q 0 0 = _ =.{ q e u e 0 = 7 = # # @ # = # # # # # # # @ @ X X @ O - > l -   # # @ # # , < , 0 q e e q < , , q q q 0 , , , 0 0 u 0 q 0 = = y y y e e e y 0 0 0 q u u k # @ 0 0 u e 0 K f y e K q 0 = 0 K ) e u u u w ) K e q q 0 # 7 0 = 0 u ) f K u K e K u _ k e w 0 u u e u q 0 0 0 u u K K ) K _ _ _ _ K K , 0 f 0 f u 0 s u f K e ) e 0 e q e K e e ) K ) u q 0 e q 0 e q e y e f K K K u u ) _ f K ) u e f _ f e u e u ) f u q e q q e u e u u f u 0 , # = # # u e , 0 0 0 , e q u u q u f u u q u f u e _ f u s f _ f ` f q e e q , q 0 f K e 0 y 0 , u q 0 g ) K } 3.| | _ Y I I I L L _ L s 0 u K e e u u K K f K s e e 0 0 = # @   O   O # = # # 0 7 0 y 0 q y y y , = ",
"K K K ) f f u K K K u u f u u u u f ) K u K K K K K K K K K K K K K f f K L L f s L K f e e 0 # y y q 0 0 q q y y e e y q 0 = 0 0 7 0 e e e y y u y e y e e e u k k k k u u u u k u u u u u K K ^ ) ) ) ) ) [ [ [ [ { { { ) ) ) ) ) k u ^ ) ) ) ] ) u k ) u ) ) f e 0 = = 0 0 e u u f f K f u K ) ) ) K K u u u u e 0 0 = 7 # = 7 q K ) ) ) ' { _ ) e u u e q 0 0 0 0 0 q u e e u u f u u u e e u f f f K f f K _ _ K K f f f K K u u K ) ) ) ' _ _ K K ) ) _ K K K _ f K K K K u u u y q e e q y e e e u f u K ) K K K u e K f q , 0 , # # @ #     @ @ O O O @ X   O O               O @ @ # 0 q q 0 u u K K K K ) K K K K u u u u y 0 0 0 = K -.@.# @ # 0 u e e e q q 0 q q q 0 0 e 0 0 0 0 0 0 e 0   > l l l o < < , q q q e e e e s G s q q s e < 0 = #   # = # # # # = , 0 y e e e e 0 = = # @ @ = = 0 0 0 y 0 0 = = 7 7 9 0 e q e e 0 0 0 0 0 y y 0 0 0 q y e u u ) ^ ^ ^ ^ ^ ^ ) [ ] u u Q u u e y e k K K y u u e k ) u ) K K u q 0 # 0 X , , < u q e u q u u k ) K _ K ) _ ` K u e 0 # @ @ O X 0 e e e u _ _ ` { K _ ) K f f u u e e u e q q q q e q 0 0 0 , 0 0 q 0 q q 0 q q u e e q 0 u f e e e q e u u u f f K ) K K f K f f f K f u u f K K f f u s f g K f u u 0 0 e e q q e u u u u q f } L u e q 0 < % % % # # @ X O # , @ # @ X @ O O   @ O X # # # # # = , , = # , 0 y u u u u u e u e 0 0 0 e e q ",
"K L } _ L L _ _ ' ' _ _ ' ' ' ' | ....' ' ..| ' L L L _ L L L L ' L K K s s K s s f s G u K u 7 u u e q q y 0 r 0 7 7 7 7 7 0 0 y y y u u ^ K u ) u ) ) ) ) ) [ ) ^ k ^ ] ) K k K u ) _ ' { .._ ) ^ u u y u Q u Q u k ) u u ) ) ) { ] k ) k K ) ) ) K ) f u ) f u w 0 y u _ ' ..X...' ) K ) K u u u y 0 0 = # # # @ @ 7 e K K ) K K ) ) K u u u u e q u u u f g g L _ _ | | | ' { ' ' ' _ _ ) K f f K K ) f ) _ _ ' ' _ _ X.@.@.{ ' ..| _ K K ) f u q u f f K K K u u u u e y q q e e e e f K ) _ ` ` { { { { { _ K K K K u K f e q 0 7 0 # # # @ # # # 7 = 7 0 0 0 0 0 0 e e e e e e u K k K ) u u u e y e y 0 0 y r y y y 0 0 7 = # @ @ @ O 0 [ { q 0 u e L K I L K K f K K K u u u u e q e u e q @ - z z z c > o s q q q q u e q e s s s u s G K s K u u # 0 e 0 0 0 0 0 7 0 7 7 0 = 7 # # 0 0 0 y u u u e e u e u k u u k ) ) K k K ) K k K u k u ) ) ) ) ` ` ] ) ) ) ) k ) ` ` ) ` { ) ) ) ] ) ` ) u ) ] ` ` ) { ) K K u u _ f u 0 @ # 0 u K _ _ _ _ K K ) K u ) K u e e 0 q , 7 = # @ 0 q e e e e K ` ' _ ) ) ) k u # 0 < < < , 0 0 e u f L L K ) _ _ _ _ _ ) ) _ _ ' ' ' ' _ ' ' X.X...' _ ` | .._ ) _ _ ` _ ) ' _ K u u K f K _ _ _ _ K ) K u u u e e y 0 , 0 q y u K K ) _ ` _ ) _ ) K K K u u u 0 , , % # #                   O @ X O @ @ X X X @ @ X @ # , , 0 e e e u u k k K u e e k u u K K u e e 0 = # ",
"L K L I _ L f u u u u u u y 0 q q e q q q e u u u e q K u e u 0 u e e e q , , = # # # = @ 0 @ X y e e e e u 0 0 0 0 0 q y q y e y y y y 0 y 0 7 9 7 0 0 0 7 e u e y y y u u u u u u ) k k u u e e u u u k u u e f u u u f u u u u u e u e 0 q y e q e k K ) K u q 0 q e u u e q q q 0 0 0 0 = # @ X @ @ # # # 7 0 q e u f f f f e u u e e w u u u K ) K K K K K L _ _ g L L g e u u f u f f e e e e y q e q f K u f u e e e q q 0 0 w 0 0 7 = 0 q e e u u e u e e e e e u K K ) ) _ ) _ ) K u u u e e 0 , # q e K ) ) ) ) _ _ ) k 0 0 # = 0 u e u u K K K k k K u y e 7 7 7 # # # # # # # = = 7 # = 8 0 7 0 0 # # # @ @ = = = # = 7 = = = = # k { _ s g K g L f L H g g f f u K u f u s u q u u u q . > l l z z c X 0 f e e s s u u q , < = , , , , % , = # X , u e e 0 e 0 0 0 # # # # = 7 = 0 0 r q y r e e 0 q 0 y y q 0 e ^ u y y e y u y e e y u ) ) K ) K e 0 r 0 0 0 0 y q q q q y q e u u u K u q u 0 0 q e u e u u u f f u e 0 0 e K ) ) ) _ ) u q 0 q , # % @ @ O   O O   O @ @ # 0 q u f u u u u u 0 , 0 0 0 e u u f f K K L _ } L I I L g s s f u e q q < , , , % , = % q u f f u u f f L f u u f u q 0 , 0 0 0 , 0 u q q 0 0 0 = # # , , , , q e e u f K K K _ K f K K f K f K K K f K K K ) f q # @ X X # = # = y q e e e q y y y y 0 0 y 0 , 0 0 0 0 q q e e w 0 0 0 7 7 4 # # # # @ # # # @ @ @ O O O ",
"+.| @.#.#.| K 0 e e q e e q 0 0 = , 0 # @ @ # @ @ @ X # # @           O O   @ @ @ @ @ X @ X     # # 7 = # = # # 7 y y e e y y y y e y y y k k u k u ^ ) K u u e y u ) K K u u y u u K e u e u u u k f u e y 0 0 y q e q y 0 y e e y y y y y y 0 = # 0 u u K e e q q u y e 0 = # # , 0 0 0 y y e e K K u u f K ) ` ) _ _ _ ) K u f f K f K ) _ ) f u K u f f K f K K K K K ' X...{ { { _ { ' @...' _ ) ) ) ) _ _ ) _ ) ) K _ _ ) _ _ _ _ K K f ) ` ' ' { ` _ { ' _ ) _ _ _ _ ) K f e 0 7 # @ O       @ # #   @ # @ # = 7 0 u e e f f K L ' | X.' ..| K u 0 # # 0 , q e e u u e e y y 0 e f u e u u u u u u e u e 0 0 0 7 q y 0 0 0 0 , 7 # = = K [ _ s H L H I H L I I L e , , 0 7 , # o X . . + o   . z B <.m l B -   #                                       # 0 , 0 , q 0 # = 0 0 y e y y y y y y y 0 = e w 7 9 0 y e y 0 y e e e k k k u u e u u K u e q 0 w q u ) f K K f u e u u u u u e u u u 0 e e k w y y y 7 0 u k ) ) u y # # 0 0 0 0 # @ # # # @ # # # = # # = 0 0 0 q e K K ) _ _ _ ) K e 0 q q u u u K ) K K _ f u u K f f K K f f H I L ) _ _ ' ' | ..' ' _ K K K K K _ _ K f e u e 0 0 0 q 0 e e y y 0 y u f K K _ f K K K K K _ _ ' ) { ` ) K ) K u 0 0 0 # @ O # @ @ 7 7 7 y e e e u K K f w < e w e K _ K ' ..K K e y 0 0 0 0 0 , = 0 = # # = @ # # # # # 7 = 0 0 0 0 0 0 , @ # X X = 7 = = 0 0 = = ",
"} g g K K u q f K e u u K _ ) K f e e e 0 , = # @ O O # 7 0 # 0 0 0 q q 0 w q 0 , # # # @ = # w 0 # 7 @ @ @ # = 0 e y 0 y y e u k ) K K K K K u K u u K K e y 7 = 7 7 7 7 7 7 # 0 q u u K K K f u e q 0 0 7 0 0 0 # # @ O O # # @ X @ @ @ @ @ # # # 0 y e f e u K ) k u u e u e u u K K k k K K f ) ) ) ) { _ u 0 # 0 e e q u L | ....X.X._ f u f _ | | ....X.{ ..| _ _ ` K f k 0 0 , # # # 0 e 0 0 e e e e u f K _ K ) ` ..f _ ' ` ..) ` K _ ) u e q e e e e q 7 # @ @ # # @ O O O # , 0 0 q e y q e u u k _ K K K K K _ ' ' ..| ' _ L H f e 0 , # # 0 e u K K _ ' ' ) K f e u e e 0 0 e y 0 q 0 q 0 e 0 0 q e q e e 0 y e 0 q 0 q y 0 # = , e ) @.Y |  .| | H K I H s q , 0 q q q 0 0 0 < # # #   ; z y.i.B c c l o       . .       X @ @ @   O         X @ o O @ @ O O O O # = = 7 7 7 0 0 0 y q y y y K K ^ ) ^ ) ) ) f e 0 = 0 e y y 0 0 = 7 0 u u u u u u u y q 0 0 # @ @ # # @ # # @ @ # # # @ @ # # # # # X   O 7 0 q 0 0 u u u k u e 0 , = , 0 q q y y e u u ) _ K ) ) _ f u q y u e y q 0 u K L K _ _ _ K u , q u f ) K _ K ) K K K K L _ _ f f u q 0 0 e f u e e u u e e f K K ` ) ` ' ' | ' ..{ X.| _ ' _ _ _ ) ! ! ) ) ) ) u e q q 0 , # o   O O X X   X   O X X @ O # o # , # % 0 7 0 f u K K L _ | | | } _ K f u 0 0 , , 0 q e u K k e K K K u u e u K K u u u e u e u e e u e 0 q 0 = q e 0 0 , # , # ",
"@ @ @ # X @ @ # # @ @ O O @ @ @ # = # # = 0 0 0 , , 0 y u u u u u e e e 0 0 y e e e e q u K K K e 0 0 0 q e y u ) K K u u k u u e e e u u e u 0 y 0 0 0 = # @ # 4 4 = 0 , 7 0 q e w e 0 , 0 0 e u e 0 0 y e e y y 0 y e u u u e y y y e u u u K _ ) _ K ) _ K e y y e u f ) ) ) ) ) ` ' ) ) { ) y e q y y e u u f K ' | ' _ ) _ _ _ _ f u 0 0 u ' | { _ ) f e 0 0 y 0 7 7 # @ y e u K K f f f K K u u u ) ) K K ) u 0 u y 0 7 @ q # # # @ # # # @ # # # @ @ @ @ = = = 0 0 0 e y e K K _ _ _ ` | ..X._ ' #.$.7.@.#.#...K K K f u e , # = = , u q s g } L ' _ ..K e e y 0 w u e u u k e y e e e u u u y u f K K _ ) ) ) K K K K K K K K u 0 e 0 u { #., q u q q 0 0 , = # o , , # , # # , , % # #   . z V i.y.F Z B B o   # # # = # , # , y 0 , # # # o # , q e 0 # = # # # = 0 y k u u y e u u K K K K K f u u 0 e 0 y e q 0 = @ @ @ @ @ # @ # # = 0 e e e u e u u e u 0 0 e 0 0 y 0 # # @ # @ # # = # @ # # # # 0 q q e u K ) K u e u u q 0 e u u K K K ) _ K K ) K e u u u u K K u w 0 e K K f K _ | #.#.) _ _ f u f _ @.@.X...' ' _ _ ) K f K e y q , % 0 0 0 , q u u e q u u u u u K K k e K K K ) u K ) _ ) u k f e 0 7 = 7 7 = # @ @   O O @ # @ # = 7 e e u f ) _ _ L _ ' | | K L ' _ | ..} ' ' _ _ _ K q w q < , , # q , , s f K ' L K L K f e e 0 q 0 w , = = # = = , = # # < = 0 q u e e u q e q 0 0 e e u y ",
"@ @ @ # @ # # # # # # , , , 0 # = 0 0 q y u u u e u K ) K u u k K K ) K K u u e 0 0 , 0 y q , = 0 y e e e e q y K e e y 0 y q 0 # = 0 0 0 0 0 7 0 = = 7 0 q e u e u u k u u u u e q y y q y y e u u u u K ! K f u u K K ) K K f K K u ) _ f K f s q q # q f e u K u K K f ) K ) ) u k u e e e e y y q u K ) ) _ K K ) e q e 0 y 0 0 q 7 # 0 0 u u u u e 0 # 0 q e u u f u f K ' _ ) { _ ) K e u K K u q q u f f K e 0 e 0 # = # = = 7 0 0 , 0 u e e e e f K K K K e u K K K K L f K K K K _ _ | @.$.@.-.X.{ _ f f f e < q f K K _ _ _ | | | #.X.@.@...@._ K _ K f e e e e u e e u f K e u u e y q 0 , e K k u u u u u e u u e e y 0 0 0 = = # K ..Q O   +                     O o               . - z y.i.F p.i.c m -   , , , , , 0 . . O 0 0 0 , , 0 q u e 0 0 0 0 0 0 y y q k K e e q y y 0 0 # # 0 0 0 q 0 = 0 # # # @ @ # # = 7 7 0 0 0 q q 0 , , , X # # # 0 0 0 0 0 q q t q 0 0 y u K ) K f u e u f K K K K K K f u 0 s u y q q e f K ) ' _ ) ) K ) K K K ) k 0 0 = 0 q e u f f K _ _ K f e e q 0 0 0 7 # @ # u K ) K u q 0 0 o 0 @ o X @ # # e u f K K K e u e u u e e q u K K ) K y # 0 @ @ #   @ @ @ @   X O @ @ # # = # @ # = , 0 u e e q q e q 0 e s u u u f L | X.@.#.#.X.@...' | _ s q q 0 q u q , , q s s K g } L | @.} _ ' f , , , , 0 e e u K K f u K f k K k f e e K _ _ ' ' _ _ _ K _ _ K ) ) f u e ",
"u q e u u e u e e u 0 q y 0 0 0 0 0 e e e e y q y 0 0 0 7 7 7 7 7 = 0 7 = = = # @ @ @ @ @ # @ O 4 0 q e u u e q e e u e e u e y q q 0 0 7 e e e u u e u k ) ` ` ` ) [ { { ) [ [ ` ] ` ) ` { ` { { ) ) ] ` ) K u 0 q 0 q 0 0 = # # # # # # # 0 q 0 0 y u K _ f u u f u 0 0 e e k K u f e u f K L _ ) K K K f e e e u k K _ ' ' | { ..{ ) f K f k f u K K K ) ' ' ..' ........| $.#.-.-.@.-.=.@...@.{ ' _ K K K K K f K _ _ ) _ ' ..| | | ' L L _ ' _ ' ........@.#.| X.@.$.$.#.$.#.q.9.-.-.@.....) u ) K K ) K f K _ | ..| X.@.#.@..._ | _ L K _ K u e 7 @ = q q e u ) _ _ ) K f K u q = 0 e 0 , 7 # = 0 e < , , # # # @ # # , 0 7 = 7 7 # 0 0 ) { Q # , 0 = = # = # # # # # O . > ; O # # # # @   l V y.y.V d.M.Z V l . @ # # # = =   $     # X     X # # @   # 0 y y e y q 0 e e y 0 0 q q 0 = , = , # = 0 = = 0 = # 7 q e u K u ^ ) ` ) ) ) ) u u e u u K K K ) ) ) ] ) _ ) ) ) u u u f u e e 0 q q 0 e u e q e e , , , 0 g u u f K u f e e u e K u q u , , , < q e e u u K ) K u u u f u e u u u K f ) u 0 0 q q e e y u e 0 0 e u K e f f K _ _ ' | ' @.{ ) K _ f ) ) K f q q q e u u q q u e q e e e e u e e u e u K e f K f K K _ L _ L L _ _ } _ ' ..' ' ' ....X.#.@.X..._ ' ' K q 0 q u e u K _ | X.X.@. .+.| 3.$.#.#.` ) ) q e g s f K k u u u e q e e u 0 0 e , # @ X O @ e q 0 , = = = # # # # # # # @ @ X ",
"X.' K e 0 7 0 7 0 q 0 0 q 7 = 7 7 7 0 7 7 0 0 0 y q q 0 0 0 # = @ # = 0 = 0 0 0 7 7 0 0 0 , 7 # 7 0 e 0 0 0 e 0 e e 0 0 q e e 0 0 q 0 7 7 0 0 0 q e e y u k u y y 0 y u y q u y y r e u K e u y 0 0 0 0 0 0 0 0 = 0 y 0 y e e e e e u u f ) K K f u 0 0 e y q , 0 q 0 q e K f u K u f u ) ) L K e q u K f K K ) ) _ _ K K K u u e u f K _ ' _ | ..X.X.X.@.@.X.@.#.X.@.-.,.:.#.q.,.-...` @.#.' K ` _ ...._ _ _ _ K K _ ' ..| ..' X.#.| ......' ' _ L ..| ' ' ' _ I L _ I L K ..| ) K K _ K K u e 0 , e g K L I K K K u < = 0 # % 0 0 # = 0 = 0 0 0 e , = 0 e q e u u u K f u e e u e q y u u f u u f f e s K K ) K K K K K ) ` ) K ) K K K K u K u u , u e u _ e f u q 0 e 0 O $ l ;   O   O   . - V i.F u.V b.M.b.p.c o   O         o > -   # O   O       O   X = 0 0 0 q e 0 0 e u e u K e w 0 0 0 0 # 0 e u u k K u u K ) ) K k k u ^ ) ^ u ^ ^ K k ` ` @.` ) ) K u u u u e u 0 @ # # = # # # @ @ @ @ # # # 0 q u 0 0 0 e f u 0 0 q q 0 = 0 e e u f u K u ) ) _ ' _ K K f f u q u f u f f K _ _ _ _ _ _ K u K K K K K K L _ _ ' X.X.X.X.X.@.@.#.' #.-.#.-.@.@.@.#...' ' | X.' _ L _ L f K ) ' ' _ ' ' @.X.@.| ..I L ' .._ ..X.X.@.X.@.| X.X.| @.#.#.#.7.-.#.| { ..' ) f u e , w u g L L _ ' ..' _ L _ ' | _ K f f f f u u e 0 # X   @ # = 0 u ) ' ` _ ) f f e 0 # = 0 0 0 0 0 0 0 0 0 0 0 q , 0 = # , 0 e q 0 0 u 0 ",
"0 , , 0 y e f K _ K K K K u f u u y u K u u k u u k u e u u y q q 0 e e q y 0 , 0 = # , 0 0 y q 0 0 e q e q 0 0 < # @ @ O O = 0 0 0 7 = # # # # # 0 0 7 0 7 0 0 y y y y 0 0 0 @ @ # @ = = # = = 0 q e e e e u f u K k u f K f u e e u u u u q 0 y u u f f K f f f K f _ _ K ) u u y 0 q e u u u f K _ _ ' ..| K u u u f u f K _ ' | X.X.#.@...@.@.@...X.| K K K u K K _ { k f K e ) u ) K K f f _ K f u 0 , q u u u K L g f f f K K u f f u u u u u f K u e e e 0 0 q e e e u e 0 = # # # = , 0 0 q u s e u f u u e e e e u e e K _ K f u e 0 q u f s K L u K L K K f f f K K K ) ) ' ..@.' { ' { ....{ ' @.' ' ` ` { ' ' ' ` K K ) K K u K e u { -.I ' _ K L e , # o @ =     l l >   @ , # O o V y.F B y.V d.V.m.m.z l o   @       $ > z . O 0 # # = , , = # # = 0 , , # , , , = @ @ @ # # , 0 0 = = # # # # # @ , 0 7 q y w = 7 7 = 7 7 7 0 = 7 # # 0 0 0 0 = # # @ # # # # 0 0 0 y e y e u u k k f K K ) ) K u u e q 0 q q y q < 0 0 q u K K f u f e q 0 u f f q < , e K K ) _ _ _ f K f u u e w u u f K L ' ' ' X.X.@.@.#.X.} } | ' ` ' @.-.-...-.| ) ' K K .._ f K _ _ ' K u u K u q f K L .._ _ L ' } _ L L ' _ L f u f _ u f s K f f f f K K L ' f K u u u u 0 0 0 0 e K L _ K K e u q 0 , , , % # # = #   @ @ @ @ # w y < u u f e e e e 0 q , , , 0 e u e u K K g K u K K K f K _ K _ ) _ _ _ ' | { _ _ ` ' _ ",
"e g L L L | L K K u e e e q e e e 0 , , , 0 0 0 7 0 0 0 y u e u e e e e 0 0 y e u 0 = 0 y e e e e u K ) _ _ u f f K f e 0 0 q 0 q q 0 7 # = 0 0 7 y y 7 0 0 7 0 u e e u u u u e u f k K ) ) K K _ ) K K K K f u u e e e e e y q u f K _ ) ) _ ) ) ) _ { ' ' ` ' ` _ _ ' ) y u u f u ) K ) _ ..| @.#.X.) K _ | ' { ..@.@.=.=.X.| X...| _ _ ) ) K u K K k e , 0 0 0 e e e 0 7 0 0 # q # @ # 0 = # 0 # 7 0 e q s s s e g q a 0 # # # # # # # # # # @ @ @ @ X O @ O # q = @ X @ = = # # # # 0 0 0 q q y e u f K _ L K K u u u e y K K K f f u L _ _ ' ' ..#.#.@.@.#.X.X.X.$.3.$.@.@.@.' ....@...{ @.{ { _ ) K u q e e q 0 = = # # # # # # , @ , X y =..., 0 = o . # < 0 q u q O - > l > .       . z p.i.V V F Z F B.f.m.d.B o .         o i c n         o # = 0 q , , 0 e u u e q < , # @ O O @ # # # # # # # # # = # 0 q = # @ = 7 y e y y 0 0 y = # # = 7 0 , 0 0 q u u f u f f K ) K K u u u u e 0 7 0 0 e e e e y e u f K _ _ ) ) K K K _ ' K u u y e 0 0 q e u f K _ _ | ' ) ' | _ f f K ) K ) ) ' { @.$.#.#.#...' ....| ' ' K 0 e e e u e K K u 0 K e e q u q e u q 0 f e q q , , u s s g I I e f e q e y 0 0 q e e q w 0 q e 0 , = 0 @ @ # = = # # 0 # @ # X X O @ X # # 4 0 , < 0 f u f u f f K K K K _ { ' _ K f u e u K f K _ K K K _ K K K _ ' ' ' ' ' ' { @.@.@.....@.@.-...{ ' ` _ L K ) K ) k u u e e y y y ",
"X.9.@.| L } K e e w 0 e u e k K K k k K K f K u y u _ _ ` ' ` ` ` _ ' _ K _ ) K K e y e 0 7 0 0 0 q e e u e y e K ) k u y u e u K u e 0 0 y e e u u u u k u u u K K K K u u y u u u u e y y e q y 0 0 y 0 e e u u u K k u f f f ) _ _ ) K K f u u e q e e 0 e e q y e u f k _ ' ' { ..=.:.=.-...' f e , 0 u K ) f K u e e u e u 0 0 , 0 y e q e 0 q 0 # # # # # # @ @ @ # O O O @ @ # # ,   = = q q 0 % # # X O X O @ @ @ O # o @ @ @ # # # # = # 0 q e q q q q s K q q u u K L ' | ' ' _ _ ' _ L K K K f K u e q q e u u f ) ) K f u u y e e u u u u L ' _ ' @.X.' ) | ' L K u u 0 0 q 0 0 0 7 7 7 = @ @ @ # # @ , # # % # 0 % # # X @ O O   u { ) $ < s s K L L H s K #   A B m l - $     > <.d.y.V <.F y.B N.m.M.N.V.m .     . o l B F F   . = # , , , 0 0 0 e u u K ) u e f _ _ e u q e q e e e 0 # @ = # # = , , , q 0 0 0 e e e u u u K u f K ) K f u u u u f e u e y e w q 0 , 0 0 0 0 0 q u ) _ ' ' ' ' _ _ K f f K f K K f f K f ) u 0 u u f f K ) ' | @.X.-...) u y f f ' ' ..` | _ ..' _ ` _ _ ) f K K e K u u e 0 7 # # , , 0 0 0 , # @ @   #     O X X   X o   o , , % < < , % , , # , O .   O   O O O O O     X @ O O O O X 0 q o # # # , , 0 q e u f K K K K K K K _ ' ' K f u e 0 0 , , q e e e y e f K ) ' ' ' ..$.#.#.#.$.#.$.#.-...@.| { .._ _ ` { _ K K u e e 0 0 # @ # # # # O X   @             ",
"K ) u u , u u u K K K ) ) u u u u y 0 e 0 # # @ X , u q 0 0 0 0 0 7 0 0 0 0 7 0 , = # = = = = 7 0 q 0 7 0 0 0 0 0 = # # # = # = 0 e k K K ) ` ' ) K ) K ) u K f k u u K K ) K ) _ ) K K ) K K f K K ) ) ) ' } _ _ ) ' _ ) ) ) K K u K K u y f ) ) ` ` ` ` ` { ' ) ` ` ` ` ` { ` ' ' ) K K K K K 0 o < 0 0 0 # # # @ O   # 0 , # # # , 0 0 0 q u e e q u s s u s q q q q e s u u K g I ' ' H H I +. . .I I H Y H d H L Y s g K g K K L K K f u f f L I } } K L K K L f f L L g e s u 0 q 0 0 e q e e y e u u u u u f K _ K K K K f K f f K f K K K f f K L g s e 0 q 0 = # = 7 0 y 0 q u 0 = 0 q e u u K K ) ) ) ) _ K K ) ' K K K u y y 0 0 = u [ ' T | @.@.#._ ' e q q @   l.x.y.y.B m $ B F p.p.V B y.i.y.V d.F i.<.m.d.B ; ; c c Z i.p.C     0 # , # o # # # 7 , 7 0 0 0 0 e u q , = 7 0 7 w e y e w e u K K K u k u K k K f K k K K y e e e u u e e q e e u e e 0 e e e f f g f K ) K K K K K K K ) K e q e e u e e u u u u k u u e u K K _ ' { | @.=.-.{ X.) K K 0 # @ = e q e y 0 , # # , , # # # # # # # , # 0 % 0 # # # # o # X   +   X @ X # , 0 q u u u s q , s < q , , # < %   < < % $ # X o # # # q 0 , 0 < , u q q q f s s e f e 0 u f e L _ ' L L f s f f u e e 0 0 0 0 0 , , 0 e f K K _ ' _ K f u e < , 0 , < , , f K K K K _ _ K f u 0 , 0 7 = # # @ # # # X # # # , 0 0 0 0 0 0 q 0 u u 0 0 q = @ @ ",
"y 0 # # 0 0 0 y u ) ) K ) K u u e , 0 e e e q e y y e q y q 0 0 0 = , 0 0 0 0 0 0 7 0 y e 0 0 y 0 7 0 7 0 0 0 0 0 e u u u k u u u u u e u e e u 0 e u e e q e e u u u ) _ ) ) ) K u u e e u u f _ _ ) ) K _ L K K K _ _ _ _ _ _ _ _ _ ' ' _ _ K _ ` ) u e f ) ) K u f u u u e q e 0 0 0 = = # 0 = = f 0 0 0 = e e e u u K _ K L K _ L | L L _ | ' ' ' | X.X.X.$.@.@.@.@.3.3.#.X.@.} |  .#.+. .I K K I } |  .} L } H L I | | | | } _ ..| _ L L ' ' _ } | } } | } | ..' _ | X.X...| ..' ....' @.' ' #.#.#.$.@.....' ' ' ' ) K ) _ L L K K K f K K u u k K K K K K K K K K K ) ) ) { ..X.| @...| ' -.@.@...` ' _ L K K f u e u u u u e K L K f u e { { e f K e y 7 o   X ,     > x.F p.i.d.x.d.p.F z l l B y.i.V B i ; ; l i.y.y.y.F F i.y.i.x   #   O   @ o o # = 0 0 7 7 = 7 = 0 = # = = 0 7 = 0 y e K K f f ) ) u K ) k f e u u u y w u K _ ) ) _ _ K K K K K f f _ ) _ _ _ } I K f K ) ) f f K u u e u K f e f _ _ ' ' ' ) ) ` ' _ ) ) ) K ) ) K K u K u u e e 0 q , . q 0 = , O + O   X @ , , q , # , q u s e s s g s H L s L s I _ K L L ' _ } T I L I Y |  .| T Y +.+.2.2.} T  .T Y I Y } H | } } } _ _ } ' L f e K g g L I } } L H K L L f H L L K K f e e e e u K f f K K K K ' _ K K K K K f q e u q e e e K K ) _ _ _ _ _ ' _ g q , q < , , , 0 0 e u u k K K u K _ _ k ` ` _ _ K ) K K K K K L L I K K e e e ",
"u e u K K K K f u e f u e e u f K K ) _ ) ) K K ) K K _ _ _ _ _ _ _ ' ' { _ ) _ _ K K _ ) K K K y 7 0 r e u u u u K ) ) K u y q y 0 = # 0 0 0 e e e e e u u u e u K ) ` ' _ K ) ) u e u k u K _ K K f K K L _ X.#.-.-.-.-.=.-.9.@...{ =.@.@.@.| ..@.{ ` ` ' ` ) ) k u e e e e 0 0 # = , # # @ @ O < L @ # q 0 _ ' ' X.X.@.#...@...| ....@.-.#.@.#.#.@.X.| | } ' K K K K K L K f K u f f f f e 0 0 = # # , 0 , # , # # , = , < q e f L I H K _ ' L K s K K K _ L _ L K K L _ L L } ' _ K f u e e u I I L L K K ` | ..#.7.9.@.=.' K k e u e e e y y q 0 q e u f ' | | @...| ' ` _ ' | | _ I L _ L L ) _ _ _ ` ` _ _ ) K K K K f u u u 0 q 0 0 # K :.@.# @ # = 0 # o # , , #   . y.y.B <.Z z c F ; $ > > l A F B > o - > ; V m z c c Z p.B r.:   e = = 0 0 , , 0 0 @ 7 7 7 0 0 0 0 e u k u K u e e e e 0 0 0 , 0 q 7 0 0 0 0 0 0 q e u f ) K K f K K u y y 0 q e u f L f f f f H K L ) _ ' ' _ _ _ ' | | ' | ..{ ' _ _ | ) u e u k ) ) K e u e e e 0 , 0 # , , # X o # @ # K # @ q # u f s K L L f ' ' _ | | | | X...| | | | X.@.#.X.#.#.|  .@.@.| X.| | | _ L _ | | Y K e s e s s H H d d s s e u f g g g g K I I H H I | | | } } } I ..| ....| _ | .. .| | @.| X.@.' _ _ K I | X.X.X.| _ _ ' ' ..X.X.' ' ' ' _ L f u q q e y 0 0 w q u u K } ........| ' _ _ ` _ } } | _ ..X.@.@.....' ' ' ' _ ) K f e u u f u u e k f ",
"_ ' X.@.@...X.| ' ' X.X.X.........@.-.=.@.=.@.=.X...' ' ` _ ) ) _ _ ) K ) u u u e K w u u e q , 0 u u u u f q 0 0 0 0 0 q w 0 0 0 q e u f u f _ K L _ ) K f u e u u u K f f u k K _ ` | @.@.@.@.=.{ ` ....{ ' { ` _ ) ) ) K u u K u u u f 0 0 0 0 # 0 0 0 = # # 7 0 0 @ O X O   @ @ @ # = # # # # , g X # u # u f K ' ' K ) u K K k u L ) ) K f f K e e y e 0 , , % , # # 0 q , 0 e 0 = # = # , u u u K K K g L _ L } +.| | I | | | X.| I f L _ ' ' _ ..X.@.X.X..._ ' ` ' | | X.#.#.X.' ..| ..#.@.@._ ..' _ | ..' ..@.X.@...` K u u e u u u K K K _ ) ) K u u u k e u u u K _ ' ' ...._ K ) ' ) f K K u u y 0 0 0 0 0 q 0 , 0 , 0 q u u e e , ` -.{ % 0 0 q u q u u e e s     y.u.m F m l V i.l > c l m i c i . - i z z F F z i m y.p.V m .   e e s K K u u u q 7 q 0 e u f e e u u u u u 0 , 0 0 = # = 0 0 q u e u u u u f f e k K K _ _ _ K ) K K u K ) ) _ ' _ ' ) _ _ ' _ X.@.=.#.@.=.-...| X.' ..{ ......@.@.@...) ) _ ) ) ) K e e q 0 0 0 = # # X @ # X   O     # s X O e @ K .._ ..#.X.@.' _ ' ` _ ' ' ' ..' _ L X.K K L K K K L e e K e e s u e e e q q e 0 , , # @ # @ , , # 0 0 = 5 q , < 0 e f L } _ L s f K f u 0 q u e K g K K K f K K g K I } _ L K K f u u K I L _ L K K ' ' | @.$.9.#...` u q w e u e u u u e e e e e e e f K K _ L ) _ K L ' | | | _ L ' ' K K ) ) K K K u u u u u e u e e q q 0 q 0 ",
"K K ' ..| | #.#.#.@.@.@.' _ _ _ ) ) ) K K k e u q 7 = # 0 , # # # # X # @ @ X @ @ @ # @ O @ @ X # y 0 0 0 0 0 q e e e u u K f K K K L K K f K _ _ } | _ f e u K K ) ) ) ) _ ' ) ` _ ) { _ K u 0 0 8 7 = e y 0 7 # # # # # O @ @ @ @ # # # # # 7 7 0 y 0 7 7 # 0 7 0 = # 0 0 0 0 e e y u f u u f e , u , 0 <   # = 0 u f u u e e q q = = # # #   O # @ # # = 0 0 q y u u u K K u e f s f f g K g L L _ _ _ ' L L K K I I L s s I I L L _ I ' ..X.X.@.' _ K K ) _ ' K K _ | ..' ..X.....' | _ _ ' ' _ K ' _ ' ..@.` _ ' _ ' L _ .._ _ K K K f u e u K K K f K _ _ _ K K K K K ) K K u w 0 0 u f q e K K K K K K ) _ ) ) K K u u u u u e y 0 e , f ..{ f f _ _ _ _ .._ L L s #   l a.y.p.Z <.B p.<.i.F F i.m z - o y.V F y.y.i.B m Z F i.Z l     # = o # # # , X o e u u u e 0 , # = # = , q 0 0 q q e e f K u f L L L _ L f u q , y e y e e y u u K ` { ..@...' ' { { ) ) ` _ K u e e q 0 q r 0 0 q 0 % # q = 0 O   # @ = # @ @ @ @ @ O = #   O X   X @ @ # = , , , 0 0 % K O @ u X , e q f L K u e u u u e s u e e q 0 0 q = # 0 X @ X # X # # @ = 0 , # 0 , o @ = , < q u f K K L L L } _ I ..} } } I } } Y } } L K _ | @.$.#.$.@.@.@.#.#.' _ ' | ..| X.$.#.@.| ..@...@.#.#...L | _ _ ..@...' ..| ..' _ ) u u u e e e e u f K _ _ _ K K u u f u f f K K L _ _ _ _ f u u L K e u u e u e q y 0 0 0 e q q 0 , , 0 e e u ",
"u u f K K s K u u e y q = % % = 0 % = O @ = = = 0 7 q y q y u e q q u e e q 0 = # @ X O @ # = = 0 0 0 e u f K ) K K L L L K K K f f K K K K K K g K _ L u u u ) u e e e e q q 0 0 = = e e = 0 y 0 , = 7 q 0 e f K K K _ _ e u u u u u ) K ) K K u u u e u K K ) ) _ ' ' @.@.{ K _ f e 0 0 0 0 0 0 # 0 0 q # # q y q e e 0 0 # # # q 0 0 e s u u f ) _ _ _ ' ......| | ' _ _ L K s K K _ I _ } ' |  .| } ' } ' ' K K ) _ | | | | ..| _ ' K u 0 0 0 < 0 0 0 e k _ ..' ` ' ..| _ ' ' K K K f u K K u f s K f g K K f f K L | L _ _ _ ' ' _ ) ) ` ) K K u e e u ) L _ K f f f f K K K s u K ) _ _ _ ' ' _ K L _ K f ) _ _ K K K K e q e 0 0 0 q < u =.` 0 0 w q w y f f f K ' ,   ; x.i.p.C F c l m i c B F i -   - u.B z z B V m B V V y.y.o                 . O   7 # # = , , 0 u u u u f K K K K K L L K g f K I _ | | _ f e u K ) _ ) _ _ _ _ _ ' ' _ f _ u = # 7 # # @ @ # # O O # O O # #   @ # X # = q 0 0 0 y y y y e 0 0 0 0 y 0 0 y 0 u u e u q e y e e q q y , o q % , %   . X # 0 s e e e 0 0 , # X   O O O O @ , # # % q q u e f L L L ) L K u f s K H H L L L L L I _ L I L H s K K L H g L } | _ ' | _ _ _ _ K L u , e q e e K K f K _ | | _ ..' _ ' _ _ K K _ K K K L K K ' ' K K L L ' L _ | | _ _ K K f K k u e u e e e u K K K f u f u u K K u q 0 , 0 u f e e K K f K K K L I ' _ _ K K f e e e e e 0 ",
"K K L L K s e 0 0 0 q e u u ) _ ' ' ' _ _ | ....{ ` ` ` _ ) K ) K K ' _ ' _ K e e y q y e e e w q y w e u f K K u u f f u e u u f f K K K u e w = 7 0 0 7 7 # # @ @ O     @ # # # @ # q q u L ' _ _ _ { | { _ _ ' _ K K f f _ X.{ | ....` ) K L ) L K f ) K f f u K _ ` ) K ) ` ' _ K f u K K u u y # # # 0 e u u q 0 0 0 e e u f K K u u K K e e u f g K f g f H f f g f K _ _ _ ' ..X. .@.@.| | L L K s y 0 = # # 0 0 0 = , 0 0 0 # < u f K ' ....X.@.@.X.' _ ' _ K _ L _ _ | @.X...' ' ' | ' ......@.@.#.X...' ' | | ..K K _ ' ..{ ` _ ) ) _ ' ..{ | ......| .._ _ _ _ _ K L I K K ' ' _ ' _ ) ' ..L K L u q f f e f K K L L _ _ K K K K f ' q.' , f K f f u f s q < , o   o d.F p.i.<.m - > ; l B y.c ; . l F i > i m m c F B V p.F .   @   O     X @ # = = 0 0 e f K L L K K K I H K f u u u u f f K K u e e e u e y e y q 0 0 = = = @ # @ # @ @ = 0 = 0 e e 7 , e y e e f K u ) K ' K y y K u u e ) u k u u y u q q q k k K ) ' ' ..@.-.@...' _ f e < 0 q y q 0 # # , , # # 0 u e e 0 , # @ X @ 0 q e e f f f f K _ ' ' _ | | ' ' L L K K K K f u u f H H H _ _  . .| Y I L L L K s f f L _ _ _ L _ _ ) f e 0 , q 0 q q s f K _ ' @.@.' ' ..' ' _ | _ K f u u f u K f f f K K K K L k s K L } K K L L K L L K u K ) ) K K u f f ) _ _ _ K K K f K K K K u s K K L L _ ' ' ' _ L L K q u K K K f u f e e e e 0 0 ",
"0 , 0 y u ) ..#.#.#.@.@..._ _ _ L _ } I _ ....X.....' ..' _ _ ) K K K u f u u K K K K K e e e y 0 u u K K K K ) ) ) ' ' | ....{ ' ' ' ` K K ) ) ) ' ) k e y 0 e e e u u e e y u u e e u u u K ) u u e u f K ) _ _ _ ' { _ ' ' X.X.X.X.@.' ' ' X.X.| | X.X.X.| ' ' | ' _ _ ) ) L _ f L _ f u 0 0 0 0 q u u e e u u f f K K K f f u f K f K _ ' ) ) _ | X...@...#.#.#.$.$.@.X.X.| | _ _ _ _ K ) f u q q e 0 0 w e e f u K K L _ ' } | | X.@.X.@.X....._ e K K K f f g g _ _ | ' ' ..' ' ' ' ' ..' ..| ..' ' ..X.......@.#.@.' _ @.#.-.@.....X.@.@.....{ ..X...| ' _ u K K K K ' X.X.....' ' ' ' ' _ _ _ K _ ' _ ' | ..' ....' ..| | ' ' ' ' ' _ ..S.F., e u 0 y e e e q q q q     p.y.<.V c i $ - - ; B F B B A V V m i $ i i z v.N.i.i.x     % , 0 , , 0 0 0 0 , 0 , , q u u u u q u f u u K K K K K ) K K f u q 0 0 0 0 = # O O @ @ O O @ @ # # # @ # 0 0 q f ' { _ _ ` { { { ) ) _ K f K K K | #.X.X.@.@.' _ K ' ' _ _ K _ K g s u f f K f u u f _ ' L K f f u u q e , X   X # 0 0 q , , , 0 e u K f K K u e u K f e e e s K K K K L L f K K L _ | | | | X.#.3.| ..@.' K f f u 0 # o X   @ # = # = # # # 0 0 q u K _ ..X.@.....' | _ K f K f f _ f _ L X.#.#.@.X.| ..| | ..X.@.#.#.#.@.....| X.| X._ f ) | @.#...' ) _ _ _ _ _ ` ' ...._ _ L K K K f K K L I L L _ ' _ ' _ K K ' _ K L K u s K K f K K _ ' _ } _ ) _ ",
") K K K u e q u e e s f K _ ' @.#.@..._ | .._ ) ) ) ) ) K f k f f K f u u u e e e y y 0 = 7 0 0 0 ) _ _ _ ) k u e y e y y y 9 q q # # # O # = , 0 u K u u K K .._ ) ) K ) K ) _ _ _ ) ` { ` ` { { @.#.@.@.@.X.#.@.#.-.' e u u f ) K K | | |  .X.$.#.@.#.X...' L ) ' ' ' | ' ` _ ' K _ _ K K K _ ' ' ..' ' @.| @.| | | _ ) _ L _ ' X.@.@.#.-.9.@..._ ..@.' ' _ ..L f K L e q q q < < , 0 e 0 u f K L ' | ' X.X.$.#.X.#.#.@...L K K ' | L L L L g K L | _ ..| X.| | _ L _ K ) K u K u k K _ ' ....#.#.@._ K K K K K _ ' | ....| ........' ' ' #.9.-.$.@.#.#.X...X.' ' ' _ ) K _ K K u k u f e 0 0 0 q e w 0 y 0 u e y y y y 0 7 q q 0 y u 0 q @ e q.-.q e y , 0 = = 0 0 q s e +   <.a.p.F z i > l m i l B z z l B l c z > ; > i a.B.p.y.x .   0 q 0 q , , , 0 , 0 u K K K _ ) _ ` ) ` ' f ..{ _ ) ) ) ) k e u u f K _ K u e e 0 K u u k K f u e y u u e u u k u k u e e u u K ) K _ ' ' ..' ) ) _ ' ' { | ..' ' } | X.| } | X.X.X...' ..X...{ ` ) K K K s K L u e 0 0 0 u e u q u K K L L _ K f K u u e u f K K L ' ' ) _ _ | X.@.X.@.$.@.| X.X.} | ' K f u u u s q q e q q q 0 q 0 q f f f g f g L | ......X.X.@.| } | } _ ' L g K L L L K K f K ' ' .._ ' _ _ _ _ K _ ' ' ....' ' _ ' ' ' _ L } X.| _ L ' ..@...{ ' ' X.#.@.X.X.X...@......._ K _ _ L L ' @...' ' ' ' L _ _ K K K K K K K K K | ' _ ' ' ` ..' _ L _ _ ",
"K ) ) K ) _ _ ' ) _ _ ) _ _ L ) K u e e K K e u f u u u e y q q e u q 0 0 , 0 e u u u u q w 0 0 = 0 0 = # = # # # # # # @ 7 0 y q e u K f ) K u u u f s s u u L H L K f K _ { ......_ ' ....| ' _ K k u _ _ f L K _ } ' ) { @...@.' _ | +.#.#.3.9.7.#.3.#...X.X.@.#.@...X.@.#.#.@._ | | ' ' ' _ K u K f g _ L L K K _ ' ' | X...' { _ _ _ ) K K L _ } _ L _ ' | X.X.#.#.| #.#.#.$.#.X.X.#.$.@.7.3.#.#.#.#.#.X.| _ K K f K K g _ | ..X.#.9.#.#.| ' ' ' ) L L ' } | ' ' ' _ _ ' | ..| ..' ' _ K K L _ K f ' @.-.9.q.w.D.J.D.F.S.,.9.q.q.:.@._ ` ' ) K f u e q 0 # , = = , O O # # # X # # , y 0 0 7 0 7 # O O     @ # # # # = @ X @ @ @ 7 # O @ u ,.' , e k f K K f u 0 < % q     l x.r.V F Z V Z F V Z l ; - . i c r.Z B B B Z i.m V y.l     # # # , # # # # # 0 u K K K u e e 0 7 0 7 0 0 7 0 = @ @ @     # 0 , 0 u k e e e u L K K K u u K ) _ ) _ ) _ ' ' { ....@.=.=.@.@.X...@...@.#._ q f f K _ _ K | |  .@.X.$.$.#.#.X.' _ K f K _ ' _ | ' ' ' ' L ' L g K ) _ | _ ' _ K | } ..} _ _ K K _ I } | X.#.@.$.#.9.-...' _ | ' _ _ K ' K K K L e u s u q , % q u q s K I I } | | | | 7.7.#.@.#.X.' _ g s g I ' I I L _ L L L ' ' _ ' ' ' ' L K K f u u u u e e K K _ | | ..#.#...L K K L _ L _ | @.X.@.@.@.X.@.X...' ' ..-.$.@.@.....X.| ' ' K K K u e u u u q q y q q 0 = q 0 , 0 0 = 0 = # = , 0 0 = 7 # @ = # # 0 0 ",
"K u q y u f K f e e e e u K K u e q e f K f K L L K K L _ _ _ ' _ ) K K u u u u u y y u q e e y 0 0 0 7 7 0 0 q q y q 0 0 q e u e q 0 e 0 q q e K L ' ' ' ` ` ' _ _ | _ ' _ _ ' ' ' _ L _ _ ) _ _ _ _ _ X.#.@.@.| ' L ) u f K f K K L _  . .| |  .X.X.| @.| @...' ` _ K u u u u u f _ | ..X.| ' ..' ' ' _ _ _ K K K _ | _ _ ' _ _ _ K _ _ } | @.3.3.3.9.7.9.9.9.9.9.9.9.9.3.$.7.#.$.$.@.@.@.O.| | | | | | | | } _ K K u u K u K g s e g s q u u _ @.X.' ..| X.#.#.X.@.X.X.X.X.......X.| X.| _ ' X.-.-.#.7.9.$.7.9.@.X.-.@...' ) ` ` _ ) u q q 0 @ 7 @ 7 0 7 7 = 0 y ) ) _ ` ) y 7 , = # # o O   # # 7 7 0 e e q e e u u k K e k ) ) { ' ) K e @.,.=.K e e e u e q q e u s f #   > p.B l B z i - > B F m ; i   - m y.x > l x i ; > C F o     , , , < , , , , = # @ @ O O @ @ @ # # # @ O @ = 0 e u u K ) K ) K e u u K s s f K L L _ L K K _ ' ....X.' ) ' ..` ' ) u e e u K L K L g L _ _ K ' ..` .._ K }  . .#.+.5.$.#.#.#.X.X.#.#.-.#.@.| ....X...' L ' ' ' ' _ L K f K K K _ L K K K _ ' ' ' | ' _ ) ) f f f u u f I } } _ _ ' | X.@.#.$.7.3.7.3.#.3.$.#.#.3.3. .9.9.3.#.X.X.X.| ' _ K g s u s f K } | ' } @.$.#..._ ' _ ' L _ I } | | | | | _ | | X.X...| X.' ' K u u f L K K } @.-.w.q.F.D.J.F.q.9.-.#.,.,.-.@.` u K u e q 0 , 0 # # @ # # @ # # @         O X @ 7 , = # # = @     O     X @ # # = = X X # # 0 0 ",
"' ` ' ' ......X.' ' _ _ _ L K L K K _ _ _ L _ ' ..' L L K e u ) K K K K K u e u 0 0 w e e e u q e u K k K K ) K K e u f f K ) K K K K ) ) _ ` ' ' _ _ L u e e e y u K K L K f f K L L K K f K ' _ _ I K L _ K L _ _ _ ' ..@.#.X.X.X.| ' } _ H K L K K s K L I H K H Y } L ' ' | X.X.X.| | _ f K K f f K K f K _ _ _ ' ' ' | @.#.7.w.0.C.9.9.9.9.@.$.3.@.@....._ ' K _ u K K u f e e e q q e s u K K _ L L K L f f ) _ _ _ _ K ) _ K K _ _ ' ' _ ' _ f u K K _ X.X.#.@.| ' X.....| ' ..X.....| X.X.@.@.' _ L L | X.#.@.@.....@...{ @.=.{ { ` ` ) ) ) K ` ..` ..{ ' ' K e q 0 0 0 y u u u u e 0 u u f f K K ' _ ' _ _ K K u u e u K _ ` ` ) ) u @.A.) u K K f u 0 0 0 q e q u %   o p.y.l l > - ; > Z Z c i z $ - z F Z l ; > ; ; Z F B h     0 , # = , < , 0 , , 0 e y r y y q q q q 0 0 0 y y e 0 # 0 0 < e q u K L | I L K ) _ K L _ _ _ K K ) _ ' K K L L f K _ _ ' ' | @.#.X.X.| _ K K f K K f K L L }  . .| }  .} } ' | | | ' ) ) K K u q w q q u K ' ' | | ' _ ' L L L L L L K K f K _ L K L _ _ ' ' ..| |  .#.3.9.9.5.9.9.9.9.3.3.7.9.9.3.$.#.#.@...@.| ' ' _ _ I I } | | @.@.| | _ K K u s e u f u q q s q q e u _ ' .._ _ _ ' @.X.X.....| X...} ' ' } ....X.| ' X.#.9.9.9.7.#.X.$.$.@.' @.@.' _ K K _ ) ) u e y 0 = 7 = 7 0 q 0 y 0 e u K _ u u k y 0 7 = # # #   O @ # = , , e u e u e q u k ) k y k ) ` { { ",
"' ' ' ...._ ) K e f f f f _ } } ' ' | ' | | _ _ ' _ L L K s K K K K K K _ _ ' _ K ) L _ L L _ L K e e e u K K K K K K K K f f e u e e f L K u e u u u k ) ) ) K u K K K u u q q e e 0 q 0 q e q , 0 f K K f s L _ _ _ K _ K K L K K K u s u f f K K K K L } | | } }  .#.X.X.| ..| ' L K } ..X.#.#.@.@.-.@.......@.#.#.-.7.#.@...' ' X._ X._ K K f u e q 0 0 0 0 7 0 = e e u K ) _ | $.-.-.#.-.X.| ' L f g f u u K ' ' | .._ ) _ | _ K L L _ L _ ' ' ' X.@..._ @.#.#.@.| | X.....' K f f u s s u f L ' X...' | X.@.-.#.@..._ ` { { ..{ { =.-.q.q.q.,.-.-.@.=.-.-.@.-.@...' ` ) ) K K u f k u K _ { @.=...' ' ' ' ' ' ' ` ) ) K K u e k e , 0 7 ) >.u K K ) _ _ _ _ L _ K K L <   . V i.F l > > z V V l z c c l $ > B V c > > l l F V B N   # , # @ , , , q q , , q u u u f K u f u e u f f K ) ) ) K _ _ ' ' _ _ ) K ) K u u u e y u K K _ K f f K K K K K s f L K f L g f K g s g L _ _ _ ..@.@. .| X.| I I L K g K f s u f L I H H H L } _ _ | | @.#.@.| _ ' K K L L f f K K K K _ ` ' | | | | #.#.7.w.0.9.@.9.3.3.3.#.X.....| _ _ | _ K u u u u 0 u q = e e u u f K K K K f f u u e 0 u L L _ _ K f _ _ L K I _ ..' _ ' L K f K _ K ..@.#.@.| | ..X...' | | X.| _ ' _ | | ..| _ f g K } X.$.@.@.....@.@.{ ..=.@.....' ..` ` _ ) { @.{ { @.@...) u 0 , 0 y q u K u u e 0 u u K K K K ' ' _ ' ' _ f e e e e e K ) ) K ",
"-.9.9.#.#.#.@.X...@.| ` | ....' ' ' K f f K K K u K L _ L K | | ' ' ......L ' } ' ' ' ' ' _ ' _ K K _ K u K f u K u K K k f f K f u e u u q 0 0 7 = # = 0 7 # # 0 # 7 = 0 q q y e e y e u f K K K K L L K f s K f e u q q 0 0 e u u u e K ) K K _ ' | X.@.| X..._ | #.9.#.-.-.#.#.#.@..._ ' ' _ K u f K K u u K _ ' _ ) K s u y e 0 q 0 y q q q # 0 y e e q e _ ' | | X.#.#.X.X...} | _ _ L ' ' | | | #.+.| | | | ..} I ' _ | X.#.| X.#.-.-.-.#.#.X._ f u e u g f u H I } | | @.#.#.@...| @.@.-.-.9.9.9.@.} ..L _ | | @.X.` -.-.$.$.' ' ' _ ) K ) ) K _ K u u u u f u e e e u u e e e u u u u u e y u f u u u e y q y y 0 0 0 , = # 0 e q 0 7 u ~ { | | | ' ' _ L _ K s u e @   : c B F Z B B V V z c c <.B m l ; l m <.c B V V F B B y.. # u u e K K f K L K K q e e e f K f K K g K K e e u q 0 0 0 f K e 0 e e e e u f K f u u u f e e 0 0 0 0 0 0 0 < % 0 , = o q K K f s s L _ L K f f s s s s f u q q e e f f f K g L _  .} | _ | +.X.| X.| } I L K K | | #.#.@.....@...{ ' ' ..@.X.#.X.$.@.' ' ' ' _ f g g u e q 0 7 7 7 = # , 0 = 0 0 u f K _ _ | #.$.$.@.$.X.| | L K L L g g f _ | } | ' L L _ _ L g K L _ _ _ | ' | ....' K | @.@.| ..' ' ..' ' L s u e q s g K K _ } X.X.} X.| | $.@.X..._ ) ' ` { ' _ { @.-.q.q.,.-.=.@.....=.@.@.@...{ ` _ ) ) u u u e u e K ) ` ' { ..L ' L ' _ _ ' ' ) _ ) K u e y u 0 ",
") ) ) K u e 0 u 0 8 0 0 # 0 0 0 7 0 0 0 0 0 = , 0 0 0 y # 0 0 0 y 0 0 0 7 = # 0 4 7 4 0 @ # e , # q u f f ) _ K K K _ L ) K u q 0 0 7 # # # = 0 0 0 q q e e K K L K _ L _ ..{ { ' _ ) ) { ....X.@.@.@.#.@.| | | _ ' | _ _ | ..| ..' _ K K u u f K ) ) ' ' ) _ _ _ | @.-.@.#.#.#.#.-.9.-.7.9.9.-.-.-.-.-.@..._ K u u e 0 0 # q 0 e u ) K ..@...' L ' X.| ' K ) ' @.X.| _ _ _ _ ' .._ _ ) K _ L } | | | X.| ' ' ' ..@.X.X.@.#.3.9.0.$.#.X.L f f K g g K L ' X.@.9.9.9.9.@.X.X.#.9.#.9.q.9.9.0.9.$.#.@.X.@.' @.' ' K K 0 0 K u f f ) _ ) K L ' _ K ' X.#.#.-.-.-.....X.| _ _ ) ' _ _ _ _ _ ) K _ ' ....@.X.| ' ' ' _ L L K K K K K K _ f _ _ ' _ e ^ { K X.$.@.@.' ' ' _ I L K <   b M l z m B B c z l z l z l z i - - ; z B Z m z l c B i.o + e u K f f f K K K f f K f u e e u u e u f f K f f K f e w e q = # # # # @ # # # @ = 7 # 0 7 7 q q u u u e q u K ) L _ _ f L K g s s K e u e q q 0 e e e u u e f K K K L _ } ..@.| X...| | X.7.7.#.9.-.$.#.#.@.} _ _ ' L K u u K K u f K _ _ f f u q < = , 0 0 # q e e e e 0 0 e u u q u ' | | ..X.#.@.@....._ ' L K f _ ' ' | T  .| | } ' _ ' | L L _ _ | X.#.X.X.-.$.$.$.@.@..._ u q e u K g f H L ' | X.X.$.5.$.#.#.#.X.X.-.9.9.9.9.| I } L L _ | @. .) ' ' ' -.X.' | _ K K u K K L L u u e e u u u q q e e u e e e u k e e e 0 0 q e q e q e 0 , 0 0 7 , , # @ # # 0 q ",
"= = # = # # # # w u u u u 0 = @ @ @ @ = = 7 # # 7 # X @ @ O @ # # = 7 0 # @ # # @ O @ @ 0 O # 0 q ) _ ) _ _ ) u e u e q 0 # = # 0 q u e K L L L I ..} } | | ..| O...#.| X.| K ) ) K ) ' ' _ K _ ' ..#.-.=...| | | ....L _ | | ' _ _ K u u e u f K K K _ _ _ _ _ ' ' ' #.| | X.......' ` .._ f f e 0 , 0 0 0 0 0 e q q ) ) ' ' X.@...@.@.@.@...| ....@.' _ _ _ | X.@.@.@.=.=.=.@.:.#.-.=.@.9.$.-.-.@.X.' ' | _ K _ | | ..' ' | _ _ K K K f f _ _ ' @.$.7.-.$.@.3.| K f e e q 0 u f f u f u u u e e e y q 0 y 0 # @ O O # O O # # # = # = , 0 0 0 0 0 e e e K ) K K _ _ _ ) _ ' _ K K f u u e e u K u u q q y u K _ ' ....' ' _ ..' ' K K K K u ) W.-.f L _ _ f u e q 0 # @ #     S V l i ; > z l i l z z i z m z i > $ - - > i ; i c V p.;   0 @ X o O X X , @ @ y u K f ) _ K ) K _ _ L K e 0 7 = # @ @ # # = 7 q 0 w q e u f u f K K I L @.' _ _ K K K _ ' ' | | @.@.#.#.@.} | | ' | | _ ' | X......._ K f u e u u K K L _ L ) K L _ ' #.#.X.@...X.@.-.q.9.9.9.9.:.-.@.-.-.@._ K u e q 0 = # 0 q 0 e u K ' ..#.@.{ | ' K X.' _ K K ' X.| ' L L _ _ _ ' _ _ _ L K L ' ..| | @.| ' | | ' @.@.X.X.X.-.7.9.9.#.X.} K s f u s s H L ' X.@.4.0.-.$.#.| | ..#...@.9.$.-.9.9.#.#.#.| ' .._ ' ' ` g u 0 0 e y u e u K K K f _ _ K K _ #.@...7.-.-.X.@.X..._ ) ) ' ' _ _ _ _ ) K _ _ ..X.#.#.X.....' } ' _ L K K K K L _ K K _ ",
"` K ) ` { { ) K ` K K u u e y 0 q 0 0 0 # # # 0 0 0 y k K e f u u k ) K e u ) ) { { ` ) K K _ ' ' u 0 0 0 0 < 0 = = 0 , , 0 f ' } @.X.X.X.@.| | } |  . .Y I g H I _ | | ..' ' { ` ) k K K K K K ) ) ' _ ` _ K K u e u e u K e 0 0 e e K _ _ | X.@.-.-.9.7.$.@.| ..' K _ ) K f u u q 0 0 0 # q k ) ) ) ..{ @...X.X...' ..' ..X.' | | | | | | X.@.#.#.-.#.-.-.9.-.| _ _ ) ) _ _ K _ ' ' _ K ' _ K g f u u K _ _ _ K K K L _ L L I | ' | ' K K K K K K u u e e e q , e K ) ) ' | @..._ _ _ K f e e u u ) ) _ L e e u q e k y e k ) ` ) ) { ` ' ..' { =...{ ) ) u u u k K ` ) K u q 0 u e y u u u u u u u u K [ _ K K ) ) K k K k _ K K u u e u e @.W.W.# , # @ #     X X X O #     <.<.i > - $ - l i l l l l c m l l i ; $ o - > ; i z r.p.x   X @ O O O   # # , q K K K K ) K e q 0 q 7 # @ X # , q u u K L L L L } X.'  .|  .}  .| } #.| | | K ) ) ) K ) ' _ K K _ ' | @.@...' ' ' _ ' _ K _ _ _ _ K K f e u e u u f K K L L _ _ _ | .._ X.X.' ' X._ ' ' _ ) ` f q e < # # 0 7 , 7 q e e 0 _ ) ' | X.' ....X.X.X...' | ' | .._ _ _ ' ..X.@.X.=.=.=.=...#.#.#.-.X.-.9.#.$.X.| ' _ _ ' L K I ' _ ' L _ I L K g K f s g _ _ ' @.@.#.-.-.X.| | I s e q 0 , u u e u e e y 0 0 = 0 0 , 0 # 0 , @ @     @ O   @ @ @ # # # # , , , = 0 0 y 0 e K K e K K K K K _ _ L f u u e e q 0 0 u e e 0 0 0 q y K L ' ' ' _ ) _ ..' ) u f ",
":.=.=.-.-.q.,.-.@.{ _ f u u u u ) ) K K e K ` ) _ ) { { ' ' ' ' _ k u u e e K ` ` ) ) ) ) u f e e K u f e u L } L L ' ' ' _ | |  .} ' _ L K L | L _ |  .|  .| | _ K K u u 0 7 0 q u u ) _ _ ) ) K k u y e u e u K K ' X.X.| | | | @.| | X. .| @.@.@.X.$.@.@.@.' ' ' ) ) ) u q y u e f ) K K ' =.-.@.#.-.-.-.-.9.9.-.#.$.9.9.9.#.#.#.@.X.X...X.#.X.X.@.X.| } } _ K _ _ f s s f f _ ' X.| ..| X.@.X.' _ _ ..' ' X.X.X.X.X.9.9.#.3.9.9.-._ e q q e u u u f L _ } | _ _ ' ..' _ _ _ L ' @.#.$.#.#.3.7.7.#.#.@.' ' .._ f u ) _ ) @.....=.....' ' | ' ......' ' ' ' } } K K ) K u y 0 0 u u u K k u e u u u k ) { _ k u u u k ) K ) ) k k e u e e = k P.;.) u u u K e f f f u q e     u.<.l z > ; > z z z z c c B V m z z l > > ; > i i c y.i.B   u k e K u u u _ _ K e , , , , , 0 , = 0 , < , K L }  .@. .| +.| } _ _ T T Y I H H H L I } ' | ' _ ` _ ) f u K f u K ) ) _ _ ) _ K u k q y e e u f q 0 0 u u f L _ ' X.#.-.9.9.3.3.X.' ' ' K K K u u q 0 # 7 0 0 0 # 0 u ) ` { @.@.X.@.X.X.X.' | #.#.X.| ' | | | ..| | X.#.X.$.7.7.9.7.9.@._ L K K K ) ) f _ _ _ _ f _ _ K g u u e K _ _ _ K H g f L _ L L } | | | _ K K f u u u e e q 0 0 0 u < K L _ ' ..X.#.' _ ' ' L K u u u K K _ _ _ u y e q e f y 0 K ` _ ) ` { { { @.' { =.@.@.{ ) ) u e f u K ) k K e 0 = y e y e u u u u u u u K ` { K k K K K K k u K ) u K u u ",
"` _ ' ) u f K K ) ) ) K ) K u u u e u u e K ) _ ` ' ) _ L _ _ _ ' ' _ _ ) u u e k y 0 0 0 # # 7 r K K K f u e s K I I L f e e e q e e e q w e e q 0 0 0 0 # , 0 0 e ) ) ` _ ` ' ` { { ) K f K u e e e e u K K K _ | ' X.$.X.#.X.| #.3.3.7.9.7.-.7.#.X.| #.-.-.@.@.X...{ { _ ..@...' _ _ ` ) _ _ ..#.9.q.9.$.#.q.7.-.#.X.#.#.$.-.X.} K f f e f f u u f L ' ....@.X.#.#.| | | ' ' { ..@.| ' L _ K K e 0 = # # q e L } } } ' ' _ _ _ ..| K e L L L ' ....' ' _ L K ) u K u e e e y y e u 0 w q u K K y y u 0 % u _ K ` @.-.9.@.@.{ ) ` ' ..X.....| ' ' { ' { ' X.@.@.| X.| |  .| | | | ....@.' L L K K K K _ _ L u u e y u u ) L u u f q e y 0 # y { @...=.=.=.=...{ ' ......'   . l.F i z z l z z c B B V Z Z <.y.F V Z m l z z l i c V y.F   , k 0 e e u q u q 0 f e f e u g I L H I I Y L } | | _ L L K f f I _ K _ | | } T  .| L u u u e 0 = , 0 y u K _ ) _ K k u u q 0 y y 0 u K K '  .X.| | | | #.| X. . .| | @.@.X.#.X.#.X...' ' _ ) K u e q e u u K _ K L { =.#.X.@.#.-.#.#.9.9.9.#.#.9.9.9.$.#.#.X.X.X.| | X.@.} | | } ' L L L K _ _ s s s f f _ _ ....| | | X.| | L K _ ' ' ' | X.| X.#.9.9.#.3.7.9.#.K 0 < < q u e e f L I } | ' L ' ' _ L L L L K | X.@.$.X.#.#.3.#.X.' ..' _ ..) u u K _ K ...._ ..{ ' ' _ ' _ ' ' { ` _ ' L ' } Y g K K u u q 7 e u e e k u e q y e y e f ) _ u u e y u k ) K ) K u u u e ",
"_ ' #.-.#.#.' _ _ ) K f f K K f K f K K u f K e e f u f u u q 0 0 0 , 0 , # = # q e u y e y e e e , q f u f K _ _ _ K e e e K k K K K e u f K K K e u k K K K K ) ` ) ) K K u 0 q q u k u u K _ _ ' | X.#.-.#.$.$.#.#.-.9.X.q...X.X.@._ _ u u y u u 0 = 0 e e u K K ) _ { ` ` ' K f u K ) K _ _ ' | $.-.9.#.X...' _ _ K _ K K K _ K _ _ _ _ ..' ' ' ' _ ..@.....' ) ) f H f y 0 0 0 0 0 0 0 q 0 q 0 q e u f u f s s 0 e 0 e u f f f u q , q e 0 0 = # # # # # @ @ @ # @ O @ @ O O X # # # # , # @ 0 q e f _ ' ` ) | ....@.) f u q f K K K _ _ ) K K { ..X.' ) ` _ _ | | | | ' _ ' L K K _ ' ' | X...} X.#.@.@.' L K K K K K K K L ' ' .._ _ K ) :.@.K f K K K f f u q q q e   $ x.V l z c m m B F Z F V C V V V Z F F F Z m z m z c F p.u.    y # @ # #   @ # 7 u e K s q q e s K L L f e u q , q q e 0 q , 0 0 0 = = , = # = , = e K ) ' _ ' ' ` { ` ) K k f e u e e e u K ) K L _ ' ' X.#.X.#. .} #.3.3.$.$.7.-.' #.....X.@.-.@.......{ _ _ _ ....{ _ _ ) ` K ) _ ' #.9.9.9.#.@.9.-.$.#...X.#.X.$.X...K s f e e u f e u K L | ..@.X.| $.#.| | | ' _ ' | | _ _ L L g k e , # # # < q s L } L | ) _ K L L ' ' g K L L ' ......_ _ K L K e q f u q 0 0 0 0 y e = # 0 0 f u u 0 0 , < , u _ K _ @.-.9.#...{ K ` ' ......X...' _ ' { _ ..' @.#.X.| @. .|  . . . .| | X.X.| L _ L L K K _ _ L u e e , e e u K K e e u w y ",
"e q e u ) ' ' ' ..' ' _ ' ...._ _ ) ) K K K ' X.#.' @.| ..' | ' ' _ K K K _ ' K K _ ' { ..{ ` _ _ _ _ K e 0 y y 0 y e 0 0 u ' { _ K K K K K K K K u y u u u u e f ) K K u K K K ) ' $.9.-.@.| _ K ) _ ..| | | #.@.| _ K K u ^ k 0 0 y y u ) ) ) _ _ ' ) K _ { -.,.,.:.,.-..._ _ _ ' _ X.#.X.X.....' _ ' ......' _ K ) u ) ) K _ | f f K _ K ' ' ' ..' K ) K K K ) K K f _ _ K _ ' ' X._ X.' ' _ ' _ _ ' ' ..| _ K u u ` K L L K e 0 # @ O @ @ # 7 X @ # # 7 y q q q 0 # 7 e e 0 q e K K f u u f K _ @.@.9.-...K K K f s e u f K _ ' ' f f ) ) ) K ) { { ..` ) ) ) K K L _ K K u K K K f K L K _ ' _ _ ' ` ) f u e e K K K K ` _ _ _ _ ` K _ u ..9.S.K K K L _ ..' .._ L K u   - x.z l m Z <.r.y.p.p.i.Z V V Z Z F <.F F F Z V F c i B y.j.    0 , , 0 0 0 w e w , , f e e K L L L K e q q u u u K K f e f K K f u e u K K K K K _ ` K ) u k e 0 0 0 e u u u u K _ _ _ | @.#.#.$.3.$.#.#.@.@.{ 9.$...X.X.) u u e 0 0 u q 0 0 0 e e u f K _ _ ` _ _ ) u u f K K K K ) ' X.#.-.9.#.X..._ ) L K _ K f f K L ) _ _ K ' ..' _ ' ' _ ....' ' ) K u u K e , 0 , % , # , , q < , , , q u f f u u e q q e 0 e e f f u q < # 0 , q # # o o o   @ @ O O # @   O @ @   O O X @ X # # X @ = q u f ' ' ` ) { { ....K u u 0 u f e f K _ ) f u ) ' ..X.) ) _ K L ' } | _ I L L K K K K I L _ | | } | #.@.@.' _ K e K f K L K f L ' | ..",
"@.| ) ) u u 0 e u k ) k ) K u u u e e e y 0 e e q 7 7 0 0 y K _ ' ' _ _ ) ..' ' K K K K u f u u u e e u f f K K K K _ f K K f K u u u ) ) ) ) u K K L ' ' ..| | | ......' { ' ` ) _ } ' I | _ ' _ f u K u u f K u u u e y e u u y e ) ` ` { ....@.=.-.@...X.' ' { { ' ` ) K K K _ ' ) ' .._ _ _ _ _ L L ' X.X.@.-.-.9.7.7.$.$.#.$.#.#.@.#.@.#.@...#.#.@.$.@.X.| #.@.$.$.7.$.#.9.5.@.#.#.@.` K K f u u u u e y q 0 , 7 0 @ 0 q 0 0 u u e k ) ) ` _ { ` ` ' _ ' ) f f L u L K } X.X...' ..@.-.#.9.9.-.#._ ' L L } @.X.X.| L _ ' ` ..{ | _ ' ' ' { ..{ @...........{ ..@...' ` ..' ` ' ` @.@.@...' ' ' @.' _ ) f u e e e 0 e u u y 0 0 # 7 # 0 7 ` q.) q 0 , = 0 , 0 y u K u 0   z z.z z V r.Z Z Z i.p.d.d.y.V Z Z Z B c c V i.p.i.Z c m r.z.  @ u f ) ) _ ) ) K K L K K e , 0 0 0 0 y 7 , e K ' _ K u u f u u f u u e y e y e e e u K f f f K K f ) ' @.9.3.#.| L K K K ' ..} | | X.' _ K K f e k e u 7 y 0 e ) K K _ _ ' ) K _ ' =.,.q.-.:.:.X.` _ _ _ _ ' X.@.X.X...| ' L _ ......' _ f K u K ) K L | L u K _ g L ' ' ' .._ f K K K K K K K f } I K _ ' ' ' X.L ' ' _ ' _ _ _ ' ..| _ K e q K _ f L H s 0 # +   @ @ O O #   O @ # # q e 0 , 0 # e 0 e 0 < q e K K f u f s g L #.' 9.7.| K f K s u q e s K _ ' ' K f K _ K K K ' { { { ) ) ) f K K L L K f e u s e s K L K K _ _ _ _ ' K u u e q e s K K K ` ) _ L _ ) ",
"X.@.....' _ _ _ K K _ K u e = 0 u u u ) ] ) ) ) ) ) ` @.@._ K ) ) K K K k _ K K k k K k K ) K ) ) e e f f e u u e u u u s f f K K K K ) ' ..' _ _ ) L _ K _ | | | | _ L K ) _ _ ' _ L _ ' X.| @.#._ f K ) ) ' ' | X...X.....@...{ { { { { ` _ ` ' _ u e f K K K ) K K ' K ) ' ..X.X.' ' ' _ ..X.@.$.-.7.9.9.#.X.-.#.7.7.#.#.9.9.9.F.T.S.9.F.~.q.q.9.#.$.7.L K K f f e K K K K u K f u K u e = 0 q 7 # = q K X.@...@.@.@.{ ' #.#.-..._ ` _ ..=.-..._ ' ) K L _ _ _ ' X.-.9.F.w.q.D.,.q.-.-.#.@.' ..u u 0 _ | @.#.$.@.| | K K k u u K K K K K K K K K u K ` ' _ ) _ K ) ) u u K u y e 0 e e q e y y y y e y y 0 0 0 q w 0 k k u 0 0 r 0 0 0 q 0 q y ^ ' ' { ` _ ) u e q 0 , ,   F d.z c F V c l l B c F p.a.y.F Z B z l l z z Z d.y.V m F i..   e 0 e y q y e q u 0 q u s e K K f K _ f K K s u f e u u ) K K f u u K L I ' ..| | ..| } ..' ' ' _ K _ I I L ' I ' _ L q s f e u f K u u e y q e K u q e ) ` ` { ....=.@.=......._ ' _ ' _ _ ) K K K K ' _ ) ' ' _ _ K _ _ K K _ ....X.$.#.9.7.7.#.#.#.$.#.#.3.$.X.#.#...X.#.@.#.#.@.| | @.@.$.#.-.@.| 9.7.@.@.#.X._ K f u u u e u e q 0 , = # 7 = 0 0 , 0 , w e e u K ) ` _ { _ ` K _ _ _ f f f f f ' _ ' X.X.' | @.-.#.-.9.-.$.X.) I K H T X.X.| | L _ ' _ | ' ' _ _ _ _ ' ' _ ..X.{ ..{ ..| ' ..@.' ' _ ..' ` ' _ ..#...X.' ` ' o.' _ ) f e e q e 0 w e u u 0 7 # # # ",
"_ ' ` ' ' ' @.@.| } ' _ L K f K ) ) K ` u y y e 0 0 u u K u q q e K ) ) ) ) k k u e y q = = = = = 0 e u f e e u e e f K K L L K f g K u u u u K ) K _ _ ' X.X.' } | | I K u e e e u f u f f K _ ) _ ..@...' ......@.-.@...{ _ _ _ _ K f K K L ' ....' #.7.-.-.7.-.-.9.9.w.-.F.q.9.-.-.-.....@.#...' ' _ { #.| _ _ _ ' ' _ | | | @.@.@.{ { @.@...' _ _ ) ' K u u u 0 7 7 7 0 y u u K ) ) { @...' ' ' ) ) ' { ....` ' ` ) u e ' _ ) u s ' K u ` u K w q 0 = e K ' ' .._ ..@...` K ' ' ' k K u u y u 0 0 u f f u u u u u 0 0 y e e = y y 0 7 7 0 0 0 0 q y u u e u e q 0 y y K ) ) ^ ) ) u K k ` ` { ` ` ` ) K k u y y 0 0 q q 0 0 r 0 = = # r y # 0 { L _ ' ' { _ ) ) f s K #   v.d.z V y.c i ; > > > l Z d.i.V N l > > > i i l y.y.Z F F y.-   e 0 q e e u u u k 0 0 u s q u u u q u q e s s s K K K K _ ' ' _ ) ) K L K K _ } | } } Y H K K _ _ _ _ K K _ ..' @.@...f f K K _ ' ' ..@.' ..| ....{ { ' ' ' ` ) ) ` ' ) u e u u f K f K K L ` ) K ' | X.| ` ' _ ) ..X.@.-.$.7.9.9.#.X.#.#.-.-.#.#.-.9.9.D.T.F.9.9.T.!.:.-.-.$.-.@.K K K s K f K K y q e u u u K u y , , 0 0 @ # = e ' @.-.' X.X.......#.#.' ' ) ` _ ..#.-...) ` X.K K L L L _ ..#.9.9.w.J.w.9.-.:.-.@.X.@...{ q 0 q _ | X.#.2.O.| | K u u u u u K K K u u f K K k u K ' _ _ ) ) K ) K u u K u 0 e 0 y e 0 q y q y y 0 q 0 0 , , 0 w 0 w K u y = 7 0 0 7 ",
"K _ ......` ' ..|  .+.@.@.@.@.@.O.X.@.@.X.X.@.@...| @....._ K u e e u K K u u f e e y q q u f f f f K K _ ) _ _ ' I _ ' _ K u u u K K K K ) ) _ ......{ ' @.X.| ' | ....{ _ ` ) ^ ) ) K ` ` u u q u K ` ` _ { ......-.9.9.9.,.-.-.q.$.$.-.-.-.9.9.q.9.w.F.q.q.S.,.-.@.@.@.@.@.' ` ' ` ` ) K K ) K u q u u ` K K K ' _ ) K ' _ L K k u K f ) K u u K u k k u k k k ) K K u K ) K K _ _ ' @._ _ k k k u u k u e u y y ^ / ) u e u u g L e y # 7 = # @ # # @ = r y 0 0 = , = = , 0 0 0 = 7 o X X # e q e u u e 0 u u ) ) K f u k f 0 u K K u u k _ ` ' ) ` ....' ..) ^ ) ) ` @.;.o.=.{ ) u e u ) ` ` =.@.=.-.:.@.@.=.-.{ @.@.) y r y r r 0 7 k k 7 ;.9.I ' ' ) ) ) f K f L L +   b.y.m r.y.i > l l l i i z p.i.B c > ; > > > l z V p.i.a.Z p.>   0 , , # @ # # # # , e e e e e q u q u f K K L K f f f u u u u e K K K K _ ' X.X.} _ | | L f u q u u e u u u K u _ ) K ' @.@.| ' X.| | @.#.X...' K _ _ _ K f u K K _ ' ..' @.@.-.#.7.-.-.7.9.9.-.9.F.,.:.7.-.#...' #.#...' ' _ ..#.| _ _ _ | ' ' ' ..| ..' @...` _ #.) ' ' ' K _ _ e u e e 7 7 = = 7 0 y e f ! K { @...' ' ` ) ) ` ' @.{ ` K _ ) u y e K K u u f | u u ) e k 0 q 7 # y K _ ' ..K ..@...` ' K ' e ` u k u 0 0 e # 0 u f u e e e u e 0 , 0 q e # 0 w 0 = # = , = 7 0 q w K e u u y 0 0 0 y k K k k ) K u u u ) _ ` ` ` ) ) k y u e 0 , 7 0 0 = 7 7 7 = # @ ",
"K _ { { { ) ) u u K K L f u e e q , q q e u L _ L L ..' _ _ K K K K K _ L K L ....@.' ....@...' _ u e u e q s s e f u f ) f f K K ' X.X.{ ..{ { ..{ { ' ' { ) ) K K u e y 8 8 7 7 y u u ) ` K ` ` ) ) _ ) ) ) ..{ ) ` ......' _ ) _ _ _ _ ) K k k e u K K K f u u u u e q 0 u u u y 0 7 0 e e y y y w = 0 8 0 0 # 7 = 7 7 7 @ @ # # # @ q y 0 X X X @ @ @ O O O   # @ # # 7 0 q y u u u e y 0 0 r 7 y u y y y ^ ^ u y y L L f u q , # @ @ @ # # = u 0 7 7 # 7 0 7 w e y e q u ) ) ) ` ` K y u ) ...._ _ #.-.#.#.$.-.#.#.{ @.` u y g _ ..#.-.-.=.-.@.-.-.:.q.=...@.@.{ { { ) ^ u u y 0 7 0 7 0 y r y u u K ) ) u u e y k k u 7 7 9 0 0 7 # 8 r u I.q.f K K u f _ _ ' f u f O . u.F m p.y.c z B B V c l l F y.c l ; l Z F <.F F F F F v.<.y.:   , 0 , % , 0 q u u u f K ) K L L _ _ L _ _ K f e e u K K K f K ) _ ' ..' { ' ....' ' | ....' _ _ ) k ) ) K ) ' f u y q u ) ` ) _ { ..{ ..-.-.-.,.-.#.-.9.-.#.-.#.-.9.9.9.9.0.0.q.9.q.,.:.@.@...{ -..._ ' ' ` _ K K ) K f e 0 e u _ K K K ' _ k K ' _ L L _ ) f u K K u u u u u u k u u k K K K K u k K K K _ K _ @._ _ k k k u u k u y y y q y ^ ^ ) e e e e g I u 0 @ = # @ O @ @ @ @ 7 y , , = = = # # , = # = # # # O O = y , e e u q e e u K ) f u u u K = y u u u y k K _ _ ) { K ' _ ' { k k K ) ` =.;.{ =.{ ] u y u ) ` ` o.o...=.:.{ ..{ { { ` { ) u 0 r y 8 r 7 ",
"' @.@...X.....{ ..@.@.......' ......#.#.@.@.X.@.@....._ f u e e u u u K ) _ L K ) K u u K u k e u u ' K _ _ _ ' ` ` ` @.@.' { { ' { k k k k K K ) u u u u y y y 0 y 7 7 7 0 0 0 0 y 0 q y q 7 q e = 0 0 # # = = @ 0 X X X     # O O O @ X O O O O   O @ @ @ @ @ @ @ @ O O O O O # X O O O # = = 7 0 7 7 = 7 # @ 7 7 # # # @   O @ @ 7 O @ 9 @ # # @ # @ 4 # @ * = 0 u 7 7 0 y y r u e 0 7 7 7 8 0 0 0 0 7 = # 7 7 @ # # # , # 0 0 y q e K f ) ` ` ) ..X.) e u ` ..' ..@.{ ` @.q.9.-.,.-.=.` ) ) ' -.,.-.=.{ ) k u e q 0 y 0 u y 7 0 0 u y r 0 e u y u e e k u y u y 0 = 7 0 # = y 0 7 7 0 8 0 7 7 7 7 q y 9 7 # = # = 7 7 7 # 7 7 7 # # @ @ @ ^ q.-.g K f u K ) ) ) u e u   ; m.B Z d.a.p.i.m z z V <.B r.i.z B V V m z m <.y.r.F F c.y.s.-   0 L K K K _ L L K q u q q 0 e s u u q e f e e k f _ ........{ { ' { { ` ' _ ` ) ) f K e y q 0 7 = = 7 y y K u K ) ` ) ) _ ) K ` ....` ) ' ......` _ _ ' _ _ _ ) K f k e e K K K K k k u u u e 0 f K u y 0 0 = w y e y 0 y , = 0 7 , 0 # # # # 7 = X O @ @ @ @ 0 0 7 0 O X O O O @   O X X O X # # = , q 0 u u e u 0 u = 0 7 0 y 0 y 0 y ^ u y 0 u } K s e , = # X O X @ @ # e 7 7 # @ # 0 = , 0 0 y 0 y K K K K ) ) e 0 u ) | ) ) ) #.X.#.#.$.-.#.@.....` u 0 f _ ..@.{ @.-.@.=.,.q.-.q.-.=.:.{ { @.{ ) ) ^ u u q 7 = 7 7 7 q 0 r y u K ) ) K u u u u u k 0 7 4 7 0 0 # ",
"K K K ) ' _ _ _ L _ _ f K ) K u f e K K k K k K ) ) K K u u u e u y u k u y 0 0 7 7 7 7 7 # 7 # @ # 7 = 7 0 0 e 7 y u u e k 0 7 7 r 0 0 0 0 0 y e 0 # = = # #     @ @ @ @ @ @ @ X X X O O O O 7 r 7 @ O @ 9 7 7 @ # # 7 7 # 7 7 7 # @ @ # = = 8 y 0 y y r 0 r 0 7 0 0 0 y y y y ) y 0 0 0 0 q y y u y y y y q y u y 0 0 7 9 7 0 r y y 7 7 r r ~ k ) y y ^ u u ) ) @.' ` u k ) u r y y r y 0 7 7 q y q y 8 y 0 0 K ) _ { ` ....@.#.-.-.-.-.9.9.-.-.-.@...' u u ` ' ` ` ' f y u _ K u K K u y 0 y u u K _ ` ` ` K ) { { { ` { { ` ) ) u e y u k ) ) ) ) ` ) ) u u y y k y ) ^ u u u y y y y y y e e e e u u u k k k u y 0 0 0 7 r r 0 0 y 7 0 0 ) ,...f L _ _ ` { _ _ ) ) )   c b.Z F d.F <.z i $ o . c F N Z c p.p.c $ - $ ; c V F y.i.<.y.A   # e e e 0 = 0 w y u L ' ' K _ ' _ _ _ { @.' ` @.' ' ) u k u u u K K K u y e y e y , 7 @ = = 7 = 7 7 0 0 0 0 0 = y y = # 0 # 0 @ # @ O 0 O O O     o     O             @ O O @ X O O O O O O # O     O O     O O # # # # 7 @ # @ # @ O @ @ O @ @ O     O O @ O   # @ O O @ O O O @ O @ O @ = y # @ 7 0 r 8 y y 7 = # @ 7 0 7 0 0 # 7 # # = @ @ @ # # # # = 0 0 7 q u u K _ ) K ' | y y y ) ' _ ' #.{ ` _ 9.9.-.,.-.-...) ) ) ..=.q.:.#.' K u u e 0 0 0 7 y 7 = 7 = r y r 0 7 7 0 y k u u u y 0 y r 0 = 7 # @ @ 0 7 # = 7 7 7 # = 7 # 0 0 7 = # # # @ # = = @ @ @ = @ @ @ ",
"0 u = e ) u u u e y u u u k u e u u k u u k u u u u u e , # = = 0 7 q u e q 0 0 0 7 0 0 y y 0 e k 4 O O O O O O O @ @ @ # @ @ @ # 4 # O @ @ @ 0 k u # @ # @ # 7 0 y u y q y y 0 7 7 0 y u u 0 u u 0 0 # = 7 @ 7 7 y r y y 0 r 0 r 8 0 7 7 8 7 r r 0 r y r y k u 8 0 e r 0 0 y y u 0 0 0 0 8 0 y q y e u e u u u y y y u u u y k ^ ^ ^ u u u u ) ) ) u e u u e y 0 y y 0 7 y u y u ) _ _ _ _ ) { ..@...{ ` ` ) ` -.-.-.-.X.@.@.` e u e y k u K e e w u u e u u u e e k k u ) ` _ ` ) ) _ ) K ) ` @.{ ` { ' K K u u f u u 0 0 w , 0 q w 0 0 0 y 0 0 0 0 0 , 0 = 7 0 0 y 7 0 7 # 7 7 7 0 7 0 0 0 y y 0 0 0 7 0 0 = , , 7 = 7 = = 8 7 7 = 7 # 7 @ 0 -.=.u e u f u u u f f f 0   V p.y.Z d.B l l z - .   i F B B F d.B > - $   $ i c F u.B Z i.F     @ O # @ X @ @   @ = = = # # 7 7 y = y u e 0 0 , y q 0 e 0 = 0 e q = # # # @ @     O O O O O O O O O O O       @ 0 = @   O @ 7 = @ O @ @ # @ @ # @ # O O O O @ @ 7 7 = 0 0 y 7 0 7 # 7 7 7 0 y 0 0 k u 7 7 0 8 0 0 q y u 0 0 0 y 0 r u y 7 7 7 = # 7 7 0 0 7 7 7 8 y r ) u y y u r k ` ) @.` ) u ) ) u r y y 0 r 0 = 7 0 0 0 0 y 0 7 # y u K ) { { ..| X.$.#.9.-.-.9.#.-.#.@.-.@.{ k k ' { ' { .._ y u ` ) K K ) ) e y 0 0 u u K _ ` ) ) k K ` { ` ) ' { ` ) K u y y u u k k ` ) ` ) ` K u y 0 y u u ) u y y u y y y 0 r y y y y e e u u u k k u y 0 7 0 7 7 0 r 0 7 0 ",
"{ ..{ ) ` _ ' ) u u u ) { =.=.@.@.[ u u ) { @.;.=.{ ....` ) k K f u u u 7 0 r 0 7 7 7 y u u k ` ` y O @ @ @ # @ O @ = 7 7 = 0 u { ` y 7 q 0 8 r k u 7 @ # 7 0 y u u y r r y y 0 0 7 7 7 q 0 7 7 7 0 7 7 0 0 0 8 8 0 0 7 7 = 7 7 7 7 7 7 0 7 7 r y y r 0 r y ` ] u 0 e y u u u u u u u u u y u ^ u k u ^ ^ ~ u e r 0 0 7 8 y r r 0 r r r 0 7 q u y y u k K ) K ` ' @...@.{ ..=.{ ..-.-.@...{ ` ` _ ) ) ) e y e u K K ' _ ) { | | | { @.-.-.-.@.{ @.@.=.@.-.@.@...` ' ..' _ ' _ K ' _ _ ` ) K u K ) ) u K K u 0 e u k K K K _ K K _ ` ' K _ K _ ) K K K K K _ L K ) ' { ) ) ) K _ _ ' | | ..X.| | ' _ _ L ) _ K K L L K K K f K | ' L K K ) ) K _ ,.=.y = = = 0 @ # q 0 e 0   y.B y.y.d.m i c z l >   y.F C B i.v.p.x l > . $ ; i B F z V p.z.    0 # # 0 # = 0 y O                   O @ @ O O @ @ @   O O O @ 0 u = O O O O @ # 7 r 0 0 7 0 7 7 # @ = 0 y e 7 8 u 0 7 @ @ @ @ @ @ 7 0 8 y r 7 0 7 0 = 7 # 7 7 = 0 7 7 0 y 0 7 u y 7 7 r 0 = 0 0 r y 0 7 4 7 = = = 0 7 0 y q 0 y y y 0 0 r y y y r u u u u y y y u u ) ) k 0 y u r y 0 7 q 7 = # 7 y 7 0 f u f u K K ) ) ' { { ` ) ) ) ..-.#.-.#.@.@.{ K w e q q u u u e e 0 e y 0 0 0 y 0 , y e y e f K K K u k u u u K ` ..) ) ' _ K u u e k u y 0 0 0 = # , 0 , = 7 0 7 = 0 7 0 , 7 = # 7 = 0 0 # 7 # # # @ # 4 # = 7 # 0 0 = 0 # # = # = = = # # @ @ O @ 7 @ @ @ @ ",
"-...q.:.-.,.=.@.@...@.{ { ` ) ^ u y 0 0 r y u ) ) ) { =.-.o...@.@.{ { ` y r y r y 0 0 u ) u k y k y 0 y 0 7 y y y y u y 7 7 r r y 7 @ # 7 # # @ 7 0 7 0 y y y y y r 8 7 r 0 0 y y r y y y y y 0 0 y 0 0 y r 0 0 y e y y r r r r r y r 0 q y u u u u 0 0 0 0 r y r 7 7 7 0 = 7 7 0 9 7 7 0 9 7 r 0 0 r y y r 0 0 7 7 7 7 r y r r y e y u k k ` { ) K ` _ ) ` ` ) ` ` ^ ) r y y y e e y u u u u u f u e K _ ` ` { @.@.@.@.@.:.@.{ ) k u k k k y q e w q e ` f 0 0 0 0 q 7 0 u q e u e u K K K ' ' | @.@.| ..' _ ..$.@.9.0.9.9.9.$.#.=.@.@.#.@.@.@.#.#.X.@...-.X.| ' ` ' ) K K K L L _ K u K K ..@.K ' ` @._ ) _ ` ' ` ) ' ' _ _ ' _ _ ) ) u u f ) ,.=.y f _ f ) K f f u f , . V l c V i.m i m B c i . V C Z c <.p.i.r.C l m l i i m Z l z B m.-   O @ 7 0 0 e _ ) 0 O O O O @ O O O O @ # @ 7 e K ) k 7 r r 8 7 y ) y @ O # # 8 e k k u y y y y 0 0 7 0 7 0 r = 7 7 = 7 7 7 8 7 7 7 0 8 7 7 * @ = * 7 7 7 = 7 = 7 0 y r 7 0 0 y ) ] u 0 y y y u u u u y u u k y u k ^ k ^ ^ ) ) ) k u r 0 r 0 8 r r y 0 y r 0 0 0 0 e y y e e u K u ) ` | ..@.@.{ @.=.{ ..-.,.,.@.@.{ { ..' ` ' k y e u K _ _ | K ) { | ' ' { @.#.-.-...{ @.{ @.@.-.-.@.@.' ' @...{ ' | _ ' .._ { ` ) K K _ ' K K K K e 0 e e e u K f K K u K u _ f K f ) K f f f K f K K K K K ' ' K K K K L L I | } ..} L _ I K K K g K K f f H K K K K f L } L K K f ",
"y y u u k k u u y y 0 0 7 = 7 r 0 4 7 7 7 7 # 7 7 7 y y e y 0 0 0 y u y 0 7 7 8 r 7 = 7 7 = # @ @ # 7 7 # @ 7 # = = 7 # # = 7 7 7 7 7 7 7 @ @ @ = 7 7 0 7 7 0 0 0 7 7 = 8 7 = = = = # = 7 = # @ @ 7 7 = 0 7 7 @ 4 0 r 0 7 7 # 0 0 7 0 7 0 y y 7 7 8 0 r 0 7 0 0 0 0 y u k u u u u y y u k k u u y y y y u u u u u u e u y y y y r 0 r q y y e e e 0 e e y u u u K u u ) _ { ....' ..@.@.-.=.@.@.-.{ K { ....{ { ' ) ) ) _ _ K u 0 u s f K L L L } _ I L ` _ _ | |  .X...X.#.#.#.3.X.#.$.7.7.-.9.-.X.' @.` | ` ` ' _ ' | _ ' ) _ u k k K ' ' _ K L u u e K K y e 0 0 0 7 = 7 7 = = 7 # # = 0 0 y 0 7 0 u e y q e y q K u e e u y 0 0 0 0 = = = q ..=.' ....@.@.@.@.X.' _ @ . A i l z y.p.V F V l - > i.B Z c z F p.i.A ; z <.d.a.i.z i l z v.b   0 = 0 y 0 y u u 7 = 7 7 = 0 8 0 0 0 0 # # q 7 8 7 @   @ @ O O @ 7 # # 7 8 7 0 0 0 7 # @ 7 7 7 7 0 8 7 7 0 r 8 7 # 0 0 7 0 0 7 7 7 y r 0 0 9 7 = 7 7 0 7 7 0 7 r y y y = 7 7 7 0 y 0 # # # 7 # # # 7 # # # = # # # 7 # 7 0 7 0 = # # @ @ @ @ 7 9 9 = 0 0 0 y u y u ) ) y K K ) K ) ) ) ` ) u K 7 0 q 0 , 0 0 e e w , 0 e , = y u u u K ) ' ' | ....-..._ K u u u u u 0 0 e 0 0 y _ u , 0 = = , # # 0 0 u q 0 , q u u e f K L } _ _ ' K K ' X.| 9.7.-.9.7.-.#.@.@.X.X...X.X.X.#.#.@...@.-...| ' ..' L K K K L _ ' K K ' K K ` ) ' ' @._ ) _ ` ' ' _ _ ..' L ' ' _ _ _ K ",
") ) ) ) ) ^ u y y u y k k y y k u y y y y y 0 y y y u y 0 y y r = 7 7 7 # 4 7 7 = 7 7 7 # 7 7 7 7 7 0 0 # 7 7 7 7 0 0 = 7 @ @ @ @ = @ # @ 7 7 # = 7 8 8 7 7 7 0 0 7 7 7 0 7 7 0 r 0 0 0 y e e y 0 y y y u u e y y u k u u e y k u 0 k u u ) ) ) ) ` ' @.k k ) K e 0 u y y 0 0 7 0 q y 0 q 0 0 0 7 7 0 7 r e y r y y y r 0 0 y y e u k k ) K ) ) _ K ) ) ) u y e k y y y y u u 0 , e e u K u e e K K u u e u u u K K K K ) L L I _ | | X.| X.X.X.9.7.#.#.X.#.#.#.@.@.#.@.=.-.#.X.X.` _ ..' ' ) K y y y e 0 0 4 = = 0 q 0 , 0 0 @ # 7 0 0 y q 0 0 0 0 = # 0 , = = # # 0 7 = = 7 7 = = = 7 0 0 0 0 0 7 7 = = # @ # X X @ @   @ # # # @ # # # # @ 0 { { 0 0 = 0 0 y 0 0 q u   o F i z z m r.c B i - o l i.m B l i > p.i.B > - > V y.l l l l z v.n     X # = O @ @ X # 7 7 # O = # = = 7 = @ @ 8 = 7 7 7 7 8 * = @ @ 7 7 8 0 8 0 r r 8 7 7 7 r 7 7 = 7 7 # 7 7 7 7 @ @ = 7 = 8 0 # @ @ 7 0 0 = # @ = y 8 0 0 7 7 y y 7 7 0 0 r 0 8 7 8 0 7 0 y y y y y y e y y u k k u k e u k u k u k u u y u u u y k y y u y y u y u k u 0 e e u u k u u ) u u ) _ { @...' @.@.@.-...@.-.-.@.` ..-.=.@...@...` ' { ' ' K e w e u e g g H L I I H K ' _ I _ } ..| | | X.X.X.$.X.@.#.$.9.-.9.#.@.#.....{ ..' ' @.#.X.@.K K g K u K u K | ....L _ K u e u K f u q q 0 7 # = 0 = = = e 0 # e 7 0 q 0 5 0 u e q q e e y q e e e e e 0 0 0 0 , ",
"q 0 0 0 0 = 7 0 7 y 7 r 0 = = 7 7 7 7 7 7 7 0 0 q 0 q y y y y u y 0 0 0 7 0 0 0 7 0 7 7 7 8 7 7 7 # = = @ @ @ = 0 0 y 7 8 7 = 7 7 8 8 0 8 r 7 3 7 7 7 8 8 7 7 0 k y y y u q r y 0 0 0 u ` ` ` ` ` ) K _ { _ k e q q u f ) ) ..@._ u K u u ` =.@.X.@.' @.` ) ) u 0 0 u r r 7 y k ) ) X.@...) ) ^ k ` ..K u u y u k k k ) ) ^ y e e u u u K K K K k e y u u u e e K K ' ' _ ) _ ' _ ' _ ..X.@.| _ ' | ' ' ' ....X.#.@.#.| ..$.9.9.9.9.9.@.| X.| L _ L g L K K u y q , , # = # = , 0 q q q e e = e 0 = 7 0 7 q u f u K ) _ ' ' ' ` _ _ _ _ ) ) K u u K K f s K K K K K u K K _ }  . .K ' L L L u K _ ' ' ) u u e e u u u u e e e e 0 0 y q 0 y q e { -.y y u u u u K u u 0 . - d.l l c l l > > - $ - z F m l > > - V p.l > - - ; > ; l l z V m.:     O O O O O X @ # # # O O @ @ @ # # O @ O O O   O O O O @ @ O O @ @ 4 # @ @ # # 4 @ @ @ # @ # 7 = = @ = = 0 , = # # 0 7 0 r 7 = = 7 w q q y 7 0 0 = = y 0 0 u u y u u u ) K e u u 0 7 0 y r 0 0 = 7 = 7 = # = = = 7 @ # # @ 7 0 7 7 7 7 7 # # 4 7 = = 0 0 0 e y y e u u e u u e 0 0 0 u 0 0 0 q y y 0 # 0 0 y e e < 0 u f , 0 0 , = # e 0 q u q u u s s g L I } } | } | #.@.| X.| @.X.@.@.@.@.@.#.-.$.#.' | ....' _ ) K f e q e y r q 7 # = # , 0 0 0 , # O # o = 0 y 0 , , , @ X = = # @ @ X # # # X # # @ @ @ = # = = # # # # @ # # # O @ O     X O   # # @ @ @ @ @ ",
") K _ K _ _ K ) ) ' ) K u K K K K _ _ ' L K K f u f q e y 0 0 y 0 0 8 0 7 8 0 7 8 0 8 0 0 y 8 r y y u y ^ ^ u u u u ) u e u ) ) y y y y 0 0 0 r k u e y 0 y k ) ` ) ) K ..u y q r ) k u { ` ` ..` ) [ ..{ ..{ ` ) ` { @.:.-.` _ ..@...) { ` ` ` u u e u u { { k ] [ ] Q / ^ ^ { ,.,.;.@.{ y k u u ` =.` ) ` ] [ =.;.;.o.=.{ k u K u k K k K k K ) ) ' ..' ' { { @.-.@.X.@.#.#.9.9.-.9.-.7.-.X.{ ) K ) ) ) ) ' { ' _ _ f ) ' #...@.' K f 0 e 0 = 0 0 , 0 0 e f L L _ ) ) ' ..| | ' _ _ { @.@.| | ....| ..' ..X...@.X.X...X.X...' _ ) _ { { ` ' ` _ _ ` ..' @.@.....@.$.#.+.+.|  .|  .' K K f e k K ) K u u u u e u u u k u K K K u e 0 = # # # e :...0 0 = = = # # @ # 0   M v.F z B l l > i > ; > <.y.c l i l ; c F l > > ; > > i l c i.p.c.c . # # @ @ @ # # # # 7 7 @ @ @ = 7 0 y 7 7 = @ 7 # = = 7 7 8 8 7 7 7 7 0 r 8 7 7 y u r 0 y u r 0 y y q y u ) k k ` ` K K K _ ' ) u y 0 y u u ) ) ' X.) u K u u ..-...,.#.@.=.@.) ` K 0 0 r 0 0 = 0 y u K K { o.{ ) ^ u k ' { k u u y u u k k u k ~ y e u k k k ) ) ) ) ) k u u K u u q e K K _ ) ) f K K L _ _ | | X.' _ ..@...' ' ..X...#.#.$.@...#.3.@.9.9.9.7.X.X.X.| | ..K f g u K f e e q 0 # # # # @ # 0 e q q e , = O O O @ # # @ 0 e 0 u f K K _ K ) K _ ) ) f f f e w f f u e u f u f u 0 L K e K K I ' L H g K K e u K _ _ f e e 0 w e e q e y 0 0 , , # 0 0 , ",
"#.X...' #.#...| ' .._ ) ) K ' ' ..' ' ..' -.#.@.....{ ..' _ _ ' ' _ _ ) ) ' ..' _ _ _ ` ' K o < f f ) { { =.@.` u w _ ' K K [ { ` ) ` ) q 0 q K #.-.' ..u u } | K u K u #.' u , w | 3.f X.u _ #.#.L f } | -...K ) ) u ) { ) , 0 _ | K u ,.f u -.u 7 7 r 0 { K = K _ u q X.#._ #.@.K ' ..| K @.$.s f #.} _ K # q s #.g # u f ) { =.u _ ) ) @.K _ _ u K ) 0 # K e u ) u y 0 u u ` ) 0 K 0 u K e u u u ) _ ) k 0 u e y y e u u ) u 0 q e u u q e ) ) _ f _ _ u f u 0 K _ ) f K _ K _ -.-...) _ ..@.' _ ' @.` { ) u u k u e k u y e 0 0 u e e e K _ ) ) ) K K f u e e u f s K G u e u e e q 0 = # 0 y 0 0 0 q y w , e u 0 0 q e y e k u e e e e 0 u =...y k f e u e q 0 u q   z M.B.B V z l i i > > V p.c l z c m > - <.F l - > > > l z F p.u.p.c     # @ # # @ # 4 = 7 7 7 0 0 q y 0 u y y 0 y u y 0 0 r 7 = = 7 @ 7 4 = 9 0 7 0 u ) ) u K K e r 0 0 0 y r ) { ) { { ) _ _ { _ _ K ) K ` ' @.-.@.' _ ' ..{ ) K ` K u e k K u e ) { k k ) ) u u y u ] { -.q.-.{ ) y r r y { { u u u u { { o.@.@.@.{ u q y e e e u e u e u u f L _ _ ) _ _ X.#.X.#.X.#.#.#.9.9.#.$.$.#.X.' K f K ) K K _ _ _ _ K f u _ X.-.@.X.' f u u q , 0 = # o , o % 0 e u e e e f _ L I _ u K ) _ ..' L L _ ) _ _ _ _ ' { X.X.X.....X...' _ _ _ ..' { _ ) ) _ _ ' ' ' ..' ..| X.$.|  .+.+.+. . .| L K K u u K ) ) u u k u u u u u k K K K K u e 0 , = ",
"u k q u K e u u q r 0 0 0 0 0 u y u u 0 e ) e k ) u ) K K ) _ ) K _ _ _ L _ K K K k e e u e   < K e y ) ) ` ] ) e 0 ) _ u u [ { ` ) ) K q , 0 u @...u ) e q _ ' u q K < ' ) q # 0 K | u @.f ) X.@.L s I ' -.=.K ) _ u ` X.' f = K _ ` K 9.k e :.u 0 8 y q { K = K ' e 0 ' | u $.#.L | ' ' u 4.| f e X.} L g , 0 q | H # # K K _ ' e _ u e ..0 K K 0 e K @ @ K 0 u _ u y , e e ' ` q # =   0 e f u u ) ) u u 0 0 u u e K f ) { y 7 u e k u y e K ' _ u K ) 0 u 0 X u ) ) 0 u u 0 f ....{ u f { .._ u s ) K ' ' y 0 # r e y r # @ # u K u u k ) | { ' ' ' ' ' _ _ ` ' ' | ..| | ' L _ K _ _ _ ) _ _ ` ' ' _ _ ) K _ _ K K u K K K L K K K K L K K =.-.L ' ' } ..' _ L X.f   l a.m.y.m l l l z l F p.m l l z m F l ; - u.y.l z l c l c p.u.y.p.c     k e u f o # < s e ) [ [ { ) K 0 e _ K u ) { { ) k ` f < , 0 f #.-._ ' f 0 L ' f e f e _ ..f 0 X u | K g _ 0 _ #._ K s ' _ =.{ f K ) y ! ` ) 0 , K _ ) 0 ` { 0 { ) 0 = 0 7 u ' u q ) L q e | | K #...L _ _ L q X.| s e ..' L L < q e  . .e # u K K ..K e f s L ' e ) K e K _ 0 # K q u ) u e f K u _ { ) , _ e g e u e q u ) K e u q e u u e u u k ) u # 0 0 e u 0 , q u K e u K g s K e u ` ) ) K _ ' _ _ -.@.` K K ' | | _ ' ..) _ ) u q 0 y e u u y q 0 0 e k y e u ) _ ) ) ) K K K f g K K K g H K s e u e u 0 0 = # , y 0 0 = 0 q 0 0 0 e 0 = 0 0 e u u u e 0 0 ",
"0 0 # = 0 , = # # 7 = # @ # # # # O # # # # # @ X 7 q 0 0 0 0 7 0 w 0 0 e 0 0 0 7 , 7 = , # O q | K y ) ) { [ ` u e ) ` u k ` { _ f ) K q e e f ,.@.u K u f ' #.K q f < ' ) e X 7 ) | f @.K K | @.X._ ..X.,.:._ _ ' u { @.' f 0 u _ @.K -.k y @.u r 0 0 y @.K = f ' q 0 K { u #.#.I @.' ' K 9.@.K q } #.I L q 0 L #.} , # _ _ ' ' u _ e u .., f _ q e _ # @ K # u ' K e 0 e K @.' e 7 0 @ 0 u f u u ) _ u K y q f e e K f ) ) q q u u u u 0 q K @.' u _ K 0 f e , K ' _ u u e = k { ..{ K K ..$...K u u f ..=.) e 0 K ) u e 7 4 @ u u y 0 y q 0 0 0 y q u ) k u ) k K K K f k K u f f K ` ) K ` ) ) ) ) ) ) ) K u u u e e e u e y 0 0 0 , 0 , e =.:.L K K f e 0 0 u u o . B F N.d.c Z Z F <.F i.B l B z m B y.B i . o i.<.y.y.y.F Z p.y.y.y.>     , # , ,   # s K 0 ^ [ { { ) K 0 u { ) e ) { { ` K ` f q , 0 u =.#.u _ u 0 _ | ) 0 K q _ ..u , @ K 0.K _ X.u ' $.| L u | | 9.@.) _ _ u ` @.| u # u ' ..f -.{ e -.' y 7 y 0 K | e , L _ q q | | f 9.#.L | ' | f 9.3.K 0 | | H I , , s | R <   0 K K ..f u _ e ) ' 0 L K # q ) q , K , e ` u e # 0 0 ) ' u O ,   @ 0 u u e k ` K q u # 0 u e e K u ) { y # y e K e e w ) _ ..f f _ e 0 u @ # K K u , u e 0 K -.X.{ u K { @._ u f _ _ ` { u 0 @ 7 y y y 7 @ # @ e u 0 u k _ ' _ _ K _ K K K K K K K L _ _ L K K K K K K e e K K K K K K K u u K ) K e u e u u u K K K K ",
"K K K f K _ K K K L K K k f e L K f q f k e u u u e y 0 0 = = = # # # # # # # # , # # 7 0 0   # f u q ] { { ) ) u 0 ) ) u K { { ` u K K 0 e q f =.@.f f u f _ #.K 0 ) e ' ) q @ 4 _ @.f | K f | | _ _ | X.-.-._ K K e ' ..) q y _ ' ' q ' e y -.K 0 0 0 y ..u @ f ..q = K ..u X.@.} ..K ' K #.+.K 0 L | I _ q 0 q #.H , # ) K ' _ u K 0 u ' 0 f _ q e _ # @ u # u ' K e q y e @.` 0 4 0 # 0 e u u u ) ) e K 0 q f u e u u ) u @ 0 u e e u 0 e K .._ u _ e 0 u u # u ) K q u y # e ) ..{ K f ..-.#._ q e K ' { u q = _ ) k y 0 0 @ u ' ) L K K K u f K u ) ` ` ` _ ` _ _ ) ' ' ' L _ _ _ | ' } | ....X...' ) K f u e 0 0 q 0 0 0 0 , 0 0 = 0 = u { ^ , # # # @ O   # # #   l B y.m.p.r.Z F B m V x i m i B B <.B z i - $ m c m V <.i.u.y.y.y.l     0   X @ O @ f f # u ) ) ] ) u = 0 ) K 0 u ) ) k q K u , , 0 u @._ q s u q K ..K = u , u L e o   q | u g ' e g | ' _ e ' _ @...f K ) 0 _ { _ u   u f | s ' _ # { ' e # 7 # u { w # K K # 0 ) L q ..} s } L _ e } | f % L  .H L 0 = o I  .s   q _ K ' e u f , u _ # f f # q K @ O u @ 0 ) u q @ 0 0 ) _ u O 0   # , e e w e ) K 0 u # 0 e q e u u K K 0 = u q e q 0 , f K ' u f K 0 , e = = ) _ f , u , # u ` ' _ e f ' X.' u e q u ) X._ y # y k e e # @ @ O q f q u y e e u u u K ) _ ) K _ _ ' ' _ _ _ ) f K K K ' _ _ ' _ ) ` _ ` ` _ K K K f u e u e u u e 0 0 0 ",
"_ _ { { { X.....| $.@.| #.#.+.#.@.O.' L K u ) ' { ' ) K u u K K f u u u u u y 0 e e y y e u   = u f u [ [ { ) ) u 0 K ` k k o.o.` K ) K 0 e e ) q.X.f K f u _ X.K , K q | L y # # _ 7.K ..) K ..X.H } X.@.=.#.@.@.^ y _ .._ 0 u ..' _ 0 { e y @.) 7 0 y y { e @ K ' u # u | q X.#.} } g | L @.@.f q K } _ ' e , L 4.H # = f _ @._ u K 0 u _ 0 K _ q e K # @ K 0 K { K y q q e -...0 = , # 0 e u f ) ' ) 0 _ y y u e u u K _ K @ 0 f u u y # u K @._ u ` 0 0 ) e # u ) K q e K 0 0 K ....' _ X.9.$._ e q _ ...._ q = { ' ) e u ) q u X.' ' ' ' | _ _ ' _ ' X.@.@...@.@.@.#.0.4.4.#.+.+. .@.X.| $.3.9.7.-.@.' @.X.@.X.@.@.@.O.| | ....' ' K K e e y ^ u u q 0 u e 0 , 0 0   l V z z i > > l i z c h x B z V V Z V V c o ; ; ; i i ; l z Z i.r.-         O     o s f , k { { { ) K 0 e ` ) e ) { { ` u ) u 0 e e f =.#.f f u u _ #._ , f e L ' u = @ f X.L L ' u K @.' | L @.X.,.-.) K ) e { @._ y 0 ) _ @.u ) ` 0 @.{ q 7 0 = ) { , = _ _ , 0 K ' u #.@.|  .K | f 3.@.K q K @.Y _ u = q } +.e   e ) ) @.u ) u = ) _ , ) _ 0 e _ 0 O e # e ' K e 0 u 0 ....f # y # # 0 u u e u _ K 0 K 7 q u u e u u ) k = , u e u e q 0 f ' @.u K f q q f < , K ) K 0 K 0 = K ` ..{ f K | 7.#._ q e f ' =.` K # k ` K u 0 7 7 O q K 0 u q q , 0 w 0 0 u k u u u u u u u f f u u k f K _ L L ' _ K _ _ ) K f f e y 0 0 , , , , = = # = = ",
"_ ) K K f u u u f K K L L g f f K s u e 0 7 y u e q 0 e e y q u u u u k ) K k u 0 , # # = 0   u K s 0 ^ ] ` ) ) u 0 ^ { u K o.o.` K ) ) q e u ) ,.| f u e u _ | ) q K q ' K 0 # # _ 9.L | ) K X.@.L L X.X.#.#.X.-.) 0 ) ..) = e { _ ) e -.K e @.) 0 r u y ' u # f _ f # e X.0 ' $.| X.s } } X.$._ u f } I } e # s 3.H @ 0 u _ #.f q K q u ) 7 K _ 0 e K # # K 7 u ` f y y y y { { f # # @ q q K f ) { ) q ..K u e e u u k ) f @ 0 f f e 0 # u _ ..K q K = 0 u e X e K K e e _ u 0 _ ....{ L X.w.@.u e 0 L X...K e 7 _ K K e u ..u k X.....' ..} ' _ ' L L _ L I ' ' ) _ ..| | | | | +. . .} } } | I _ ..' ) ' ' ..| X.@.@.' ' @...' _ .._ K K 0 y @.f K K K K K f f u #   > V l > - $   - ; z B B N Z c F V V V y.i.i V z l z o . o ; z F y.l   + e # , 0 O X , s , ) { { ) ) K 0 y ) K q ) [ { ) e ) u = 0 q K :...u u u u K ' K 7 u e f _ 0 #   e .._ g ' e K | L K H | ' @.@.' _ u 0 ) ' ) , 0 ` K _ 0 u ) 0 ` { 0 # y = u ) # # K K , o s _ q X.| H _ u } s |  .f 0 e } H L u @ q }  .<   y K K X.e u u # K K # f K 0 q f +   e # e ' u e 7 q 0 { ..u X = X # , e u f K ' u 0 K # 0 e e e e u ) u   = u e e 0 = 0 K _ | q K u # q K = = f K u = e e X 0 K ..{ ) K X.9.7._ 0 0 K ' ..K e O K ' K e y q y @ ) -.' ..' X...' ..| ..@.#.-.#.X.#.@.@.#.@.9.3.#.#.+.@.#. . .3.5.9.9.9.#.' ' | ..} _ K _ L L H K K K e K ",
"_ ` ` ' ` ' ) ) L L L ' ' _ _ K L g K u y q u u u u e u u e e k e 0 0 q e y u K u u u K K 0 @ q f f 0 k ) { { ) u 0 K { u K { { ) ) ) ) q e u ) 9.| _ f e u ' .._ q K u ' _ e # # | 0.| ' ) K #.9.' L ..@.-.=.' @._ y ' @.K # y ` L _ e -._ y { k # 7 u e { k # K | K # u X.e _ #.} #.u _ | | 9.) e f _ I @.u % g 2.g @ f 0 _ ' u q ) y K _ 0 K _ 0 e ) = # K 0 e ` u e u y e ' @.u # # @ q e f f ) _ K 0 ' u e y y e u K u u @ 0 f K e 0 7 u _ X.) e ` e q u u X u _ K u q ) u @ u ....{ K X.w...e q 0 ) @..._ e 0 ` ) K e K -.u k | _ ' _ _ f u f K K K K K L ' } ) ) K f K K L K L L K e u e u e u e e e 0 0 0 0 y y q 0 e 0 0 0 0 e e 0 y 0 { { 0 u K f u u u e u =   l V i i o o   . . i V r.C F m F V V B y.d.i Z F l $ .     . l V y.>     #     @   # e s , u ) ) ` ) ) q e ` { e ) @.{ ) K ) k 0 e e _ 9...f k u q L .._ q f u L ..y =   q #...K X.f _ #.| H } #...#.@.@.-.K 0 ) .._ = q ' ) ' e ` ..0 { { 0 = y r u ` # = _ _ e @ f ' 0 ..#.| X.s | _ | 5.I e f } L } H o q |  .# # 0 K X.X.q u f q ) K # _ _ = y K @ O k 0 y ' K e 0 e 0 _ ..f 0 # O # q e u f _ { u y | u u e y u e k _ K   = f u u = # q L ' ' e K q # q f # # K K f q u ) 0 0 K ..| { L X.w.#.u e % K ..=.' g # u _ ) u e _ ' 7 f X.K _ L _ L K K K K K K K L K L _ | +. .|  .| T | |  .} } X._ _ _ _ } _ ' @.@.O.@.$.7.7...| #.@.| ..@.",
"0 q 0 e u K u ) K _ _ _ _ _ _ K K ) ` ..' ' ..{ ..{ { { { _ ' ' _ K K K K ) L K f f u K f K X s e e u K ) { { ) f y ) { u ^ [ ] ) ) ` ) y u u ) :.#._ ) u u _ .._ q K f K K e # 0 K w.| ' ) K @.9.K u ' #.-.X.` X...u @.9.' u e _ ' ' 0 #.` 7 ) k = 8 u q ` _ 0 K @.K , u @.K ` #.L 3.e _ X.| #.u 0 e ' K | u 0 I  .u @ K = K _ e q _ y f _ 0 K _ 0 u ) # # K 0 e ) f e y e y K =.f 7 7 @ 0 0 e K _ ) K q ) u q q y e u ) K f # 0 K f u 0 0 K { -.) 0 ) 7 0 K u   u ) K e 0 ) u X f ....` f X.q...0 L e _ $...) 0 0 ) u K y K =.y u f q u 0 0 = = = # # # 0 0 w e e u e e e u e u u u u e u u k K K K u f f u K K K K K f K f e q e e e e e e 0 q.Y., K _ K K f u u u @   > V c z l z > $ . ; V V V <.B F V Z V p.<.> F l - ; i > o . ; c Z -     # % , ,   , e s , q ) ] { ) K 0 q ) ) 0 ) { ` ) K ) e 7 e e K -.} f u 0 0 L | _ 0 e u K ' y =   0 $.#.K | e _ #.@.I K ....-.X._ ..K , _ X.K # = _ K _ 0 ..{ 0 ` { u @ 0 0 u ` u = L L u   f ..< _ X.I  .q I I | $._ q u L L } H . q | H o , , u .._ , q u , K f # K K # q K @ @ K , 0 ) u q q q = K ..K = # O # u e u f K ) e u ` e y 0 q y e u e u O # f u u = # u ) ' ' 0 K e , 0 f # # K f u 0 e _ # # f ....{ K | q.{ u 0 , K X..._ f # K ) u e e ` { 7 _ @.| @.' _ L L L L L L K K ' ' I K K L K L I T } T Y Y K I K K K K f u e q e e q e u e e 0 e u e e e u ",
"K K K K ` ` _ _ K ) K u K f K u K u K _ L K _ K K ) K K f u e y y 0 q y y y 0 = # # # 7 # 0 X K f u ) ) ) ) [ ) u 0 ^ { u ^ { ) ) ` { ) y u e K #.-.' _ f u ' X.' u f e f f e # q _ 9.' _ _ K @.-.K u _ ....{ ) ..@.K #.9.{ q y _ ' ' y -.) 0 { u 7 # u 0 ) @.e f X.K 0 K #.) ' #.K #.y _ @.} 9._ 0 0 ' L X.e 0 _  .e @ u @ K ' u u ` y u ) 7 K _ 0 q ) 0 @ e q q ) k u 0 q u K @.k = # O 0 q e K _ ) K 0 _ s e e e e e ) ) K @ q u e K 0 q _ ' =._ e _ 0 0 u K @ K _ f q 0 ) K X f { { _ f ' -.@.u 7._ _ $.{ K 0 K ..K u 0 K ,.r K  .| | ' _ ' _ _ K K K K f u e u u f K ) _ L ' ..' _ _ ' ' } | ..| ..' _ K _ | }  . .}  . .L K K f K L L K e q.;.# , 7 , 0 q q u K @   z B m l x z m V > - c N c Z m Z V V m y.u.- B c > c c c c - - m F -   o e , 0 e   < e e 0 e ) [ o.) K q u ` ) 0 [ [ ) ) ) ) u 0 e e ) 9.@._ K u q L | _ e s f u L u 0 # K 9.#.L ..u ' :.-.f q | ..,.@.' X.{ u X.-.' 0 0 _ _ | , ..@.0 u ) y @ y y u @.e , ' ' u   f #.u ' @.H 3.0 _ | ' #.f 0 0 I L | g # s  . .  e < q _ K , u ) 0 _ ) , _ ) 0 u ) @ # K 0 0 ) u e y y 0 K ..K # # O # q q f K _ ) u e K q 0 0 y u u ) u u @ , K f u = = u K X..., K e 7 0 K # @ K K u q 0 _ , X K ...._ f ..9...0 u 0 K $..._ u # K K f u e _ { 7 u u < u 0 # @ o # , # , 0 q s s f u u q y e < 0 0 0 0 , , , 0 0 0 w 0 0 q y q e e e e 0 q w 0 , , , , q ",
"L _ _ _ ..@.@.@...@.@.@.3.9.3.#.@.@.@.#.X.@.-.$.7.-.#..._ _ K K K u e e e e e e e e e e e y + H f ) ) ) ) ) ) ) u y ) [ u ^ { ) ) ) ) K y f u K ..9.' _ K e ' | ..u K K ) f e = @ { q.' K ) K ' -.K u K ....' f ` ,.) ..-...y y ' X._ e @._ q ` y @ = u r ) -.K u | K 0 ) @.K _ #.L  .0 K  .I 9.| e 7 } H | e , Y  .< # g 0 K ' e f ) q K _ 0 f _ 0 e ) 0 # u q q ) u u 0 0 e u { K 7 @   q e e L _ _ _ e ) u e e u e K ) u K @ y u 0 u 4 q K ..-._ 0 ) 0 0 u u @ e ' f e 0 ) ) X K ' { K K _ X.@.y u e _ 9.{ u q ) X.) u y ) -.u ` $.X.X.X.X.| | ' { | ' ....' ' } _ ' _ ` _ _ K K u e y e e e u e q y e e e I I L I K K K K s u K e u q e e e o.] q q 0 , 0 7 = 0 k #   z c F c V V z V m - z z c F B F V F V p.a.i m N h B F c V B > m C -     =   o % O s u y u K ) ] [ ) ) 0 e ` ) 0 [ ] ) ) ` [ ) q u e K =.-._ _ u q _ X.| u u f u f q # O 0 :.@.L ..f ' 7.@.u q ....=.` _ ..@.K #.q.) 0 0 ) _ .., ' @.q ) ..0 @ 0 0 y .._ , ' _ f o L #.u | @.s #.0 '  ._ 9.L , = _ H | s # g  .}   q , , ' K , K ) , K f # _ ) = q K , O q 0 0 ) u e 0 0 e u ' _ = #   @ e 0 u _ ) K e y K q q 0 q y e ) K e   , u e K 0 , e _ X...0 ) q = 0 _ , # _ ) u , y ' 0 X K ' { K e ' 9.' e -._ K #..._ q 0 _ ) u y e { { q f _ f K u K f f K K u q y 0 0 0 0 0 u s K f K _ ' ` _ ' | ' ..X.| X.X.....' _ ..} ..| } | | _ K K K K I ",
"' ' _ _ _ _ L ' _ _ ' | +.X.+.| }  .|  .} | @.@.#.#.@.| ..#.#.@.#.#.$.-.#.#.@.@.X.X.| K K u   s f ) ) ` ) ) ) ) u e ] _ u k { ) ) ` ` ) 0 u u f ' $.' _ K K ' ' X.) K f ) ) k 0 # u -.' f _ ) ) { u f _ @.{ ` u ) :.u ..-...0 0 _ #.' u #.' e { ) 7 7 ] 0 ) -.` q ' f , f $.K f @._ | q K | L 9...0 = } g | e = Y  .s # L 0 _ ' e k ` e _ ' f _ _ q u f 0 # K e y ` K K q y u k _ ) q #   0 0 e K _ _ ) q K u e e u y K ) y ) # e e 0 u = 0 ) _ .._ e ) 0 y K u @ e ` K e q ) )   K ' { ) ` ' @.X.y O 0 _ 9.X.k 0 K ..K e 0 ) ' y k K e e e e K ) f f K K K K K ) _ _ ' K ) ) ) ) K ) K ) ) _ ` ` _ K K ) ) L } } } I T } I I L K } K K u K K y / { L L ' K K K K _ _ +   l B V V Z Z l z Z V m x x Z N Z B Z B y.u.l B Z x F V l Z <.l B B z     , + @ % O < s k u ) K ) ) ) f , u ) ) 0 [ ) ) K ) ) u 0 u e K @.9._ _ K u _ | | u u K u K y 7   = @.@.K _ f _ ..-.u q ' ` ..) f ..-.f X.-.K 0 0 ) X.' 0 ' @.e ) ) 7 O 0 r u @._ 0 _ ' f X f -.u ' @.g +.0 I  .L 9.' 0 # L H | K @ u  .I   q , 0 ' K , K ) 0 ) f = ) K , e _ # O e 0 0 K u e 0 , e e ` ' 7 @   @ u 0 f _ ) _ u q K q q q e e u K u K   , u 0 u = 0 K ' #...0 K e # w K 0 # L K u , 0 { 0 @ K ` { K f _ @.X.e L g K $.@.f 0 u .._ f q u { { r | 9.X.3.X.#.#.@.....@.@.#.....' ' _ _ _ ' L L K K u e e u q 0 q q u q q 0 , s L K I H s G H s q e q w u ",
"q e f f K K K ' ' L K K K L } } } } } I I I _ L _ _ K ) k _ _ k K _ K K K k _ K K K ) f K ) # u f ) ) { ` ) _ ) u e ) ' k u { ) ) ] ) ) y u u e f X.| _ ' } } X.#.) ) u K K e = 0 u -.| s _ ) _ ..u u ' #.' ` f _ -.u _ =...0 0 K #...y #...e @.) 7 7 ] 0 ) 9.K , K f f _ $.K K X.L | q u ..K 9.| q # _ f | g = L T u # _ 0 K _ u f ) f ` ) u ' ' e k u 7 # f q y ) K _ e u K _ ' _ y @ O # 0 u _ ) ) ) q K u q e u e K K y u # 0 u e u , 0 K _ .._ u K 7 u ) K @ u ) u e 0 ) ) # u ' .._ ..| #.X.K # # K #...K q K #.K u 0 _ ) 0 k @.' { ' ' { @...X.#.-.#.9.-.@.@.@.@.' _ _ ) K K _ ) ) ) ) L K K K K u u u u f K f K K K L K f K f K u w q # ~ o.L L L g s e e u K #   - y.V F V z > ; c <.y.z z i.Z F V Z V i.f.z <.Z c l l ; l V c V V l   # u , , , O s e k u ) K ) ) ) K 0 u ) ) 0 ` ` ) K ) ) u 0 f e K | 9._ _ K s I _ ..K f K f ) u 0 @ 0 { X.f K K ) ) ' u e | ..X.) q _ -.f ..#...0 7 K ..' 0 { #.u ) K r @ u y y ` $.0 K _ u , L #.q L @.K | , K | K 9.K q # L H I g @ g  .s o a q u ..K < _ u e ` K e _ ) = e K # @ K q 0 ` K f 0 0 y u K ` 0 #     e 0 u K K _ u w K q e e e y k ) e K X w e , e # = u _ | ' q u q @ e K , # K _ f 0 0 { 0 @ K ' ' u _ _ @...q @ @ K @...u 0 u ..K u 0 K ) ` 7 u K 0 e e f f e u u u q e u e K f K f f ) K K K f u u u K ) ) _ K f K K ) L |  . .T Y I I L K s _ K K e ",
"= # # # = 0 0 e u u u e y u q q e 0 0 , , 0 0 0 0 0 , 0 0 , 0 0 0 y 7 0 7 0 0 7 0 0 e < 0 y o f u ) ) { { { ` _ f u ) _ u u { ] ) ) ) ) y u y K ' @...K K } L | ..K K e ) ) e 7 e ` 9.X.K ` K _ ..u e _ #.{ ' f _ -.u _ =...0 0 f @.| 0 @.X.u @...7 7 k 0 f @.) 0 K u L X.| f _ $._ @.f f ' u #.X.0 # K f ' K , I Y # @ I 0 f L f K ) f ) ) f ' ' u u u 0 # ) e q _ _ ' ) q u K ' ' u @ O = q u _ _ _ _ e f s q e u e u k e y @ q u q u 0 0 K _ @.' K K , u K ) # 0 ' f 0 0 K ) # u ..{ u ' | #.-.| # # L #.| K y k #.K u e ..) = u @.K ' _ _ K ) K K ) ) K _ _ K f _ { ' ` ) { ..@.@...' @.@.@.#.@.#.{ _ ..@...` ) K K K f u e q e e u u e e 0 ` @.L K s e f f u e K %   x i.V Z l o - - l r.y.c z F m V V V N y.u.> F r.m - - ; - c u.p.y.x   . e , 0 0 X u e ) u ` ) ) ) ) K 0 u ` ) 0 ) _ ) ) ` ) k 0 u q u K X._ _ _ L } ..#.) f u f ) e 0 , 0 _ @.g K K _ ) ' q f ....| ) s _ ..u ' @...= = K #.X.e ..-.y ' { q   k u y _ 7.0 s K u e } @.u K X.K | = f | K 9.| 0 @ L K _ I o s R s   s u u _ K 0 ) u u ' K u ' K 0 u u # @ u 0 0 ) f _ e y u _ ) ' e # O   0 0 f _ f _ u e f 0 0 q e q k k 0 u X 0 e 0 u = , f _ { ' u u y = K K , O K K u 0 0 { 0 @ f ' | ) ..| #.X.u @ # u 3.X.K q u X.K u = f ) f # K ' f _ K ' { ` ' ..#.X.$.$.@.#.@.@.' ` _ ) ) K f f K K ) K f u u u u u e q e s G g H L g I H H L K u u ",
"| _ L K K K u e e u e K K L K ' ' ' ' _ ' | | | | | } ' _ L _ I I _ L I I K u u K K K L K K # u e ) ) { { { _ ) u u ) _ e e ` ) [ ` [ ) y e q ) @.X...u e _ L | X.' ) u ) _ u , 0 _ #...K ..K ) _ f e _ X.' ' u ) -.u ) ..{ u 0 ' #.X.e { @.K @...7 7 u u k #.u X f 0 K X.| K ' -._ @.' K ' u ....e % L K ' g # L } q # g u K ) u e ) ) { K K ..' u u u 0 # K u q _ ` ` ) y u u ' | u 0 O # 0 e ) _ ' _ u f u 0 y e q u f e 0 @ e K e f 0 y f I ..| K K 7 e _ ) = q ..K w e ) ) 7 e { { e _ ' @.=.' 0 # f $.' K y e @._ f y { ) 7 k #.K K K K u f k K u k e f ) ) u u K K K f ` ) _ ) u u u u k K K u e 0 f k e u y q y w q q q 0 0 # # = # # 0 [ ) < # #   . @ o o , X   > i.Z F V ; ; ; > B z l B F B F Z F V p.p.; z Z Z i > ; l B i.p.V o     0 o # # X e q ) k { ` ` ` ) ) 0 f ` ) y ) ] ) ^ ) ) K 0 e 0 u _ X...K ) ' I | X.) K u u ) q # 0 e ` -.K _ K ) _ ' 0 f X...| ) u ' =.e ' =...0 7 u X...q _ -.e ' #.u O u y q ) ..# q s e L | | u ' #.K X.q f ' f $.X.0 O f s _ _ # g  .e   d u 0 K K e ) K f { u u | ) q u e = # K q 0 ) ) _ f y q ) ` ' u 0     0 0 f _ L ' u e f q 0 e e 0 k K q y   0 e 0 u , , s _ ....f f q = K K 0   K K 0 < 0 ' e X K | ` u ' ' @.@.' 0 o g @.X.K e e X.K u 7 _ ` e O K ' ) ..K _ ' _ _ _ ' ) ' | _ K L | ' _ _ _ _ _ ' ' ` _ ' ..........` _ ) ' ' ' _ K K K s s u e e e u K ",
"' ` _ ' ' X.' | | _ } _ ' ' ) K K f u u f u u K K K K f u s } I } } I I } L e s u e K K u e # u e ` ) { { { ` _ K u K ` e y ` ) { ) ) K q u q K | #.@.e w L _ ' X.X._ s ) ) u , = ) @...u ' ) K u ) e _ #.| -.) K -.u { X.| u 7 ) #.| u ' -.) #.#.0 3 y ^ k @.k @ K , ) X.' f ' $._ ..' K I u | ..u 0 L K | g @ H  ., # I K L _ e 0 e K ' u u ' ` e u u q = u u e { ' ' ) q y e L | f = X # 0 e ) _ ' ' s u q 0 e y e u u e # @ e ) f u 0 0 e _ X.@.' ) q u ` K # 0 _ f q u K L 0 f _ ' K X.| @.=.` 7 @ _ $.' _ y e #._ ) q ` ) 0 u K u K f k q q 0 0 7 7 # 0 q q q = q e 0 q 7 0 0 0 7 # # # @ 0 # # O @ = @ @ # @ @   O O @ @ @ @ O O O O O 7 [ ` g f K u q 0 , = 0 # . > m B c V m m B m m z B c m V <.Z Z F p.Z > > l z m B m m c c F z &   + q % , # X e 0 ) k { ` ` ) K f 0 K K K 0 ) ] ) ) ] { ) 0 e 0 _ @.X.{ e e I L } | _ f e f _ u 0 , e L -._ _ _ K K ' e u | ' .._ u _ =.e _ ..{ e = u #...e _ -.f ' #.u O y u 0 X.#.e , f u | | ' s X.#.K @.L K ' e | | u X g f L H @ s Y q   a e u u K 0 K K K ' u K X.) 0 u q = # K e 0 _ _ { K y 0 K K ' f #     0 0 f _ L ' f e f q , e e q e f 0 = O 0 u 0 u , 0 u K | ..K f 0 = ) ` e @ K ` u 0 q ..q O f .._ e ' ' @.-.{ # @ u $.' K e q ..' K 0 _ _ e X K ' u _ K u f K K u ) u K ) ) u ) _ _ ` ) ) ) ..@.| ' _ ' _ k ` { ` K f ) ` u u u e u e e w e y 0 , 0 0 ",
") K K K K K K K _ K _ f ) ) K ) K K K k K K ) ) K u u f f L ..I ' I L H L K u K K f u K u K # s e ) ) { ` ` _ _ f u ) ..e u .._ ` ) ` ) q u q u _ 7.X.u y K } X.#.@.{ f ) ) e = O K X.X.u ..) f u ' K ' -._ -._ K =.f @...{ u X K .._ f ' -.K @.-.e @ y ` y -.) 0 @.0 _ X.| K | #.L ' } K _ e X.@.0 0 ' K  .s = H | = # } f _ _ e q e K ` u K ' _ y q e q , e u e ' _ .._ q 0 u _ X._ 0 @ # 0 e K _ ..' u e 0 0 u q e u K e @ @ u ) K u 0 0 u _ @.@.' K e ) ' ) # 0 ` u e y K _ # q K ' K #.' X.-.) # # K #...K q y X.K ) u ..' e y , O @ @ @ @ @ O O O   O O @ O @ @ @ # O O O O O @ O @ @ X @ @ # # @ O @ @ X # = # @ @ # # # # # 7 0 7 # # 7 / @.} | X.' ' _ _ _ _ f   o z V l ; ; ; ; ; i i c l V C : @ # : y.<.l - $ - ; > > i > > z m >   % s , 0 , # u , ) u { { { ` ) ) e f ) K 4 ) ^ ) ` ) ) u 0 u , K ..X...e 0 I L _ | .._ u f _ f 0 # q | @.f K ` u k K u u ' | | ..f ) =.e ` ..| e # K $.X.e K -.) ..#.k # 0 ^ 0 ) ..@ , e , | | _ u X.#.L @.' f _ q ....e # L f _ I % s  .e   s q K K K = e u ` ` e f | _ q u u 7 # u e 0 ` ` ' K 0 0 u K ..L 0 O   7 0 f _ _ | K 0 e 0 0 e 0 q u k q #   e K e u 0 0 e L | X.' K e 0 _ ) 0   f _ e 0 q ' y @ e _ ) u .._ X.@.) #   L @.' K y 0 | _ K q K _ u # K _ f K e K e y e q r = 0 0 y 0 0 0 u 0 = u q u u K u 0 u y @ # , 7 0 # 0 = # # # # # # @ @ @ @ X O     ",
"....@.-.#.-.-.#.@.@.@.' _ _ ) ) f K K ) K K K K f u u K K K L L I I T L I L K ' K K u u u f # e y ) ] { _ _ _ _ ) f K { 0 e { _ ' ) _ ` e K e e ' | @.K e g } #.9.X._ u _ K q , @ q @.-.f | _ K u ..f ' 9.K :._ ) =.u @.' ` ) 7 ) @.' f ..-.K ..-.f 0 _ ` q ..k = _ 0 K X.@.K | #._ | | K f q | @.e 0 | K X.K = Y I < # } K | ..K y f ` ' e u _ ) 0 y u u y y e y ` _ ) _ q 7 u L | _ 0 @ # 0 e L K _ _ e 0 0 0 u u u u K y @ 7 K u e f 0 0 f _ #.$.' f u ) ' _ # q ' K f 0 f _ 0 e K ' K @.' X.=.{ 7   u 3.@.) 0 q | f u e ..` 0 0 # @ @ @ # # # # = 0 q 0 0 7 # = # # # # # # @ # 0 0 y 0 q e y e 0 0 0 q q e w u y , e 0 e e e e u u u e y 0 { @.e q e q 0 < q , , u   - m F B i l > ; ; ; i i c F : O O O O b <.m i ; > ; > ; l l l c V -   o , o # # o u % ) k { ` ` _ K K e u _ _ 0 ` _ _ ` K ` f 7 u 0 u ' #.| q 0 s _ | @.@.| f K ) e 0 O e _ #.f K ..u u K ) f X.X.' =.) ) @.u @.| ' K O u .._ u ) -._ ' -.K @ 4 ^ y ` @.y f _ 0 _ X._ f X.X.g _ ' f L q | X.0 # _ f } | , H  .< X e s K _ K = 0 q K K q K ' K 0 0 q , = e e e { ' ' _ q = e K | _ e @ O # , u K _ X.f q q , y e , y u K 0 X   q ) u u 7 0 e L X.#.| K u y ' _ q O f K u 0 q ' e @ u _ _ K #._ X.-.) @   e #...) y 0 X.L ) u ) _ k 7 0 , # # @ # @   O O         O   O   @ O   O O O X @ O             O     O     O O                       ",
"K K K ) K ) ` ) u _ ' ` ` ) ' ' | ..' ` ' ..| ' | ' ) K ) K K K K K K g K K u f f K ) u e e # e y ) ) { ' _ ) ) ) u f _ 0 q _ _ { ) ) ) u u e u f K X._ f f I @.9.@.K u _ ) e 0 # , { 7.f ' ` K K 7.f _ q.K ,.' _ -.e @...) _ 0 K -.| f ' :.) ' 9.f 0 ' ^ q ..` 0 ` 0 K 7.$.K ' #._ _ X.K L e _ X.q 0 X.g | I q  . .% # q K | ' u # e ' ' e K _ K , y u u 0 , e q ' ..' | g # K | @.K q @ # 0 q _ f K K 0 0 = q u u u u K y @ 0 f u 0 ) u = s _ @.X.f u K ) ' _ 0 0 _ ' ` u f { u K K { ) @.....@.) q   0 7.-.K 0 e ..K u e ..` 0 y u e q q u u e u u u K K e q 0 0 q q q e e e y e ) ` { _ u K K K k K K K L _ ' } _ K L K K K f e e u e , # 0 -.-.u ) ` ) _ _ ' L L L   . B F F z m m B m l z c V y., O O O O 2 y.<.m l z c m z c m z B F .   o q , 0 < @ f # ) k { ` _ _ ) K f s ' ) = ` _ _ ) k ` K 0 f 0 s X.X.$.s w f _ X.$.X._ f K ) q 0 X # ' 9.L g @.u u K ' f @.X._ -.K ) @.u @.' ' f X f X._ f _ -.K _ @.) @ u ) y k @.# u ' 0 | #.} g @.X.L | | f g < | X.q # } f  .I # H  .<   H e K ..) q u f _ K 0 K ' K , q e w 0 y e 0 _ K _ _ e # e K X.' 0 #   # 0 f K K ..K 0 q , 0 u e e u ) 0 O # e f e u , = u _ X.#...K u u ' ' e   K K e q 0 _ e 7 q ) ) K #._ @.-.u #   u #.@.K 0 , | f f e _ ' u = O     O     O   O X # @ # @ O O @   X O   O O     @ @ # # # = # = # # = # 0 # , , = = # , = , = , w 0 q ",
"u k u k u f K u u f ) ) ) K ) ) @...' ' ' { ' @.{ { ) _ { { ) ) f K K f e e e q y r 0 0 y 0 0 e y ) ) { { _ ) _ K e u _ 0 q ) _ ` K K ) u 0 q e f ' @.f u e L $.9.#._ f ' _ u 0 , e ' q.g ' ' K u 9.K f q._ :.{ _ X.e X..._ ..0 @.9._ K ..q.' ' ,.y = L u e @._ , | q L 7.X.K | 9.' L ' K K f L #.f 0 @.s T _ , ..' @ @ u K ' _ e @ u @.` 0 ) ' K = e u ) e 0 u q _ @.@.+.I , K ' @.K 0 o @ 0 0 f f K K 0 e 0 e u u u u u 0 @ = u K 0 K u = u ) X...u q k ) ' ` 0 0 _ _ ` u u ' e f K _ e | | ..@.) e   0 7.#.K q K ) f u e | ' u u H K K f g 0 # = # # = 7 0 e u u u f u u e e q 0 q 0 0 q w u y q e f f s s e e s g u K K f s f u s K K e q u q.,.f f K K f f K u K _     <.y.<.m u.F i.V <.F V F F b @ @ O @ b Z y.F V V Z F V Z y.c <.y.-     0 o # # o e = K e [ ` ) ) K ) f u _ K @ K ) ' ` f ` ) e K e e K g | K u g I X.4.@.) e ) ) 0 0 X # K 9._ f @.u K _ ..u X.#.) ,._ _ @.u =.' ) ) = _ #.| f _ 9.) ) 9.K = } ) y u @.q 0 L , _ 9.| s | @.L ' | f K e ' X.q # L g } | % g 2.e   < s _ ..) 0 = u ..f 0 K _ u # q e u = 0 q 0 | ' K _ f @ y L ..' y #   = % f K f _ u , 0 = q u e e u ) 0   0 u f 0 K e = e L ..X.L u u K ' ` u X e ' _ f 0 _ K y u _ _ K #._ ..@.) 0   e $.-.K 0 , | K u 7 ` ' e # , # , 0 , 0 0 0 0 q u u w = = = = # , % 0 , = = w K K ) K e K u u e e u f f K K L K e e K k f u e K K K ",
"e y 0 7 0 0 7 0 7 0 0 y y e 0 y u e u 0 0 u 7 = 4 q # e y 0 0 0 # 0 0 0 0 0 0 = @ @ O @ X O 0 e y ) ) { ` { ` ` ) y k ` 0 0 ) ) _ ) _ ` K w y K ) ..=.K K K L #.9.9...L ' _ e w < K ' :.f ' X._ u @._ K q.' q.-.@.@.K @...| X.y @.0._ K ) -.` ) -.u # L u e @.K , | e f -.| g | 9..._ _ f K K g X.K q | s I L 0 | L 0 @ 0 K ' ' u O u ..' 0 _ ' K = u e _ u 0 u q _ ..' | f # K ) | _ e   @ 0 0 e u K f # q 0 e f u e u u 0 @ = u K q ) u # u ) ..' u q ) ) _ { q e _ _ ) e e { u u f ) e _ ' ' ..' y   0 X.=.u e ' ) u e q ` K 0 u #.@.X.| } _ L K f e u e u u u e q e 0 0 0 e u u u u e u u K q f K k e w 0 0 q u f e f K u u u u 0 , , , % e q.@.e u e e f e e 0 q y   ; y.F <.m p.y.F Z F F V F F B o O O 1 V V Z V F F Z y.B V p.V u.y.:   0 0 o = o # e , ) u { ' _ ) f K e e K K   K K ` ) e K k e q q q K _ X.K u u L #.7.@.L u _ ' e y # # u #.| u #.f f _ X.g _ -._ q.) _ | e =.' f K , L 9.| K _ q.' ) $.' # s f 0 K #.% e | 0 #.9.| s X.#.L L | f _ e I @.s 0 ' s L } , L  .,   q u | ..u 7 # f @.u q _ _ u # e e f 7 # y 0 ` @.|  .s @ u _ @.' q #   # # e f u ) q , w # 0 u u e u u 7   0 u f # K e # q K | X.K 0 u K _ ' e o u _ ' ) 0 ) ) e u _ ) f @._ ....) e   u -.#.K 0 e ' K K 0 ' ' f 7 s L q u s 0 , 0 , , 0 y , 0 0 0 q e u e e e 0 , y u u f u 0 u e e u K f K f K s K L s K K f e s q q u s ",
"@ O O   O O @ @ O @ @ # @ O O @ @ @ @ O O O O O O O O @ @ O @ @ O O   O O O O O O O @ @ @ O 0 u y ) ) ..` { ) _ _ e K ` q 0 ) ) ) ` _ ) K q y u _ ..` u ) | L -.9.3.' K ' _ u e q K ..#.f ' ..) q | L K #.) ,.-.@.#.K @...X. .0 ..F.| K e #.{ k ,.) , f e K 9.X.# } f f $.X.K | 9.X.L ' f K ' u ..) 0 @.K ' L % X._ # @ 0 K ..| u O u { ' 0 _ ' ) 0 u K ' u # e 0 _ X.' _ u @ u f I L u X 0 u 0 0 u _ K 7 0 , e K K e u u 0 @ = u u 0 ) u # u _ X._ u 0 f _ _ ' 0 0 _ _ _ f e ) q u u _ u _ | | =.{ ,   , ..@.u y { K K e e ' e # r ) u K e f f K K _ f f u f f f K K K f e f K ) ) u e y q 0 u u ) K u u K K K L ' | L ' ' L K f K e e e e , f -...q u e 0 0 4 , @ @ 0     d.y.y.V u.u.F Z F F Z F Z y.l O O E y.V F Z F Z Z F c Z d.<.u.y.>         O   0 e = ) k { ` { _ ) ) e e K K   u K ) ) u ) ) u = e e _ ' ..u u u L #.7.7.| K _ ' u 0 = < ` 7._ u @.) f K $.u _ -.' q.' ..| e -.{ ' | q X.9.L s K -.{ ) -.| # e e 0 _ X., u } 0 X.#._ u @.$._ K _ u K u K #.g , _ u H Y o _ | #   < q _ ' K q @ u =.u 0 ' _ u # u e _ 0 0 e 0 ) X...X.H # u _ ..| e #   @ # q s u ) 0 7 q 0 e u u q u e = O , e K 0 K u # e ) ' | u 0 u K K { u # K ' _ K , K ) q u ) K q ' _ | ..) 0   , X.@.f 0 ) ) u e , _ ' f 0 I @.L _ H u 0 w < , , , , e u u u e e 0 0 q 0 0 0 , , 0 w e u , e e e e q , 0 , q e , e K f u e e e q e ",
"# = = q q 0 7 # # # @ # @ # @ @ X # # 7 = = 7 = 0 = # # # # # 7 = @ # # 7 q 0 , q q y y 0 0 e u e ) ^ ` ) ) K ) ) e K { q , K ) ) _ ' ) K w e u ) ..e # u X.L 9.9.X.f _ ..' u e < ' #.-.f ' @.) e ' K u ..' -.=.X.9.K ' ' X.@.0 ) ~.| u 0 @.' K -.L = s e K #...# L K f -.$.g } 0.#.' ..K K | u | K = @.I | } , | L q o q u ..' e O 0 _ _ 0 _ ' ) 0 e u _ K = u t _ -.' ' e @ y u L _ e   q K = 0 e f f 0 0 = q K f e u u 0 7 = u u = ) u , u f @.` e = K ' _ ' 0 0 ) f K u y ) y e u ` K _ X.X.@.` 0   = 9.@.e 0 ) ) ) u e { u 7 k _ K | H g f u u f e K K L K K e u u e y u u K ) K K K K u k u K u u e e e 0 0 0 0 e u u u u u u q , 0 y q K =.^ @ X @             =   . x.r.y.Z p.p.<.Z Z Z Z F V F n O # A Z V F Z Z Z Z Z z V d.x.x.d.l   #         # e = ) k { ) { _ _ _ u u ) ) @ e K ) ) ) ` ) k , y u ' ....) ) _ g #.9.9.| K _ ' e e < u ' -.' f X.` u f X.s ' #.' Y.@.@.X.K ,.{ ..@.7 @.9.} K u @.@.u -._ @ s u u ..9., q | # } #.} s X.7.' L L u K K u | f 0 | f K L o _ | u   # 0 ' X.) # # ) @.u w .._ u = u e ' q % q , K .._ _ u @ e f ' I e @   q 0 % u f _ 0 # < = u f u 0 u e =   = u u 0 K u o 0 K ' { e 0 u ) K ..u @ u _ _ K 0 K K 0 e K ) u _ ' _ ..{ #   , ..#.s 7 ..K u e , ) K 0 @ K | K L H _ _ _ _ K s e u u e e u u u < < u u f K u e e u e u q K f u q e u u u K L K K L K s q e e , , ",
"e u u k K e 0 0 0 0 0 0 q y 0 0 y k ) ) ) u ) u u e e u u u f K K w e f k u f e K K K e 0 w e e e ` ) { _ _ K K K e f { 0 = f _ _ ' ` ) K e q u ..=.K # u ..| 9.9.X.K _ ' ' e y # g ..-.L _ ..K u ' K u ' ) -.@...,._ ' { X.| , u q.X.K 0 { { u 9._ = e g q ....# s K K -.-.K ' 9.#._ X.K K | K X.K 0 X.L } } < | L # O u K X.| u O f ..' , _ _ ) q y u K K # e # _ @._ ' e @ y e L ' e O 0 K 7 0 u f K q 0 # 0 K u y u u y u 0 u u , ) u = q K ..' e = L ' _ =.y q ) K ` ) e K u u K _ e K | ' ' ..0   , #.@.e 0 f ) ) e q ` u 0 K _ K } } | | _ L L L ' | ' L _ K K K u u e e u u u e u u e 0 , 0 u K K u u u u u u K K K K ) K K K u u e e 0 ^ u               X     @ z v.y.F V y.<.<.Z F Z Z F Z <.z O O C y.V F Z Z F V Z F y.F B y.p.z   #         , e = ) u { _ _ K K _ u u _ ) # e ) ) ) ) ` K u , e e _ _ u , K | K 7.3.#.) K ' ' u e % s @.#._ f .._ q u _ q K X._ q...#...u .._  . .0 ' w.| K , { @.y -._ # e s e ..9.# , | 0 | 3.X.u | 9.| L ' f _ _ q | K # X.L ' Y # _ } s   < 0 L ..K 0   f | u 0 | _ K = u u _ e # e q _ @.' _ u O 0 q K I u o @ K 0 # u u _ 0 # , # u f u 0 k e # O = u e = ) u # e _ X.' u , r ' f ..e   q ) ) K e u f 0 e K ) K ' X.| -...#   @ -...) 7 _ K K u 0 ` u = = u e e s q u u u f f e f g f f f K K f e u K f K f u e e e 0 e K _ s e u K K e u g K K K K K K f u f u e ",
"0 = # # 0 = y e u u e u u e e q y u k u u e k e u K K K L L K _ } K L L K K K e e e f e 0 0 w u u { ) { _ ) u K K e f { 0 # k ) _ _ _ K K e 0 e { ..f # f @.X.9.3.| K _ X...u e # s ' q.' | X.f f ' _ f _ u -.@._ w.' f K X.} , _ -.| I w ) @.K $.) # 0 _ y ' | # 0 ) _ 7.@.g L $.X.L ' K u | _ $.L 0 #.L I | 0 | L 0 X q K @.X.u O q { _ , K f _ y y f K _ # y 7 ) =.{ X.f @ e e _ ..f @ 0 K # = u K f 0 0 # , f e y u u u u e ) u 0 _ K , q f ' ' f # L _ _ ' q , u u ) K u k e u K _ e K ..' _ ..0 O # @.#.e 0 ) ` ) 0 y { ` y K | K ' L L _ L L K q y q u q e u e 0 0 , # , , 0 e f K u y e e e u ) ` K f K K K K K K K ..' ..X.{ ` q = # # ) { o , , # 0 7 0 0 , +     a.c l c F y.F Z Z Z Z F Z <.l @ O A F V F Z Z F Z y.u.B i > <.i.z     , # % o 0 e # ) e ` ) ) K f _ u u ) ) @ q ) ) ) _ ` ) u < q u X.| 0 . u X._ 9.9.X.f K ' ' u e # q _ #.' f @.' u K ' e K .._ q.| #.w.K { ' X.| = @.q.| f = _ X.@ ..| = , g , ) -.# # K q } 7.@.e } 0.X.' ..f K } e | K # X._ I } % L } u   < f _ @.K 0 O f ..u 0 { K K # e e _ u @ e q ' @._ ' u O 0 0 K _ u @ @ K 0 # 0 q K e = = @ e f u 0 K u 0 0 = u e # ) u # 0 K ..' K % e | K @.K # f f K K u e K q e f ) u K | | ..{ #   # 7...) # u ) ) u = _ K = y _ ' Y } L L K s s s K L L K K s s u q 0 0 e u f K K K K K u e y e e e q 0 < = # # # q e q u u K u u 0 , ",
"L K f u u u u u e e e e 0 0 e e e q 0 0 e u u 0 u u u e e e q q f q s K K u e s e e e e e q u u e { ) { ` K e ) K u K @.y # u ) _ ) _ ) ) u e y _ { K # K -.' #.#.| u ) =.=.e u = q f #.' ' @.K _ ....f _ u @..._ q.' e f @.} , f 9.X._ w _ -.f 9.` # 0  .e K _ q # f ' #.#.L L #.#.K _ f u X._ $._ 0 X._ _ X.e @.K 0 @ q K | | u   u =.K 0 _ ) K y q u K ' 0 u y ) .._ { u @ u e _ | _ @ 0 K 0 # u K f 0 0 = 0 f u q e e u e y u e 0 ' _ 0 0 u ' ..K 0 L _ ' ' 0 0 f K K ) f f 0 e f k 0 f ' { ) @.k O e _ @.K 0 u ) K 0 0 ` ) q K L u f u K L L K K K ) L K u f K _ K K K K _ _ K u K K K u k f K f f K e q e y q 0 # # 0 u u u ^ u u 0 # @ # ) ' < , , # # # # , #   . ; p.z z l c i.F Z Z Z Z F Z F n q O A F Z F Z Z Z V y.m i ; l i.i.x   o <   X   < e , { K { _ _ u u ) e e ) K O q K ) ) _ K f K 0 0 f @.{ f o K #.| 9.3.X.K _ ' ..e e # q I #...g X.K u f | u s _ K 9.' @.q.K K _ X.L # _ D.| I 0 K X.e #.X.= = H , K @., X K f ..9.' u _ 3.| L } s g } L @.K # #.I L | < L _ q   , u | #.) = O _ @.u 0 _ u K = e u ) f X 0 0 ` @.' | s O q w K } K X X f , o 0 u g e = , O q e q 0 u u y u q K f = K f # 0 f _ | K # u | f =.u @ u u ) _ u q K e u ) K 0 f ' _ ' { #   % -.@.e , K _ ) u # ` K y 0 f K g I L ..} I _ f K H K u K K K f u e 0 0 0 0 q e q e 0 = , , 0 u ` ) K f ) K K ) _ ) L ' ' ' ' ' ) f ",
"K _ K u u f u u f f f u q u u K ) f u u u e u e K K u e e e e e K f f K K f u e u q w 0 , 0 q e u { ) { { ` k ) f q u ` y # e f _ ) ) _ K u e y ) { K 7 u $.| #.#.@.f _ X.X.u u 0 s g -.| _ #.) K _ ' u _ K @.{ _ 9._ e f #.| = f X.@.' q _ #.f 9...# = K ' ' ) u O e K _ ..L K X.7.K _ K g $.L @._ 0 ..' _ X.g #.K 0 @ 0 f ..| u O u @.' 0 _ K ) q 0 u ) { 0 u y ) .._ ) e @ e e _ ..e # 0 u 0 = u K f 0 , q 0 e k y u e u u q e e y ` _ q q u | @.K 0 f _ ' ..0 = k ) u K u u q e K ) y u ' @.{ @.u @ e ) @.) 0 u ` _ e 0 _ k e ) #.| #.#.#.$.@.@.@.#.@.' _ { { ' ..@.#.=.#.' { ' _ ) K ' ' ` K u K ` _ u e u u e f u K k u w q y y e e y 0 0 { ..s f q 0 , # # # #     c m.f.Z F Z p.p.Z Z Z Z F Z F y.y.y.y.F Z F Z Z F Z y.z m V c i.i.u.    q % , . q u , { k { ) K e f K e u _ ) @ 0 K ) _ _ ) K f 0 0 e | _ e X K @.' 9.3.| s K | -.e e # < f #.X.L #.K f K ..K f _ f ,.) ..9.) q K #.L # K 9.O.L 0 ) @.u -...# # s e e ..e   u f | $.L s } $.| K L q s | _ #.L # @.L L @.q _ I q   , u | @.K 0 O ....e 0 | u K , y u ) K # e e _ ..' ..K X e 0 K ' ` X X u 0   0 f K e # = O 0 u u 0 e u q y q f e , ` K # 0 s _ | f , u | K =.f   e u u ) K e u 0 u ) f 0 K ..' ` =.#   q { X.K = u ) K e # ` ' u 0 L _ f K u f s K K q , 0 q , q 0 0 q 0 < 0 , 0 0 0 e K K f e u u u e K K f e u u e e 0 0 e K ) ) _ [ ) e ",
"u f u K K K K f f u u u e u f K ) f u u u e u ) _ f u f ) K K K _ _ _ _ _ L K s K u u e e u e u k @.] @.{ _ u ) ) e u ` e # u ) ) ) _ { ) u e e _ { K 0 f -.#.9.9.7.) ) _ ' u k u e f X._ _ $._ K u ' f K u ....) -.| u u }  .q f X.| } e ` -.u 9.@.# # e ) _ K 0   , u 0 K K f _ 9._ _ L f -.K ..| # ' | L } s ..K 0 @ e K ..| e O u .._ = _ K _ e q K _ ' y u y u =.` _ u @ e u K { K @ 0 k 0 , u K f 0 0 u u e f u e 0 e u q e e 0 ) _ q e u _ ..K 0 f K ' ..0 # K _ e K u 0 u e K ) e u _ @...@.y O u ) { k , e ` ) e q ..) u { ' _ L _ ' K e ) ) e f ' ' ) K u k K u ) e y u K e u e e e u q 0 q e e u e L f e u u e e 0 7 = = 0 0 0 7 @ 0 ,...q f K f K u q 0 q     l d.F i m F y.d.F Z Z Z F Z Z F Z Z Z Z Z F Z Z V F F c i.<.i <.r.h.    o X o . q e 0 ) u { ` ) u f K 0 u ) K X 0 u ) ) ) ) ) k e 0 0 ' ` e X ' 9.L #.X.| u K ..=.e e , q g | X.K X.L K K ..L u _ K :.) ' -.K 0 f $.I # e #.| _ 0 K @.y #...# X G H K _ u O , K | X.X.g } $. .e _ u g X._ #._ , X._ L #.s X.I q   , q L @.K , O ..@.e e ..e K , 0 u ) ` = u q _ { _ _ e   u q g ' _ o X K 0 o 0 f K q = , , 0 u e 0 w e y q 0 e e 0 ' L 0 , e _ @.K 0 e ' K ..e X u K u K K e u , e f e 0 f ' { ) { e   e ) @.K < u ) ) e @ ) K y y f K u L L | | ' _ _ | | L ) _ _ ' | ' _ ' ' ' ' K f f f K K K u f f K u 0 7 q q 7 = # # = 0 0 q y y 0 0 ",
"L _ K ' | _ L L K K f u e y e u K K f K K u e e e u u e 0 , = # = 0 u e u f K f K u 0 y e u q e k { ) { @._ u K K u f { e 0 u ) ) ) { =.{ k e e ' ' K 0 f 9.| 7.#.7.| _ ' { f u s u f X._ L #.K u f _ K f k @.@.) -.| u q L #.e u @.| | e ` 9.f 9...= # 7 u _ { u O 0 ' , f L f _ 9.' | L e -.H } | 0 K ' g L L _ K 0 @ 0 K X.' u O u ..) 0 K K ` y , f K ) q 0 e e @.` ) y @ e u K ' K @ , ) y # u K K 0 , g f e f u y , u y 7 q u e K _ e e f ) ' f e u u ` ..7 = K ' e L u # u u K _ y k _ @.-.=.u O e ` @.) e e ` ) y 0 ` ) u ` q e s s Y I d , 0 e u u e 0 = = = # # 7 # @ # 7 4 # @ O X # @ @ @ @ # # # 0 7 # @ @ O O O O @ @ @ @ # @   , { _ < e q 0 e q , 0 u   $ i Z B i > Z V p.y.F Z Z F Z Z Z Z Z Z Z Z F Z Z V d.y.d.a.> > u.m u.-   o # #   < e 0 @.k { .._ u K ) 0 u K K O 0 u ) ) K _ ) k e e q ' ` e = K #...7.3.#.K ) _ @.u u 0 u f ..X.g X.' K u ' K q _ K -.) | #.L q g @.| # L | | _ 0 k #.e -.@.# O e _ ..) u O O e u g _ s K #.#.K } K L $.K X._ , | | H | g | K q   , u L X.K , O _ X.e 0 ' u ) < 0 u _ _ = u 0 ) @.) ) e O y e K ' _ # @ u 0 X q f f 0 , , u 0 u u y 0 0 e u 0 y e 0 _ ) 0 0 u _ X.u < u _ ) @.e   e ) u f K 0 e e e ) K 0 u ' @.{ @.@   e ) ..u 0 e _ _ u # ` k y ) | 9.@.9.#.#.....' ' ' _ L ' { ) _ ' | ..=.` K _ { ) _ K ) K ) e 0 f _ _ K u K f u K L L K e y 0 = y u u ",
"K _ u q q u u s s u e q 0 0 0 0 0 e u u e 0 0 0 q K ` ) K K K K K ) ` _ ' ' ' ' ' ` K e 0 0 , q u o.] { { _ u u f u K { u , e K ) ) ) { ) u e u L ' K , K -.} #.X.$.| _ ' ..u u 0 0 e #.' _ $._ f ' { _ f K =.@.K -.| u q L 3.0 q X.| | e K -.u #.@.7 # 0 ) @.` u   e _ , e ' f ) 9.' | I u -.I _ X.e u X.f f L L f 7 @ y K X.L e @ q ` ) 0 K K _ y , u K K 0 = e u ..` ) y # 0 u K _ ) @ % ) 0 # u K K e # g e e K u y 0 K 0 0 e k K K ) q e u K ' K u u u _ { 7 @ f ..u L K , ) u K ` q f ' #.@.@.u # 0 { @.) e e ) _ u = K e e ) s f H H K T 2.K u u e 0 7 = = = 7 7 7 0 7 0 7 # @ @ @ @ @ # # # @ @ @ @ # @ O O O @ @ 7 # @ # # @ @ # # O u [ X.s g K e q 0 e e s   o l F N l - c B i.i.F Z Z Z F Z F F F Z F Z F F B F N.m.d.c ; ; p.m V l   + o # # 0 u q o.u { o.) u K K e u K K @ 0 K ) ) ) { { ) e e e .._ K # K #...9.9.7.L ) K ..u u e s < ' ' K X...f q f _ q K k -.) ` #.} u u }  .0 f @.| } u L #.u ,.-.0 O 7 e K _ K # @ K 0 0 L K q | #.K | f g 9.e ....0 ) } g } s _ L <   = e _ X.K # O ` | q 0 ' K K 0 0 K ) ) 0 e q ) @._ ) e @ q e f _ _ @ @ f e @ 0 K K 0 , , H < u u e 0 , q y # q e 0 K _ q q u f ' K 0 u K K =.u   q _ u e K , 0 e e ) K 0 f _ =.@.@.7   u _ ..u , 0 ) K u # ' ) u ) w u , u s e u e = = w K L f y q r y q q e u = y u 0 e 0 q 0 0 # # = 0 0 < , s u , 0 # @ @ @   O O @ @ # ",
"K K f K L K e f u K K u u e u u e e K K K e u K K u K ) K u f K u e e e K ) ) ) _ ] u 7 @ @ 0 u e ..) ` { ` u K K u f { u # e ) _ ) ) ) ) K u u f | L 0 K -.I | } +...K ' ..u u 0 0 u | X.L @.' K ' ' K u ) -.-.) -.X.f q L 4.q 0 ..| | e e @.u q...u = 0 ) =.' u   e _ < u ..K f 9._ _ ' e #._ _ #.u 0 @.K K _ K f = @ 0 K ..K e @ 0 { f = u K ) 0 w f K ) 0 @ 0 e ..) f q # = y K _ ) X 0 K 0 # u f u e # s u q f u y 0 ' r # q k ) e u q u u f ' K u e u _ { 0 # u ..u L K 0 u K ) { y u | X.' { u O @ @.@.K y e K ) f = K K e K q 0 0 q , q L K e y e e e 0 0 y u e q y y y e r 7 # 7 7 7 7 7 0 0 0 0 y u 7 7 0 7 0 0 y y y r 0 0 0 0 8 # y ) -.s H L g K s 0 u q   x F i.N z > i z <.p.y.F F Z F Z Z Z F Z Z Z F Z B v.V.M.l z z > F F r.x     # # @ % y q { u { @.` u u K u e ) ) = 0 u ) ) ) { o.` e q u | ) u , L 9.} #.X.7.' _ _ X.u e y u 0 | ' f | ' e K K ' q K { ,.) _ #._ q 0 L +.= u @.| | e f #.e #.@.0 @ X 0 _ ' K # 0 I q , K _ 0 ..#.K | s s #.s } | 0 u ' s g L L K ,   = u | ' K #   ` { y q K ) K , , f f f , 0 0 u @.` K 0 o 0 e f _ _   @ f u @ 0 K K e , , L , u K u 0 , e 0 # e u u ) _ 0 e f u _ f q u u K ..e   u @.u f L 0 0 f u _ K 0 K _ #.=.` 0   0 ` ..) e y ) ) u @ K u w ) e H s R R 1.R q , u f 0 , = @ @ @ X # @ # O O @ @ O O     O   O O O O     O @ X         O     O O O O @ ",
"@.X.@.@.| _ _ | ' ..#.@.@.X.@.@.' K K K ) ) K K K K K u 0 0 e 0 7 # = = 0 y y y u y q y 0 y s g e ..) ` ..` u u k e K ` u , u K _ ) ) ) ) ) f u 0 f e < _ 9._ | | | | K K _ e w 7 q K ' @._ X.| K | ..K e _ @.-._ -.X.K u _ #., = ' X.| e u ..u ..{ u 7 7 K -.@.q   e X.e u X.K K $._ _ _ q X.L _ #.L q #.I K ..K K 0 # q K | K u # 0 { K = f ) _ e 0 0 u ' e # y y ..) K y @ # 0 u _ ) o 0 ) 0 # u f u u = s f u u K e 0 @.u # e u ) e u e u u K ' K u e f ..{ 0 # e ..u I K 0 u K _ ..u u ' X._ ..u 7 7 { ` u 0 u ) ) f = K e q ) y 0 0 u g e e y u K k u k u y u u u y q 0 0 y r q 0 y 0 0 8 0 y y e y u K y q e e e y y k K u u k K K u 0 y =.-.< q u q e , # % %   c p.Z x B z z l V p.y.F Z Z F F F F F F F Z Z Z Z V.V.i.c c c ; m y.p.>           o 0 0 { u ) ` _ u e K e u _ K = 7 u ) ) K _ _ K e e u _ _ f # K -.L #.} #.} _ _ @.e y 0 # , _ @._ ....u ) ' ' f K _ q.' _ -._ u q _ #.# 0 X.| | e K @.u ....7 @ # u ..{ u @ # I e < K _ 0 | -.L X.K e #.g _ ..0 e @.g s I f K 0   = f X.L u # @ f ' q q f K f = 0 K f u = # 0 u @.) K u X = 0 u ) )   @ f e   q f f e # # L , u u e # 0 u # # e u K u K 0 e u u ' K e e q f @.e   e ..K f g q 0 ) e ) K 0 K ..#...@.0   # @.@.K 0 0 K K f # k e 0 K < e < e , s  .K q , 0 0 7 , # = 0 0 0 0 0 0 0 7 @ O O @ @ # @ # # X @ @ # = @ O X   # @ 7 # @ = @ @ @ @ ",
"k f u e K ' _ ) f f k ) { ) k K _ _ K f ) ) K u e f _ ` u f K u K L ) L k y 0 7 q e e y 7 4 u K y { K ) ` _ K u K e K ` u = u K ) K ` ' { ` K u % g q , | -._ | ' | | K u ) e 0 # 7 e K .._ X.' f ' | _ e _ @.-.) @...K u K 4.0 0 _ $.X.u K @.0 @.' u 7 7 u | ..f @ u @.u u | K K 7.' ' ' K | _ L -.L q #.} H  .L K , @ 0 K ..' y # 7 | ) 0 K ) ' u 0 0 u ' y 0 K e @._ K y # @ # e _ K # q L e # f K u f 0 s K q u K y 0 @.k 7 q u ` u u e u f K _ K u e K X...0   e ..u L K q e K _ ..f u _ X.' -.k u e ) ` k y e ` ) u = ) e 0 k q 0 0 0 e y y y e u e u K K K K K u u u u y y 0 0 q y 0 0 q y q y y y u K u y q 0 0 = 0 e u y e u f f e q 0 o...g L ' K f f f K q   m <.m l V c V l F y.p.i.F V Z F F Z Z Z Z Z Z y.p.m.v.c l B <.B l <.y.A     O . O @ s 0 { u ) { _ K u K e u ) ) , 0 K ) ) K K ) ) u u q f I s 0 _ 9.H | I X.} K L X.e y 0 , q K @.L } X.f _ ..L e s _ 9...` $.' u q } 4.@ , | | | y 0 ..e @.@.u @ # u ..X.k O @ | e , _ | e ' #.f ' K u $.g _ @.e 0 X.K f | f f 0   , s ' K u # @ K ) 0 0 u K u = 0 e K K , X 0 e ..) u 0 @ @ 0 f _ )   @ K e   q f u u , # H < e u u # u L 0 # y f K 0 u 0 e e u ' K u q u L @.u @ u @.K f K q , K f { _ y K ..' ) { 0   @ @...k 0 q ) K f # u u e ) , 0 % s < q u e e u u u y 0 0 0 e y 0 0 0 0 0 q 7 7 7 0 = 0 7 0 q 0 0 0 y u = = 0 0 q 0 y e u u 0 y e e ",
"e % y u u e r 7 = 7 7 0 8 7 # 7 e q e 0 0 q , = = 0 q q 0 u K w 0 0 # # @ # @ @ # # # # O O u K 0 { k k ) ) K e f u K _ u = u ) ) ) ` { { ` ) K q I < u X.#._ ' L | ' K K _ u 0 # , q ) ..' #.' f ' | ` u _ ..-._ ..' f K _ $.q 0 L $.X.u K @.y -...K 7 # e ` @.K @ u #.f e X._ K @.| ' ' _ _ _ L 9._ q X.| f  .L K e O 0 K _ _ y = = ` _ e u K ' e 7 0 e ' u # e e @.) u e # @ # u _ K @ 0 K e # u f f u , u u q e u e 0 ..u = e u ` u e e f u u K K u u K ..' u   y ..f L L 0 e K _ { f f _ ' _ -.u ) e ) @.) q y _ K q = K u q ) u u k u e u e e y e e y y e e e u y q e e q u e y e e e e u k k k u y y e y 0 7 0 7 7 7 e e u u u K f u e q ) ) ' ' _ K L g f K 0   Z m z h V F p.B y.F p.p.u.y.V V V Z Z Z Z F F F F B c z z V i.y.x l V c   # @ @   , s , ` u ) { ) f q K y u ) ) , 0 u K ) K _ _ ` K K 0 = s % u ..-.L | ' ....K u _ e , # , f K X._ ' X.K L @._ u f _ -...` #._ u e _ 3.# = | X.| y e @.e { ..u # # e K -.K @ O L K , K ' e _ -.K ' K e @.s _ #.L 0 X._ K | L K 0 O 0 f ' _ q , @ ) _ 0 0 ) ' K 0 0 = K _ 0 7 u y @.) f 0 X O = q K ) # # K u X q f q f q , L e e u K # u X.e # e u ) 0 u 0 u u u ' f e q u ' ..u @ q ' K f H e 0 K f | ` q f | | ` ) y @ = _ ) e 0 q ) K K # f q = u = 0 # y q y 0 0 e u e u k u u u u e y y 0 0 0 0 7 7 0 0 = = 7 7 0 r y 0 u K w y y 0 0 , , e K e q u f K ",
"T f e e q = = # = 7 = = 7 # # # @ @ @ @ O @ @ @ @ @ @ X @ @ # @ O @ @ @ @ O @ @ @ @ # = @ O e L u o.K ) ) ) ) u u u f ) u = u ) ) ) ) ) ` { _ K e f @ 0 ..-.' _ K | | K K ` u y q 0 0 K @.' X...f ' | ..L ..| =.` _ ' e u _ $.q = f #.| q u ..e ..@.r 7 # y ' -.q @ e #.u y #.| s X.| _ | ' _ ' L #.} = ' X.q | L L e   0 u L _ u 7 # ` _ e u K | u = 0 u { u # 0 q X._ u e = @ @ e { ) @ 0 K e # u K K u = q u u f u q 0 ) k 0 e e ) e u e u u K _ K u e K ..` u   0 ' f L I e y _ ` ' u u f ' { ..k ] u ) #.) 0 y ` K e 7 ) ) u ` u q u f u u y y 0 q 0 0 0 7 0 0 0 # 0 0 0 = = 7 0 0 0 0 7 0 0 0 0 0 0 y q q 0 0 e q 0 0 K _ ` ..' ..' ' L u ) K < e < X @ @ # q 0 . V B c x V V a.V V y.p.d.p.u.u.y.Z Z Z F y.F B c V F B c c V V p.> l B c   # O     q s q { u K _ ) K e f e u ) ) = 0 f K K K ` { { ) _ e < H o u ..#.K | L | ' K u ) e 0 @ @ , f | _ ..| f K .._ f K ` -...K X._ u u K 3.# , } $.X.u f -., @.@.K # @ u ) @.)   O X._ 0 ) | u I 7._ | ' u | K _ 9.K 0 #._ s +.L f <   , u _ | e 0 X K ' u 0 K _ ) 0 = = K ) 0 = K e @.K k q @ O @ 0 ) K = % f s X e L e f 0 < H q e u K # e ..y # y u ` q u q u u u ) f u e f ....u O e _ K f H e , K f ' _ q f | ..' @.e ) 0 ) { u 0 q ` K u @ K e , k 0 e 0 e q e y e e u e e K K K K K k e u u e e e 0 0 q y 0 0 y y y y y q u f y 0 7 = = # # 0 0 0 0 u e f ",
"K u q e u y y 0 y u e 0 y y y y 0 # @ 7 # 7 # 7 # # # # 7 = @ @ @ # # 0 q 7 0 7 = = = 0 # 7 u L u { ) ` _ _ ) u u f K ) y @ e f K K ) ) ` { K f e q   q ` -._ _ ..$.' u f _ u e y = e _ @.' | ..u ..| _ _ #....._ f @.u e ' @.e = f $.| q ) ..y @.q.y = = y ` -.e @ q ..u y X.X.s _ ..K ' ..' ..K ' | q X.X.< } L I q O w K ..' u 0 # ) _ e e u ' u = 0 u ` f # # 0 ' _ u e = @ @ y _ f o e _ u @ u ) K u , q e u f u q , 0 y = q u { u u u u e K ' _ L s K ..K q O u ' K H I e q K ' _ e u f ' ..) u u 0 ) q.) y 0 ) K K y ) { K ) y 0 u u f K k k u u u u u e u u u u k u u e y y y y y y 0 0 0 # # # # = # , 0 e f u e e e f s e e f e w = 0 ` @.d Y R s % < q < o   p.F B B p.V y.B l z Z Z i.i.p.p.y.F F F Z B z F i.B i i m F V p.<.<.u.B           q K 0 { u u ) K K e e u u ) ) = q ) ) ) ) ) ` { ) ) e q H # u #.@.L _ K ' ' f u _ u 0 # # 0 K ..' ..| f K ....K f _ #.@.) @._ q f ..#.= , _ #.| w e @.0 ..-.K = O y K -.K   O X._ < K @.f K $._ ) ' f ' L I 7.L , $.| e ..L K q   , u K _ e 0 @ u ' u 0 u ) K 0 # 4 K ) q X e e @.K e 0 #   X u _ K # @ e u X q K f u 0 % u 0 e u u 7 u ' y = e e _ q u q u e u ) f u u u | ' u   q _ _ g _ u # f K | _ u u _ ' ' =.y ` e _ @.) 0 y ` f e @ K u 0 K y u e u e y 0 0 0 0 7 0 0 0 0 0 q 0 # 0 0 = 0 0 0 0 0 q 0 q e u u u e q q e 0 7 0 0 7 # # y e u f g K K ",
"y u f k k u u y u u u y q 0 0 q y y 0 0 8 0 0 0 y y y q u y = 0 0 y y y k k k e e u u u 0 0 0 s K { ) { _ ) _ u u K ) ` u # u K K ) ) _ { ` ) f e e 0 ` 9.9._ K } 2._ K K _ f u y = # ) .._ | @.f #.| f ) X.' ' K 0 ..K u #.#.K # u #.' e ) @.e ' -.e = # y ) -.u O q @.g 0 X.X.f f @.K _ .._ X.f _ @., { @.u ' I } e O e f X.' K 0 @ ) _ u e e _ u 0 w u ) k = # 0 _ ' u u 7 @ @ y ' K X e _ e   u K K u , e e e u e y # 0 y = 0 e ` K u u e e f ' _ ' f L X._ K @ u @.K g L e 0 f X.` 0 u f _ ..f u u e ) q...) 0 u u u 0 K { K ` u e u u e e e y 0 q 0 q y q e y 0 q q , , e y u K _ ) K K f f u u K f u u f e K K K u q 0 = # # # # # @ O e -.-.$ % d s q # # #     S u.V V y.F V B c > z z F p.d.d.p.y.y.F B B V V m z i l F Z B d.a.y.y.N   0   O   < H e { e K K K K u u f f K K # 0 K K ) K ) ) ` ) _ u q q # u @.#._ _ _ ..' f u ' u y 0 0 , f #...' X.f K | ' _ ' | @.@.K _ L 0 u | #., # K @.| 0 ) @.y ' 9.0 = O 0 ) #._   O .._ , K 7.K g @.| K X.) ' I K @.L # #...< | I I ,   q u K _ k 0 O u ' k e e _ ) 0 # 0 K _ e O # q @._ e y #   O q _ ) # # f s X q K ) f , % u 0 u k e = 0 u e # q e ` 0 u e u e u _ K u q f @._ e O 0 ) K s } K , u K ' K 0 u K ' { ` e ) 0 _ -.K = 0 ) f K # K ) u K 0 0 q f u k e e y q 0 0 0 0 0 0 0 = 0 0 0 7 = 7 = = 7 # = # 0 4 # # # # = , , 0 0 y 0 0 0 u I ' ' ' ' ' ",
"0 e u u e K ) K K K k e u y q y 7 7 0 y 0 0 0 0 0 0 e e ) K y e y y 0 0 y K u e u K L K e u = 0 ] { ) *.` ) _ u e u f _ K 7 k K ) ) ) _ { ` _ ) q 0 = K @.9.) K ..6.' ) u _ K u y = , f ..' X.@.e #.X.u _ #.X.' K # K e u @.3.K @ _ @...' @.#.0 { @.y # # 7 u X.u @ e @._ q 9.-.K u X._ _ ..f ..K ) #.0 ` #.u | | } u O q _ X.' K 7 # ) _ K K f _ K e q u _ K 7 # 0 ` ' u u 0 @ O e .._   q ' e . s _ ) e 0 q y u f e e # q u 7 y u ) u e u u e u _ u u 0 f } X.f @ e @.K u g f = u ' K # u f L ..) K K e e X._ k 0 0 e y # ) .._ { u e u u u u u u u e e y e y e e u K K K K ) { { ..' _ _ K K ) ) _ ' ' ` ' _ u 0 0 0 7 7 # # # # # # # = # 0 ..-.% , q , q 0 0 q # o M l c F F <.V B B l i > l m y.Z F C C Z Z V c z i l l B i.N V B > ; Z b           < d q { u ` K K ) u e f f ) f @ % u K ) K ) _ { ) f u q , 0 L -.-.L K | #._ u u _ e e 0 # # K ..' L @.f K #.K K ' X.' ..f K @.q K ..@.u , ' 7.| 0 K ..0 { 9.e 7 @ 0 K @.`   O | _ # K -.L u _ ' u .._ ' | e } } # @..., L I I q O % f | | e q O e _ u q , K ) 0 # 0 K ) e @ @ 0 _ L q e 0   O 0 _ K # , _ f   0 K ) u , # e q u u e = # = 0 @ e u ..e u u e e u | ' _ f f X.) e O 0 ' _ u I K , q K ..f 0 K f ' ' k 0 u # _ q._ q = k f ) 0 K ` ) K 0 q 0 u e u e e w y q q e y e e y q u y y e 0 0 e u e q y y y = # # # # # # = 0 u K f u y w q y e e y e ",
"y q y e q y e u u k e y u u u k u q y e y y u u y u e y f u 0 0 0 0 0 7 0 y 0 e e e e e 0 e # e ] ' u { _ ) _ f u u K ) u # u ) ) ) ) { o.` _ ) e , X e ..9._ ) #.0.' K u { K u y 7 0 K @.X.@.#.q #.| u ..9.-.{ K 0 u e k ..5.L o _ $.X.K { -.e ) ^ r @ = y K ..u   0 | L 0 ..9.) q X.' ) X.g X.K ) @.0 _ #.u _ } } u O 0 u ..' u # # ` ) f K K ' K e 0 u ' K = # 0 _ ' u f q @ O q ' _ O q ' u O u _ ) e 0 e y e e e u 0 7 u 7 q u ) u e u u e k ' K u q f _ ' e @ q .._ K I H @ u ) y @ f K ' @.K K ) y 0 ' ) e 0 0 u u = ) ' _ { u u u e e e u u K f f u K e u ) ) @.-.-.-.-.@.{ ) K u K k k e q y e e y e q 0 0 0 0 7 = 7 7 = = = 7 # 0 0 0 { @.# 0 0 # 0 0 0 y #   l z B p.B F Z z V B c l l l c m B B B m m c z z z z m F i.Z p.u.: > F A   0 o @ . # u y { u o._ K _ u q u K ) ) # 0 K K K K ) _ { ) ) e e , 0 @.9.-.K K } 2.L K u _ f u y = # K ' ' _ #.K L 9.e f ' X._ _ 0 0 ..w _ X.@.q # K X.L u _ @.e ..@.u = @ 0 u $._ O O L | , K -.' u K @.e ' _ L ' q ' X.0 ..@.q ' T I 0 O < u | ..f q O e ' f f , f K y 0 0 K K e # # y @._ e e =   O 0 ' _ @ , ' f O 0 K ) u < # e q u u e = = = w @ y u _ e e u e q f _ ) L u f | ' q @ # ' _ q K g , 0 _ ..u = f u _ _ K e K 0 ) ,.| _ 0 e e u # K ` ) ) q e q u q e e y 0 0 0 0 q 0 q 0 , , y 0 , q e u L ' ' L ' K K K K K L L K K K e f f e y , # # @ O O X @ ",
"e y w 0 0 , = , 0 0 # # = = # 7 7 0 0 y y q e u u u e e e e q 0 0 0 7 7 y K K L K _ ' ' L ' 0 y [ ` e ) ) ) _ K u u K ) e # e ) _ ) ) ` @.) ) ) e , # u @.X.L _ @.3._ u u ` K y e 0 q _ #.@.@.#.e @.X.e | 9.-.X.K 0 K f f _ $._ = K #.X.e K @., u u 7 @ 0 ) K _ e @ 0 ..' q ' 9.' q ' _ K X.K | K L @.e _ $.f _ } _ 0 O 0 u ....u = # ` K e u K _ u u y u K _ 0 @ q _ ..f f y @ O q ' _ @ 0 ' K O u ) K q e u e q e e u q 7 u 0 0 e f u u u u e k ' ) u e K | ' u # q | _ g _ L @ f ) y @ f K _ =.K K ' u = ) K y u u k K = ) ' K { u K K f ) ' ..@.$.9.$.#.@.| =.,.q.-.@..._ K u u 0 0 0 0 0 0 0 0 0 q q q y 0 0 0 0 0 7 7 7 # # # # # @ q u 0 -.-.0 0 0 0 0 , , 0 #   l l Z s.Z r.u.i.y.i.F Z c l i z l l z l i i z c B C y.Z Z r.d.B > z y.z   0 + # o   0 u { u { ) f _ u q u u K ) 0 q K ) K K ) ` { K ' u q # q ) -.-.K K @.6.L K e _ K e y # = K ' .._ -.f K 9.f K ..-.' ` e , K 0 ) X.X.q O s @..._ -.=.0 ) ..0 @ @ = 0 ' K O O _ X., f 9.' u f #.f ' _ K ..u ' X., { #.q _ T _ , O , e ' ..) 0   u ' f K e _ _ u 0 0 K _ u @ @ 0 ' _ u u 7 O   0 | _ @ % ' f   < L _ e 0 , e y e e e 0 , 0 e # y u ) e e u e 0 u ) u q 0 e I | e # # } ' e f L 7 0 ) _ = # f f ' _ K e f 0 e ..K y 7 = e e = ) _ ' _ q u 0 u 0 e e e y e q 7 0 0 0 q u K _ _ _ ..@...| ' _ K K K K K f K L K L K f 0 = # # # @ # # # # @ @ @ ",
"u e e u u u u u u u e u u u y y 0 0 0 7 = = 7 = # # # 7 0 0 0 w y e q y e K K K ' _ L u e e # u ) ) e ) ) ) _ K u u u ) q , K { { K K ) ` K K ) u 0 , K ' ' f K } | X.K u ' K e u 0 0 K ....X.#.u X.X.e ' -.#...K q _ K K ' #.K # f #.@.y f -.e ) ) y r e ' K _ u @ < ' | e | 9...e _ ' _ #.L X.L K @.0 _ #.K ..I _ q O 0 u ..' u # # { _ e f K ' K u 0 u K _ q @ 0 ) @.f f e # O q _ _ # 0 _ K O f ) K 0 q u u y e u u y # ) e q u K e K f u q u ' ) e 0 K @.' u @ e @.K s L I = K ' u @ e u _ -.u ) | u = u e 0 u ) K f 0 ) { ) { f u u e u u u f K K K ) ' @.=.{ ' ) K u e e e e e y e 0 0 q y y q y q q 0 7 = 0 0 q 0 y e e 0 0 0 0 , u _ u ,.' = 0 7 # # # # # X   l m Z z.F Z Z V c B B F i.c l > i l l i ; l V Z V c c z z B B > > z F ;   , o # o O q u ) q ` ) K _ u e u u K K @ 0 K ) ) ) ) { [ k ' u 0 # o g #.#.K _ #.6.L u u ` K y 0 = , f ' #.| 9.u L 7.s K | q.@.' q q u q K | @.s X f $.| e ` ' 0 u k 7 @ @ e f _ _   O L _ 0 e 9.X.f f #.K ' ' K @.u _ X.< ' @.q L Y } u   = q ' ..K 0   u _ u u e ) K u y 0 K _ u O X 0 { ' u s 0     , _ _ # , ' K @ , K _ e 0 , e 0 y y e q = 7 u @ y u ) y e e u 0 u ' K u 0 u ' _ u @ # | | u H } # = K u # 7 _ K ..| K k ) 0 0 ' ) q 0 0 e k @ ) ) K K 0 k 0 u e u f K L _ _ K K u u ` ' ,.:.,.-.@...` K u e u u u u , , 0 q 0 0 0 0 = 7 , # = # # # # # # # @ ",
"e w q 0 q y q y y 0 q y 0 0 0 0 u u K K f u e e 0 0 0 0 = 7 0 e K K f u 0 q 0 0 7 7 = = # @ @ y ` ` u ) ) ) _ K e u u ) e # e _ _ K ) _ _ ) ) ) f 0 < f K ..K K }  .@.K u ..' u e 0 = f ' ..@.9.f @.@.e ' -.#.X.) , K K _ X.#.I 0 e #.#.e u =.q { ` e 0 u | L K f @ , ' | 0 K C.| u @.@.| -.L X.L u -.e ' #.f X.L L q O 0 e ....k # # u _ e K ) _ f u 0 y _ ' = # , K @.K K e # O q _ ) # , _ _ # u K K 0 0 e e y y e u q # u u u K ` e K u u 0 u { ) e 0 f #.' e   0 ..f L I _ 0 ) | u @ y u ) @.e K ' u @ y q 0 e K K ) q ) { _ ..@.#.$.@.#.#.9.9.w.w.9.-...` ) q e 0 0 = 7 = 7 7 7 7 0 7 7 7 = 7 , 0 0 0 0 0 7 = # 0 y e K K K ) K ) K ) K u -.K 0 e y 0 0 = # # o   a.i.r.l.m l l > - ; i i c C c ; > l i ; l <.F > l > ; ; > l ; ; V a.V -   % q q , @ y ) ` 0 ) K K _ K u u f K u X 0 ) _ ` ) ) { ` u ) u 0 o # K @.| f _ | +.I e q _ K 0 0 0 0 K _ =.' 7.f K -.u f ..9.| ' e e K e f ' #.K X f @.| 0 f @.0 e u = @ = K L K ) @   K | q u 3.@.f u ' e _ | K +.s ' | , ' #.e ' I _ q   # f ' X.k y O q ) u u u ) K u e q e ' K # @ e _ ..u u 0 X O 0 _ _ o # _ K o 0 _ _ e 0 q f , q q e e , 0 K # 0 e f q K u u 0 u ' K e 0 e @.' f # # _ ' u H } = 0 L K # # K f ....u ) ` q = K u 0 u K k K @ K _ ) ) 0 K q K k ) _ } @.#.$.$.@...-.q.X.=.` _ K K u q 0 , , = = = 0 7 0 0 0 0 0 0 0 = = , = = # # = @ @ @ @ X ",
"u e u e y y y e y e u u e u K ) _ ' ' _ _ K K ) K _ _ L K _ K u u e y 0 # = # # # # # # # = # e ) @.K ) ` K _ f u f K ` u # u ) _ ) ) _ ) ) K K u # # q f #.) ) ..} #.K e ' ' e q 0 = g ' ..@.9.f | X.f ' #.#.X._ 0 u f _ X.@._ 0 e 3.@.y y ..0 ) @.y @ u X._ K f @ 4 _ } % ' 0.@.f -.#.} #.L ..L e -.f ..#.K ..L L e   = f | | ) 7 # K _ 0 K ) _ f u 0 0 _ | q = 0 u { K u e #   y ' K # , _ _ @ u K K 0 0 e u e e e u e = e u e u ` u K f u = e _ K q q K $.' u @ 0 @.e g H _ q ) _ u # e u u ) 0 u ` _ u K q y k ) ) ) u _ ` K ` #.9.C.9.$.9.9.$.X.@.` K K f e y q q q 0 q y y q 0 0 0 7 = = = 7 0 0 0 = 7 = # # 0 u k u y e e y 0 y 0 0 = u =.k % 0 0 , = = , 0 o   z i.V y.l ; - ; ; > > > i B F z m m z z <.<.l - ; ; > > ; ; o - z.p.y.;   o o o   O y u ) , K K K ) K q u u K f # u ) ` ) u ) _ _ u _ f q # , K ' _ u K }  .| K e { K q q 0 = s _ @.' 9.K L 9.e K | 9.| ' y e ' f L | $.I # f #.X.0 K ' q ) { y 0 r _ L g ) # O f | 0 e | 3.K u X.L ..@.L #.s L | 0 | @.f X.L L q O # 0 ' ..u e   q ' f e K K ) e y 0 u _ K @ @ e ) @.u u 0 X   0 _ _ # @ L _ # 0 ) K q < 0 u , e y e e # 7 ) 7 y u K 0 K u e 0 u | K e 0 u #.' K 7 # | L u s | 0 q ' _ 0 # e u { ..y _ ' q # e 0 = e K f f = ) _ ` K f L _ u f ) K K K K K ) ) @.@.` K k u e 0 0 0 y q q 0 0 , , 0 0 0 0 0 0 0 # # # = , 0 0 q u e 0 q e q 0 ",
"u k K f e u y K u ) _ @...-.-.-.@.` ) K K K K f u K ) K L ) u 0 0 0 = 7 7 7 7 = = = # = 0 0 # e [ o.) ` ` K K K u f K _ u # y ) ` ) K _ { ) K f e # e K u @.K L | | #.K u ' K e q 0 # g ' ..X.0.K | #.K _ @.#.X._ u ) K _ @.#.K 0 q -.$.q y { # ` #.K @ u @._ e e = 0 _ L < K $.#.L ..$.| $._ ' L f -._ ' X.g .._ L u # @ u ..| u 0 X u ` y K f ) K e 0 0 ) ` q # 0 u ` f u e # @ e ' ' 7 = _ ' @ u K f 0 0 e u e y e e y 0 e u q y ) L _ g e 0 e ' f e q K @.' K = 0 @.e u K _ u K K y # e u K ..y e ` _ k k r q u _ K K 0 ) | f k L ....' | _ ' K _ ..` K K K u e e y y e y y q q 0 7 0 0 0 7 = , q y y 0 0 0 0 0 y q 0 7 7 , 0 0 7 y y k y y { ` , q 0 , , = # = X   $ z m F F c > l i l > i ; - m V y.V c c V - . o > ; i > i l l <.<.V V -   @       X e K ` w ) ) f K K q u u K K @ q K ) ) f ) ) ) f ) K u # < u L X.u L ..| @.K q .._ e 0 7 # f _ X.' 9.L L -.e f ' 9.| ..y 0 K f _ X.@.I # f -.X.0 u @.0 ` ..e # y | L s f #   u @.0 e } #.K f X.' X.X.K @.e f X.e ' X.u | K K q   , f | @.K , O 0 ' e u _ g f u e # u ' K # # e K @.f f y     0 _ _ # # _ _ @ % K K q , 0 u , y 0 w e # # K y e f _ q K e e # K { K q 0 u $._ u   # ' f K H  .e u ' _ # # u e _ ) 0 K _ q @ y 7 = e K u ) 0 ) _ ` ' 9.0.9.9.#.#.9.9.q.S.9.@.' ) e 0 = # # # # # # # = # # # # # # @ # = , 7 = = = # @ @ , 0 y u u K K K k K ",
"| @.#.9.#.#.' @.,.q.,.=.@.' ' K u e q e e e e 0 0 0 q 0 0 0 0 0 0 0 0 7 7 7 # # # # @ , e u = y ` { K ` _ K ) f u ) K ) u @ y K ' ) ) ) ) ) K f e # | | f X.f L | } #._ K ' u y 7 7 = K ......0.I | X.u k ..#.X.| K _ K K | -._ 0 0 #.#.u e #.y { @.K = u @.| e e 0 @ _ _ g e | 9.f 7.$._ #.K K K e X.K K ' f ..' L u u # K ..| K 0 O e ' y u K K f u 0 0 ) ..0 @ 7 f ` ) u e = O y _ ' 7 # _ ' @ e K K q 0 q u e y e e q # 0 u e u ) ) _ q f 0 u ' K q e K .._ f # 0 ..K e u ) e K K y 0 y e K -.u u _ u = y 0 0 u ) u f # u ..f K f u u y y e e e 0 q 0 , 0 0 0 0 0 q q y y y q e u e e y 0 0 0 u { { { ) K K u u u q 0 0 0 = # = # # # 7 # # { { 0 0 0 , , 0 = # X   - > > m B m B B B B c m l - - B F B m V > o o > z B B V B B c c ; > V o           # y ) @.u ) _ f K f e f f ) K @ q k _ _ f ) ` ) k ) f 0 O = 0 ) #.f _ ..| @.K q ' _ e 0 0 o u _ ..' w.L K 9.K K | 9.| | e q u f ' #.@.u @ 0 7.X.0 y { 0 ` @.e @ y X._ f f # O 0 @.0 e } 9.L f #.| X.| L X.u u $.f ..#.f | K L q O @ u _ X.u 0   = ` e u _ f _ u 0 @ e ' ) @ = 0 K ' e u q O O y ' ' @ # f ' @ , K K y , , f 0 y 0 q u 0 @ u e 0 u ) u K f e # e _ K 0 0 u $.' K 0 # K u q s L u u ) f = = u y K K = u ' ) e k 0 w u ` K _ y _ K K u X.0.#.9.| 9.9.#.| X._ f f u e y q 0 0 q q q q 0 0 7 = 7 = # # # = 7 0 = # # @ @ X , u u e 0 w 0 0 = , 0 ",
"K f u K K _ ..=....._ ) K u e u e e q 0 0 0 0 0 q q q q q 0 0 0 0 0 0 0 0 0 0 , , = # q K ' , y ] o.K K ) ) ) u e K f ) e @ u ) _ ) K ) K K K f u 0 4.3.y #.K _ | K | ) K ..K e 0 7 # u _ ..L @.g ..@.u s ' @.X.X.f ) K K ' q.) 0 # -.#.e y -.0 ` 9.K @ e #.| K , 7 @ K ' K u | 9.u #.#._ $._ K _ e ' _ K ..K ' ' f 0 0 0 K ..| K 0 O e ` 0 u K _ ) u 0 0 f ' u @ 7 f _ ) e u 0 @ 0 ) ' 7 # ' ' o u _ f e 0 q e e y e e e , # y u K _ f f u _ e u ..K q e f ' ' K # 0 ) K e f L e e K u u 0 0 u @.u K ..k = y 0 0 u ) u u @ e ' u u y 0 0 0 0 q e e u u f e y y 0 0 7 = @ 7 0 # = 7 = q 0 0 0 # # 0 r 7 0 y q e y y e e u u u e y e q y 0 0 7 e { -., u u u f s e u <   ; > ; i > > > i ; i l B V y.l V V c c V o . V V B l l ; i > ; $ $ i B > . o X o   @ u ) ` e ` _ f f K e K u ) K @ y K _ _ u ) ) _ K K u , @ Y e K ..u I | ..@.K u | K q 7 7 X u _ X.} 0._ L 7.K K | 9.X...K K ) ) _ @.@.u = , 7.@.q y | o _ #.K @ y X.' k 0 7   0 | , q ' 9.K f #...X...L ' f f -.K _ X.s | L L u % @ f ' @.K q   e ` u e ) u K u 0 @ e ` _ @ @ q K ' u e w @   e _ ) # @ f | # , K f q , < f 0 e 0 q q 0 @ e y 0 u ) _ K f u # e ' f 0 0 u @.' e # # K K e e L f f K e @ = u e ` ' 0 u ` K y u 7 q u ) u ) # ) _ ) y K @.) ' _ K _ ' L _ u f u u e y q q 0 y y y q 0 0 # = 0 = = # # 0 y y y 0 0 0 0 , q = # # # # # = = 0 y ",
"9.9.9.9.-.@.{ ) u y e 0 0 7 0 0 0 0 0 0 0 0 0 0 0 0 q 0 0 7 7 7 , 0 0 e u K f u K k u K _ ' 0 y ) { ) ) ) ) ) u e ) u K u @ u K { ` k ) u ) _ f f q  .6.e X.u ' #.L @.f u ' K y 0 0 = u K #.| @.g X.#.u e ' -...@.e L _ K { -._ 0 # -.@.u 0 #.q { -.K # q @.#.K 0 # 0 K | K f _ $.g X.#.} #._ L | f ' _ _ @.f _ K u 0 # e u | | K 0 O q { 0 u K ) K u e e u { u @ = u K f e u 0 # 0 _ X.7 = ' | @ u ' K q 0 e u e e e e u # # e K ) K u L _ ' u K @.) q e u _ ' ) # # _ K K _ _ f e K f u 0 0 K @.e f ' y 7 u 0 7 0 k y e 7 u ` u u ) ) ) K ) ` ` ` ` { { _ ` ) u u u e q y 0 , # # # # # @ @ @ @ = 7 = 7 = # # @ X   @ @ @ # = 7 0 0 0 7 q 0 7 ` q.0 e u u K L _ } s   z z l i ; ; ; ; o - . - z V c l F c F Z . n F c z i o $ ; ; - - - ; V c     o # o @ e ) ` e _ K f K u q ) u K k X 0 k ) _ f K ) K f K u 0 o 0.I u | f ' } _ @.L f ' e 0 = = o u K .._ 9.' _ $.K e _ @.| @.L f ) f K @.-._ # = -.X.e u ..0 K #.K = 0 | | K 0 y O f ..s s f 9.L g -.' | | f K K u @.f f ' s .._ K e q # f ' | k w   e ` e q ) f K u 0 # e ` ) @   0 K { u e q #   0 ) ' # @ e ..@ e K K q , , u 0 e 0 e 0 0   0 u e u _ K f q s , u { K 0 q f ..' u # # K K q 0 K u u f u 0 0 0 y _ ..y K _ 0 # y 7 0 u ) e u @ u _ K , e f u q , 0 0 e # = # # # = = 7 = 7 , 0 0 0 0 q e u e 0 0 = 0 0 K { k ) K K u e u u q 0 0 , # # # @ @ @ ",
"7.@.X...) K K e y q 0 0 0 0 0 0 0 7 7 0 7 # # # = 7 0 0 7 0 0 7 # 0 e u e u u u u u e e y e # 0 ) ` K ) ) _ ) f e K K ) e @ e ) { _ f ` k K _ u f 0 #.4.y X.u | -._ @.f u ' ) e y 0 # q K -.X.7.L X.$.K e | $.X.$.K _ ' ) ..:.) e 4 9.X.q r @.0 ) 9.) = q #.9.K q # @ f ' K u _ $.L ' X.' X.K K X.K ..' _ ..K ' L _ q   y u X.| K y O q ..q u f f K K u y u ..u # @ u ' K e y 0 # 0 _ | 7 = _ ' , u _ f q e u K u u u u f = # u _ _ ) e ' | K e ) { u 0 e u ' _ ` = # f f K K K u u _ ) u y 0 u ..0 u ) = y u q 7 0 u y 0 @ 0 ) k u K K K u u u e q e K _ _ ' ' _ _ _ ) ) K K u e y y y 0 7 = = 7 7 7 0 0 7 = 7 0 , , , 0 e k K ) k k u u u u y D.q.K f f e u e q u 0   u.m z z i > ; i i l ; > z V ; o c ; i l   : c z z c > > > > > > - i F F     0 q , @ u ) { e K K K K u 0 ) u K K   0 k ) { f f ) u K f u 0 < 6.H e @.e } _ L ' f f ..u e , = X e K ..L ..L L $.' 0 ) ..| #._ u K f K @.-.K # , 9.X.0 e -.0 ` -.K # = ' @.K = = O u ' f K s 7.} K -.' ..X.K _ f u | K ) X.f ' L s , # , f } X.K 0 O 0 _ e 0 ) K _ f 0 # q ) ) 0   0 K _ u e y =   0 K ' # @ u X.  , _ K q , = e 0 e q e e q   # e u K K 0 u f _ 0 f | K 0 e u ' ' ) = @ K K f u K u 0 u u q q 4 q ` ' 0 ) { e # y = 0 u ) e u @ e ) ) = , 0 # 0 , e u u f u f u u y 0 0 , # X @ # @ @ @ # = = # , # @ # = 7 # 0 0 , 0 0 0 0 0 y u u e e e y y q ",
"_ _ ' _ K f K u u e y q e e y q r 0 7 0 0 = = = = 0 0 7 = = = # = e e y 0 0 0 0 0 0 y y y e # y { ` k K ) ) ) f e u u ) e @ e k ` ) f ` k K _ u f e +.' 0 @.g ' #.K ..u K @.) u y 0 # e ) X.X.$.L @.9.L q _ #.#.9._ ' ' u { -._ u # 9.#.u 0 #.q u ' k # 0 #.9.| e 7 O f | _ u K $.L ..@.' @.K K X.s ' ..' @.K | L ..e X e K @.X.K u X q ' 0 u K K f K f q u ..K 4 # K ..f u u y X 7 K ' q # K } 0 q ) u , e K ) f u u f K 0 @ f ' _ _ e L -.' ) _ ' u w e f ' _ ) = # _ u ' _ u u f _ k y w w u ..q u ) 0 ) ) y 7 y K u 0 = 7 k u k u u u e u u e e e u K | #.-.#.#.X.@.#.#.#.@.@.' ) K e e y y 0 0 7 0 0 0 0 0 y e K K ) ) ) ) ) K u k u u r e -.,. .#.9.#.-.@.X.' q   p.F l c i > i m V Z u.y.y.V l . c ; > o   i V y.B C B m l l i l $ c i.z     < , $ @ y u ..u K K ) K u 0 K u f f X q k ) { u K K u _ K f q s G.K u | q X..._ ..u e ' k 0 = 7 @ f _ -.| @.L I 9.{ 0 K #.@.@._ q ' K ) @.@.K # , 9.| 7 q -.0 ' -.K # 0 ..-._ e @ O f | K K u #.' K $.| | | K ' _ f ..) ) ..e _ f s ,   0 g | X.u q O q _ e 0 ) u K u u 0 q K _ 0 O 7 u ) u e e 0 @ 0 _ ' % # e ..= 0 ' K y 0 0 u y e e e e 0 O 7 f K K K u _ I _ q ) ..f 0 e u _ _ ) , O ) f L K K f q u ) y 0 7 0 ) ' = _ ) 0 = e = = 0 k 0 y @ u ) ) 0 ) ` u ) K ` ) ) _ { { _ _ ) u u u e y 0 0 0 # # # # @     O   @ = 7 # # @   O O           X @ # # = 7 = ",
"q 0 0 , , , 0 0 0 0 0 q e y y q y y q q q 0 0 , y u u u e e q q e y 7 # 7 = # = = 7 0 0 0 0 = u { ' K ) f _ _ K u u u K u # e k ` ] u ) u u ) u u s 4.} e 7.+. .#.K X.K K X.K u q 0 # 0 ` @.@.-.s _ 9.` e ' -.#.0._ _ ) u _ @.| e @ 9.#.f y -.u e ` u # 0 9.q.| u 7 @ u _ ..y ' 9._ @.$._ #.K K @.K ' ..| ..K @.L ..f O q K @.@.K q X 0 { y e K ) _ K u 0 q ' _ 7 # e ..) K f e @ 0 _ ' e @ u | 0 0 K e , f K ) u u u K K q @ L @.` ' e ' @._ K ) _ u y e K | { k # 0 ' e _ _ e q K ' f 0 y y K @.0 w u 0 k K q # 0 u u 0 K e ) ) ] _ K K f K f u e e 0 0 e K K ` _ _ ' _ ' { ......@.@.{ ' ) u e e y y q 0 0 0 0 0 e u u e 0 = 7 # @ 4 # # @ ) @.:.} | #.| L K g u + . x.Z i l i > c <.B > ; > F V - o l > > .   - i.Z > z B F c c > i o $ x.k.  @ @ o . # y u ` e K K ) K u 0 u u K u   0 K ) { u ) ) e ` f u 0 s H.s f | q #.@._ | u u | f y w = X e ` -.@.$.} _ 9._ 0 L @.#.-.X.u X.K ) -.-.` = , 9.| 0 q @.= K @.) = , ..9.I q #   q | K K q #.} g @.} ..' u ' ..K @._ _ | f | K _ 0   0 u | X.K u   4 ' e 0 ) u K u ) q q K ` 0 O 0 K { e y q 0 O < L _ # # e | , , _ K q 0 e K u u e u f e O q K _ ) K q | ..g e _ ' e , e e ' _ ` 7 O u e K _ u f e f ) e y 0 = ) _ @ K u = y u = # 0 u 0 = O , u K 0 u K q u e u y 0 0 u ) _ ' ' _ _ _ ) ) K K u e y y y 0 7 # # # 7 # # = = 7 # = 0 = , , 0 e K K ) k k u u ",
"u u u u u e y 0 0 7 7 # 7 0 , , 0 0 e q 0 0 0 0 k ) ) ) k k f u k u e e e y 0 0 0 0 0 0 7 0 # u { { _ ` ) ) _ K u u u K u # y k ` ) k ) ) K K u u f 3.L u 0.6.6.7._ -._ ) @.u ) e = # e _ ..| 9.K | D.| e ' $.-.7.K f f u L @...e @ 9.#.K r @.u _ -.` 0 y 9.D.| f 0 # f ' @.0 _ 9.L ..#._ -.f K @.K _ ' ..| g @.L ' u # e L @.X.K e O = ` y e K ) _ K f y e ` ..y # e @.' K K y @ 0 _ ..q @ u ..e = u e = K f K u f K K K q @ u #._ K q L | _ K L L f q e K | ..K 7 q _ K _ _ u e ) _ y y y u K ) = y ) 0 u ) u # 0 u k y @.y ) _ ) _ K K K K u u u K u e e e u u u e e e 0 y q e e e e u u e e u q 0 7 7 7 = 0 0 7 # = 0 q 0 , , = # = # # @ , ` -.K f _ u u u u e + - x.V > i m p.x.x.V > > m p.C : o x l z - . o d.p.c V Z r.V V z m > $ x.n.    # # . @ u ) ) y ) f ) ) u y u u K K @ 0 u ) ` e ) K e _ f u q s G.q u #.e @.X.f ' e K #.K e 0 = @ 0 f ....$.I L 9._ q u @.#.9.X.g @.k K ..@.| 7 7 q.| e q X.0 y ' u X = @.S...u =   , ' _ K 0 #.| L #.' | ..e _ ' u ..' ....g ..K ..u   0 f ..#.f u   @ ' u 0 ) u K u K q = K ..f O # K ..e u e 0 O , K _ q o < _ < # K e , 0 u ) f u e u f u   # _ ` ) ) q | @._ ) ` ' e 0 e u ' _ ) = @ f e K ' e u u K K 0 0 0 0 _ _ # K u 0 _ K 7 7 0 K e 7 = = y K y e k 0 u e e e e e u K | $.-.#.#.X.=.#.#.#.#.@.{ _ K u e q 0 q 0 = 7 0 7 0 0 , 0 e K K ) ) k u k u u u u ",
") ) ` ' ` _ ) k e e q 0 0 0 # # @ # = # # # @ @ 7 # # 7 = 0 0 7 = # 7 = 0 0 w y y y r e y e = u ' ) k ) K K ) f u u u K f 0 q u [ ] k ) ) K f u u L 3.g e #.T  .@.L @.K K #.u K q @ # u f ) ' 9.g _ 9.K y _ #.#.$.' u f u f @.@.f # -.-.f y #.u { D.) 0 y X.F.X.u 7 X f _ #.e | w.L X.@.K 9.K u ..L ' ' @.X.f +.K _ u # u ' #.X.f u   # _ q e K ) K K f 0 e { { y # e .._ u K e @ 0 _ | q   u X.I 0 u u = K f K u K K K f q # f @.' K = K @.| K K u u y e K ' _ e = 0 K K _ ) K q K K 0 y y e ) { 0 k K 0 k ` u # y K ) u K # u ` ) _ K K ) ) ) ) K ) ) K K f K ) K u u u u u 0 0 0 0 = 7 = 0 e K K K K u e 0 7 0 0 = 0 0 e e w e e e y 0 0 = , { ,.e @ % # @ X + @   ; x.B l x y.c.v.v.F <.F F y.C h - N B B F   l F p.V i.Z Z V Z B y.Z 2 d.y.  @ @ o   @ y ) ` e ) f ) _ K e u e K K @ 0 u ) ) u K k y ) u u e Y 6.q K 9. .3...K X.f f ..u u 0 = @ , _ @...9.K f 9._ e s @.#.7.#.s ` u e ' X..., # D.| e e -.e u _ f @ 0 -.w.| f 7 O 0 _ ' g u $.| K 7.| ..@.y ' ..s ....' ' K #.g | 0   0 K ..#.g u   @ ' u 0 K K _ f f 0 % K ..q # # u ..f f s 0   0 _ ' ,   e | q # K e = e f K u u e k f u   # | | ) ) q ' ..L f ) _ e , e K | { K = # K e K ' e 0 e ' K q 0 0 e ` _ # u y 0 k K 7 @ 7 k y 0 ) w u ` k u K e K u u e 0 q , , u e K K L K K ` K _ ) _ { ..@.@...) u e e 0 y 0 0 7 = , = , 0 e e 0 # # # @ @ @ @ ",
"q q u ) _ ` ` _ ) _ ) K K u r 0 0 0 0 7 # # @ # 0 q 0 0 # @ # # @ X @ # 0 0 y y y y y e y u 7 y { ' K ) K K K f u u u f u = q k { ) u ) { ` ) u e I 2.q u ..u L | L $.) K @.u u 0 # y L _ ) | #.u _ 0.| e K #.@.@.u u K u k #.X.K # -.7.g e -.u ..9.) 0 0 ..J.#.g # O u _ @.e _ 0._ ..@.K 9.K u X...| | #.#.L @.f L f @ q K -.#.u K X @ ` y e K ) K ) f 0 f ..{ q O u { ) u _ e # = k ..e   e | } q u u = f u f f f ) ) ) q = K ..' ) y K $.' K ) u K e u K _ f u # # f K _ _ K e K K u e y y _ ..0 k k 0 ) ` u # q u K u u @ K @.) .._ K f u K ) ) ) K K ) _ ) ` ) ) ) K K K u f K K u u e y e u ' @...' _ K u e 0 0 0 q 0 0 0 = 7 0 w u K u u ;.;.0 0 e q e q q 0 O - a.p.F l i l F F > ; > > B F N x z l ; i   i B z i m z z B p.Z c z l d.B         . @ u ) ` u ' K K _ K e e e u u # 0 u ) [ u ^ ) K K u e u I 6.q } 4.2.0.X._ #.) ) ..e ) y # X 0 K ' ' 9._ L 9.' u u X.-.9.L u K u q _ #...# # 9.@.w w @.e ` 9.` = 0 -.F.| g 7 O 0 } ' K f 9...K -._ | @.q _ X.e _ _ ..| s #.s ' 0 X q K @.@.f u X O | u , k K ) f K e 0 K ..f # = e @._ K f 0 O 0 _ { 0   e | s o q u = u f f e u e f s f @ 0 _ | ) u , _ ' L f L K u 0 q f | { K 7 = _ u _ ` f e u | q 0 0 y u _ u # K u 0 u _ 0 # 7 k y e @.0 u ' u u K u K u K u u K u e e e e u e q 0 y 0 0 0 0 q w 0 q q 0 y e y = = # = # # = , # # # , , = # = # # # # ",
"u e u f ' #.#.#.#.X.X.@.@.X.{ ' ) u u y 0 0 0 0 = # 7 7 7 7 y u e e u K ` ) ` ` ) K ) ^ k ^ 0 y ` { K K K K K f u u f K u = u K [ ] k ) { ` ) u 0 _ 2.e K | u L @.' 9.) f ' e K y # y f { ` ..@.e | 9.X.q _ $.#.@.f K K e u @...f e @.#.g u -.e _ 9...0 y ..F.#.K = O e L ' e _ 0.I _ X.K -.L u @.@._ ' X.@.I #.K ' L X , ) -.X.e u @ @ ` e q u K K K u 7 f ..| e O e ` ) u ) e 0 0 u ..e O q | ..e u e # f e f K K ` ' ) e 7 _ .._ ' y u $...' _ u f e u _ ' u e @ @ f K _ ) u q K ' e y 0 e { ) = u u 0 ) ) 0 7 e u u u u X k ..u | X.#...K e k ) ) K ` ` { { ` ` ` { ` ` ` ` ` ) K K k u u e 0 u u e e u e e y 0 = 7 y 7 , , = # # 0 u u e q =.o.0 K ) e u f f f 5   F F y.> > l F c ; - - ; c r.c > - ; - .   F V i i c m z Z V l ; > A a.V .   @ @   @ u K ) e ) f K f u e e u f f , 0 e ) [ e ) ) K K u q e } 2.< K @.H @...L X.f K @.e u 0   # e e f _ 9.L g @.' e u X.@.-.' 0 f u q ) #.| = # 9.' u y @.0 { q.K 7 0 #.J.X.s #   q } | L e w.| L $.K } @.e K X.f ' _ #.| s @.u _ 0 X e _ #.@.e K 0   _ u = K K K f K e , K ..u @ = e X.u u f 0 O 0 ) _ 0   e X.I 0 0 u # u u u u f u K u u   0 ' ' ) u , | X._ f f e e , e f ` ) e # # K u ` _ f u q ` 0 0 y w u ' K # ) y 0 k ' q # 0 K K K k @ e ' e K K u ) k ) K K ) K f K f K K f u u u e e 0 0 0 0 = # = = 0 e K K f f u y = = = # # = 0 q w 0 q q q 0 0 ",
"e q q 0 q K K ' _ ' | X...@.@.=.@.' ' ) K u e q 0 0 q q y 0 0 0 e u K K u 0 0 0 7 7 7 0 # 7 # y ` { ) K ) ) K u e e u K u # u K { ) ) { { ` ) u 0 }  ., f } u H | ..:.K u { u K y # 0 e ..) ` X.u K -.X.0 K -.-.-.u _ ) e f @.X.f 0 ..#.e y =.y ..9._ = 0 ' q...f = O e X.' e | w.K L #.L #.K e @.X.K ' ..#.' @.u L _ # 0 K -.#.s K @ @ ) u e k ) ) _ K 0 u ..X.u @ u ' K q K e y 0 K @.u # u @.X.u e 0 # u e u u k ) ) K u 0 ' @.` X.q u @.X.' K e u 0 s _ _ u e # @ e u K K 0 0 ) ` y 0 0 u ..y 7 u k ) ) k y = y e k u k @ u { u K I K I g e u e 0 u u e u K e u u K k K K K ) ) K ) ` K K K f u u e q 0 = # = # @ = e u u e e y e y , , = 0 ,.@.e 0 0 # # , e K 0   ; m F c l l F Z z > - - z V B $ . ; .   . V F l l m z m y.z ; > m F m z     # # o @ u ) ` e K f f f u u e e f u # , u ) ` e ) ) ` _ f q q +. .< K _ 0 | } _ #.f ) { e u 0 @ 0 f _ ) ' -.g g 7.X.u u X.X.#._ q K u q _ -.} q , 9.| u e -.0 _ 9._ = 0 X.!.#.H 0   f _ | K u 0. .L -.K } #.u K $._ | ..$.| H #.s _ q X 0 K $.$.e K #   _ f 7 f ) K f f 0 q K X.) @ @ u ..u f ) 0 @ # u ..y   0 ' | q q s # e u u f u u _ f f   y ' | _ K , | @._ K K u K , u K _ u u @ o u e _ _ f e e ` e u y = K { ) , _ y 0 ) K 7 = 0 k u k y X u =.u _ ` u u u ) k K K K K K _ ) ) ) ) K K K u u u u K u u e 0 0 0 K ' ..' ' ) f u y , , 0 0 , = # # # = 0 u ",
"k K K e e e e u u e e e e u u k K K ) { K K u u e y 0 0 7 7 0 0 , 0 0 0 0 = = = @ # # @ @ # # u { { ) K ) ) ) u e e f ) k , u f [ ) ) { { { ) q u  .#.< K ..K | | ' @.) K @.f ) u = 7 7 ) ) _ ..K K 9.@.u K @.9.-.u ' { e ) @.@.f e ..-.K u -.y ' q.) 0 y ..,.{ _ = 7 u #._ e -.9.u K -.' -._ u ..| K @....._ X.e K K @ q K -.-.f K = @ ` K y K K ) _ f 0 u { -.u @ u { f 0 K y y q K { e O e _ ..u y y 0 k q e u K K ) ) ) = K @.{ @.u K #.| ' L e e e f _ ) e u = @ 0 f ) K 0 = k K u 0 7 k ..e q ) K { K ' f # k e e 0 k # u ` e 0 # , % , = , # X # # X # 0 0 0 # , , , 0 q y e 0 e k u K k K ) ) K K K u y q 0 0 q u ) u 0 0 q e u e e y q { =., 0 q 0 0 0 q K e O o > c <.y.F p.F Z F z > l B V i i ; - $ c Z z z m V z B i.z l F Z i c n   @ 7 0 # @ 0 ) ' e K K K K u e u u K u # w k ] ) u ) [ [ ) u 0 e +.H @ _ _ < } | ..$.f f _ 0 f 0 @ 0 e { ) ' #.f e #.#.u u ..#.=._ q ) e 0 ) X.) X # -.X.e u :.y ) 9.' = 0 ..F...K #   u L ' u K 9.@.s X._ ' #.u K -.' _ _ #.| I #.e ' K X 0 K -.7.q u =   _ f = u f K f f q 0 ) @.) @ # f { u u K 0 = , u ..e   0 ' | u e e # u u u f u K { K K @ u @.' _ _ o _ @.| _ K u u < u _ _ u q @ . y u _ _ u e e ..e 0 0 7 ) _ 0 = ) 0 q ` u = 0 y k e k y   e @.y | 3.| | u u u ) k K ` ` { ` ` ` ` ' _ ` ` _ ` ) ) f k u e e 0 e e u e e y q q 0 = # 4 0 = = = # # # = e ",
"K ) ) K K K f K f u u e e e 0 = , = # = # 0 e u y q 0 0 0 = 0 0 = = 0 w y w q y e y 0 0 = 0 = y ) ` K K ) _ ) u u u f ) u # e f ` ) ^ [ { ` ) e = +.3., L | H T | | @.) _ #.u K 0 @ 7 7 ) K ) ) f _ 9.@.q K ..-.-.e ..@.e K ' ..K q X.9.L e -.y _ -.' = y @.-.@._ = , K -.' e -.9._ K -.' @._ u | ..u ..' | K @.e u L # q K { @.f ' 0 @ ) ) q e ) _ ) K 0 e ` @.u @ y ' u , K e u 0 K ..u   u ' _ e q y 0 k q y e K K ) ` ) # f X._ X.u K -.X._ K u e u ) K f e e = @ 0 K _ _ e 0 K ) k 0 7 K { 0 7 K ) ' u ..` 0 ) K e = y = k u e 0 = = = # X O O O   @ @ , = # # @ % 0 0 0 , , , # # = 0 e q q y e u f k u u K k u u K _ u 0 0 0 0 0 7 q 0 0 { { q e 0 , , = # 0 #   - - - l Z y.y.y.y.i.p.i > i c m V i l c V l i z z F F F d.d.F B i $ m S o X O O   # u K ' e K f K K u 0 0 u K u # e k ) { ) ` { ` ) f 0 s 2.< @ ' L s _ X...#.u f ' q K 0 @ = q ..K _ ..f u @.X.u e | -.-._ u ' u q _ =._ 0 0 @.| w e ..= _ 9.u = = ` q.{ K #   f ..X.0 K D.X.g ..| _ @.u K #._ ) _ X.| _ @.q } K @ q f -.#.s K 0 O f K 0 u K _ _ K y = f =._ = = u { e e f q 0 0 K X.u @ e _ X.s q 0 @ q u e u u K ) f f = u @...' ' # _ @.| _ K u u , u _ _ u e @   0 u K ) 0 0 e ' y 0 7 q ` ) = 0 K u ) ) e 7 7 q e e u u @ e o.0 s K _ K s u e e 0 0 e e 0 y e u u k k k f K K ) K K ) K k K f u e e 0 0 , # @ @ X X = e u e y q 0 e 0 , ",
"u ) K K ) ) ) ) ) ) ) K K u u u u u e e y q e K ' ' _ ) f e y 0 7 0 0 q y 0 w 0 q w e k y e 0 0 ) ` ) _ ) _ K u f u u K e , f u ` ) k { [ ` ) e , 3.+.% K @.f L #.' | L _ #.u e = @ 7 0 ` K ) q K _ -.X.q f X.#.-.u ..@.e K _ .._ e @.7._ y @.e ) 9._ = 0 { 9.#.K 0 , g 7.K y #.0.f f @....._ k ..| u .._ ..K #.u e _ # # ) :...u ` 0 X K ) e y K ' _ ) 0 e { @.K # y ' K 0 _ u 0 7 u ' u # u { _ u 0 y y K e y f K K _ ..) # ) -.) ..k u X.| ' _ u 0 f ) K u q e # o 0 K _ ' f u _ ' K 0 7 f ) 7 y _ ` ..) { _ # K K K y r # q w u _ f u e y q 0 0 0 0 0 7 = # @ @ @ o # # # # # # # @ # # = = # = , q w w 0 0 w e u e u K e e w , , 0 # , = y ` [ e u e 0 e q 0 0 @ - l > - ; ; i m V m y.<.l i > - c Z Z F V B c z z z B Z i.v.c z i > l m V l O   O   # u ) ..u ) f K f u e e u ) K # y u ] ` ) ` { { ) e = f 3.e # } I L T ..' ..u _ ..u _ e # = @ ) f ) ..K f #.@.u q } 9.7.' u X.u e ' @.' q e @.#.s u =.= { q.' = 0 ..-.q.K = O 0 .._ e _ w.| , @.@.| $.u K @._ _ | | | K X.0 K f   0 K @.@.f K #   u ) 0 e f _ K K q # u @.| 7 # f | 0 0 u q y 0 K | 0   y _ X.u 0 0 = e q 0 e u u K K _ 0 q | X.' { , ' #.' _ K 0 0 0 f _ K q e # . 0 u K _ 0 = 0 ` q y # 0 ` K # u K K ) K ' q 7 u e 0 r u @ e ` = o = o # , # o @   @ # . # , < , # # = = = 0 0 y 0 y u u u k K K ) K K K u w 0 0 , = 0 u K e 0 , 0 e y y ",
"k ) f ) ) ' ' ` ` ` ` ) ) ) ) ) ) K K u e e e u ) _ _ ) K K K u 0 0 0 0 = # # @ # = y K u K q 7 f _ ) _ f ) f u q u u K u 0 e u ) ) u ` ` ` ) u 0 #.2.# K #.K L #.K X.' ..#.u e 0 # 0 7 ) ) ` u ) ' 9.@.q f X.-.#.K ....0 K ' @._ y ' 9._ q { e u { e # 0 _ -.-.g = 0 K $.f q 9.9.K f @.| ' ..) | ' e { ' ..u @.e 0 | = # K X.@.e ` 0 O u ) e 0 _ | _ L q y ) =.) 7 0 _ K 0 { u 7 # u ) e o q ` _ u 0 q e u e , e K ) _ #.K # ) -.) _ K K @.' _ ) u , u K K e e f # @ 7 K L L e 0 K | K y y K e # e _ _ K u ) K , ) ) ..) y # 0 0 y K e e u u e y e y y e e e e y y y K u 0 0 # # # # # = # @ @ @ @ # # # # # # # # 0 , 0 0 7 # # @ @ # @ # @ q ` ) f u K e u u e u # - m l > > : ; > > i i l i i i - - l c c c A c l > l l i ; - i ; i l z c F l 4 O o . @ u k ` e K f _ f u u e f ) u # w e ) ) k ) { ) ) e = L 0.q 0 | I I | X.' ..f _ X.u u 7 @ = # ) f _ K K K -.#.e q } 9.9.K u 9.K w _ ` ..e u #.$.u u -., | -.) # 7 ..#.@.K #   q #._ 0 ' D.#.< @.X.' @.f K @.L K ' ' _ f X.q K _ X 0 K ..@.u ) 7   e ) 0 y K _ ) K q # u { | 7 @ e ' 0 0 u y y 0 K ..q   0 ` _ u 0 0 = u e 0 e u u K _ ` 0 y { { _ ..0 K -.| _ f q 0 u K K u 0 e @   0 K K ' u , u { u y # y | K @ e ) ) ) u -.u 0 L e 0 # 0 # u u # o , @ = .         .   X # # @ X X @ < , < # # = @ @ 7 # 0 0 0 e y e u f u e e u u e u K K u 0 # = 0 0 7 ",
"e y 0 u y u e u K k ) ) ) ) ) ` ` ) K ) u u u 0 0 y y q 0 0 = = # # 0 e q e y y y y 0 0 = 0 0 0 ) ` ) ) f ) u 0 7 ) u K K 0 e y ) K u { ` ` ) u 0 6.2.# u @.f L -.K | ) _ X.e u 0 @ 0 O e K ' f _ ' -.X.e K | #.w.K ' @.u K ' X.K 0 X.-._ 0 ` u u ` y # q _ =.,.u = # _ 9.q q #.9.I f @...K @.K X.' f _ _ | q ..u y | = 0 r | =.u _ e   u _ e 0 _ | ' L q 7 ) @.) y = ) k 0 { ) 0 0 K ) q   0 ` _ f 0 0 e K e 0 e u K _ @.u # K -._ ) K K #.' _ u e 0 u K f q e K # O 0 K K K q q K L e q y K e @ 0 K ' ' K K u 0 K ) X.' y # y u y _ e e q e y y e y 0 0 q 0 q 0 0 e ) ` _ ) e 0 7 # # @ # 4 # = 4 # @ @ @ @ O O O @ @ @ X O O X       @ O O = { k e y u e k e u e 5 . l i > ; > > > : ; ; > > i i - . ; i l M M c i > i i i i i l l i i l z m l o @ % # @ r u ' f _ f _ f u u u u u e # u e ) ) u ` { ) ` u = q 6., 0 | } e } @._ | f | X.q 0 # O # 7 { u _ 0 f ) @.#.q 0 _ #.9.} u ,.K 0 ) _ X.u u #.#.f u @.= ` 9.K # 0 @.-.#._ 0   q 3.K e ' !.| , ..@._ ..f ) #.K K ' _ _ f ..0 s I X # K -.@.e K 0   u _ e 0 f L L L e = f ..' q @ u ..0 e ) e 7 , u ' u o e ' L u = 0 w u e 0 e f K ) { ` 0 0 _ { K | 0 _ @.| ' K e 0 f ) K u 0 e @ . , K K _ f q K ..K e # e ) e @ e ) ' ' f { q = ) K K 0 0 @ 0 0 y g f 0 e 0 0 7 0 = = # # # @   O     X X o @ @ @   O X X = # @ # # 0 0 0 0 , 0 0 e e 0 e u q q 0 , , 0 # ",
"o @ @ #   # , 0 0 , , 0 0 q e e u y u ) K ) _ K K K u u y 0 0 7 = # q k f e w q y u e e y e 0 0 ) ' ) ) ) _ k 0 0 ` u K k 0 e q ) K K { { ` ) u ,  .I # K 7.g L 7.| @.K L ..u k r # y # K ..` ) | | -.| , u ' #.q.K { -.f K ...._ 0 ..7._ y ' u y ` K = # ) #.-.f 0 0 f 9., 0 -.9.L u X.' f X.' -.' f _ ' ' q @.K y | # 0 0 ..-.f ' u @ e ` u e L } _ _ u # ) =.{ f # ) K 0 ` K y # f K u @ e _ K K 0 0 7 u u 0 u u ) _ @.f @ u -.) ) u K ..L ) e 0 e K f e = e ) q O q K K f q e ) u q e 0 K u = 0 _ ' k e y 7 0 u ) ` ` u 7 y u u -...@...=.....@.....{ { ) ) K K K u e 0 q , # # # @ @ @ @ X @ O O # # # # # # @ O @       @ @ O O   @ @ O @ y ) I u e y k e u K ` < : - - - - o o   @   +     .     o ; ; - - $ o O   o     o $ . . - $ - > $ 0 0 0 < # 0 e ` u ) u _ u e 0 u e K u , e e K ) q ) ` ) _ k # e G., , ' | s | X.K #.K X._ q e # # 7 @ u f { e ) ' $.#.e 0 ' #.q.' u -.u 0 ) | #.u e ..#.f y ..= k { u X e ..-.-.K = # f 7.K = @.T. .u ' @.L @._ K X.K K ' .._ u ..0 q I # # u X.#.u K e   y _ e # K | _ _ e 0 f ....y @ e { 0 e ` e # # u ) q   0 ` _ u , , e u e # 0 u K K ..' 0 = _ { u ' q ' X.L _ K q , u f u q e f @   # f K L e # e @.H e 7 u u , # e _ _ K u ` q , K _ ..k , @ # 0 0 u u 0 u y e w e w y e e q e 0 0 0 u e < # @ o @ @ # # @ X O O O O @ @ @ X X @ # # , = , 0 7 # @ X o @ X ",
"@ @ O @   # = # # # # q 0 0 , 0 0 = 0 0 0 u u u u K K ) K u u u e e k ` ) e 7 , 0 y 0 y q y = 0 ) ` ) K ) _ K 0 = K u u u 0 u y u K ) { [ ) K u , | L # L 9.I I -...X._ _ X.f e # # 0 @ ` -._ K ..| -.X.0 K @.@.7.L ' -.K K X.@._ = ..9.' u =.k y ` ) = # K @.9.f = 0 | 0.0 0 -.w._ f @.| q | K @._ K ' { ..0 @.K e | # 0 0 _ #.f | e X 0 _ e 0 L | _ L u # K ....f @ K ) q { K u 7 e e 0   q ` ) K 0 e 0 k u 0 u f L K _ u O e @._ K f K ' ) _ k q e ) u q = e _ q O w K K e e e f q s u y K y = 0 K ) y 0 = # q e K u e u 0 0 u e _ q e e u K ) K u f y 0 0 y k ^ ) ..=.) | K u q e 0 0 0 y = = = = q e e u y y q 7 = # # # 7 = = 7 0 7 7 # # 9 K p q q , , = 0 0 0 u u y u u u u u K u ) u u u y 0 0 # O   + = = # @ @ @ O O @ # # @ @ O O O @ #   # o # y k ` u K u K e , 7 k e f K = e 0 u ) e ) { ` ) f # g 0., , ' | q | @.g X.f | | q e # @ 7   u u | u _ ' #.#.q q _ #.9.' u -.K 0 K | | q 0 ' #._ 0 { 0 u ` 0 X = _ #.9.K = X K #.L , #.J.X.u _ #.K _ ' _ X.K K ) ' K q ..0 u L # 0 7 | @.u K y O 0 _ u % K | } _ e 0 e ' ..K 7 0 ` , e { u = = ) K 0   e ` K f , 0 e u u # e u K f X.) , # ) ..f _ q | X._ ) e q < u u u 0 0 K #   0 K K K 0 , u ' s e = u u = X u _ ' ) e K y 0 K _ @.` 0 @ 0 u # u y % q 0 0 0 y 0 0 0 , = 0 , , e _ { ` K y , # @ @     # @ @ # @ @       O       O O O                 ",
"y y 0 0 0 = # @ @ X   # # # # # # @ @ # = 0 0 0 0 y u u e w y e u u e f u e e 0 0 0 = 0 , 0 7 0 ) ` ) ) ) _ u 0 = ) u u u q e e K K u { [ ` ) u , T L # L 7.} I #.@.@._ ) | u e 7 # 0 @ _ -.) ) ..' #.| 0 0 | @.9.K ) ..y u X.@.) # ' 9.| u ,.) u @.| e u ` -.9.f # 0 @.9.= e #.9._ u -.#.f #.' @.' f ....X.0 ..u y | = y 0 ) -.' ..u   e ' u q K | ' L u X K ' { q @ e ) y ) K u 0 0 e q   q _ K f 0 e q f u , e K ) u e 0 O ) X._ u f _ _ K K u q u _ e 0 # e ) #   0 L K e e f f q f K e K q # = k ) y 0 0 = k u e 0 y e = 7 7 0 { { ..{ { { =...` ` k k u u e 0 , u ) _ _ L ) K _ ) ) K K u u w 0 0 0 # = = y ) ) ) ` ` ) k k u u k e y 0 # 8 ~ o   o . O O     . # # % # # # # # , 0 0 0 0 e e u u u e e q 0 0 # # @ @ X o , e e , , 0 0 e 0 0 # , @ # y ) ' K ) K _ u , 0 ) u K u = e 0 u ) u _ { ) ) f = G 3.# , X.| < ..#._ X.e L ' e e 7 # 0 @ k ` ` f | _ #.@.q , } X.9...f -.` e K X.' 0 7 ..#._ y { q y ` y @ 0 ) @.9.f 0 # L 9.f # :.!.| q _ @.f I ' ' @.f K K ' K e -.e u _ = 0 0 | -.u _ q   7 _ K , K I _ _ u = q ' @.K 7 0 ' 0 w _ u 0 # K K q   q ) K u = 7 # e u = u e K f @.K # # _ | f K 0 ' ' K ) 0 0 e ) u 0 # e ) 0   0 f K s < 0 K f < u = u e 0 o u ' ) u 0 0 # 0 f _ ` ) y # 0 k y @.X.` @.....{ { { ..` _ ) K f u u y 0 # , , o @ X @ O O O O       O @ @ @ @   X   O         O O         ",
"y y 0 y e e e q 0 0 e 0 7 = o # # # # # # @ @ # # = 0 , = = 0 7 q q 0 e = , = # # = @ = = = = y ) ) K _ ) K u q 0 ) u u u 0 u e ) ) K { { ) K u , +.H # _ 9.| L #.#..._ K ' u e 0 # 7 @ _ :.) ` ....$.X.K 0 | @.$.L ) _ 0 y @.X.K # _ #.X.u :.K u -.| 0 0 e ` -.K 0 , ' 9.0 e @.D.' f 9.#.f X.| #.' u ' ' ..s | f e ' # e 0 ) @..._ e O q ` K e K ' ' _ f @ f ' ' u O 0 K e k K u 0 0 u y @ 0 ` ) K q e e u e 0 e K _ e ) y O f X.' K f ..K ) _ e e u K u u 0 K _ 7 O e L L e q f K u K T K ) 7 y , e ) 0 u y 0 ) K u 7 0 u = 7 0 0 ` K K ) _ K _ _ ) _ ) ) K ^ ) k K K _ K K K u e u K K K u u _ ' { { ) k k u e 0 7 7 7 7 # # # = = = = = 7 # r ] #   O   O       o # o o   o % # # o # # X @ # # , , 0 q e 0 y e 0 , , 0 , , q u e = @ @ # = # = # , # # y ) ` u K K _ u , = K e e u = e 0 u K u { { ) K u = G 2.# , _ @.s | -.} @.K ' | u q X @ =   ` -._ K { ' #.#.f 0 | @.-.' f -.` e ) #._ e 0 $.-.K u @.y y ` K @ 0 K @.9.f # , L 9.0 # -.!.@.q ' #.u L ' _ @.f _ _ @.K y @.0 e L X 0 # _ #.f ' u   0 K u % K _ ' L K = e ' X.' , # _ e e ' f y # e e ,   q _ ) K 0 y = e u % e u K f _ K @ # ....f ) q _ L _ ) e 0 e _ e q @ e ) @   0 K K e q 0 f e e f 0 k e 0 # e ` u = = @ # y e K q e u # 0 u # u e 0 e u K ) u u u 0 0 0 y u ^ ) ..@.K ' g q 0 0 = # # = 0 # # @ # y y e e 0 0 = # @ X X # # = # = # = ",
"u u e e y 0 0 0 0 e ` { ' ) e 0 , # # # # # # # # = @ @ @ @ @ @ @ @ # # @ @ O @ O @ O @   X = u ` K u _ _ f e 0 0 ) e u e 0 u e ) ) u { ` ) K u # } K # _ 7.| L #.$...) K ' u u 0 # 7 O ) =.u _ ....@.@.f q X.@.#.` u ) 0 w ..@.e = _ -.#.e ..u ) q._ y 0 0 k -._ q 0 _ 9.0 e | D.| K ,.9._ $.X.#...u ' ' @.' 7.g y ` # u 0 K @.#...e @ 7 _ K e u | | _ f @ f _ ` u O # u u u ) K 0 # q e # 7 ) K g 0 0 0 u u y 0 u ) e ' e   0 @.' u u ' K ) _ e e u K u e q ) { 0 O u K K e q K K e u H K K = K q f _ 0 u y 0 ' _ K e y ) 7 = 7 y _ q 0 0 0 0 0 0 q 0 = , 7 0 q q q 0 e q u ) ) K K u e y 0 7 % 0 y e y 0 q y y e e y y u ) ) k e y k u u u 0 u { , y 0 0 0 = # @ @   O       o   o o X X   O   X # # # # , 0 0 0 , , , 0 y 0 0 e 0 0 , = # , # # @ =   # y K ` u ) K K e , # ) e e u , e q u K q ` [ ) ) f # H 6.@ 0 | @.L } -...X.L _ ' q y # # 0   _ -.K f ..| @.@.K # ' @.$.| u ..K 0 K 9._ 0 0 #.9.K u ,.u u @.) w e ` -.9.f # # | 9.q # 9.J.X.q ' -.f _ X._ #.f ) ' @.K 0 @.0 e L # e = ) -._ ..u   0 _ f , K _ } L K # e ` | K = # K u y ` f e @ 0 y 7   q ) f f , e 0 u u = y u ) f u 0 @ 0 | ' f u K ' f _ f q q s L q ,   e f @   , K K q q e K 0 u K w u w # @ e ) u = 0 X , u y y = 0 y # = 7 = ' .._ { _ { @.` ) K e u e y y = # u K L I L K K K ' _ k K e y 0 , # , @ @ # # e ) ) ^ K K k k u e e u e ",
"..{ { { ` ) ) f u u e y , 0 , # # # # @ @ @ @ @ @ @ @ O O @ O     @ @ O O O @ @     O @ O @ # y ) K K ) ) K u q 0 ) u K K 0 u y ) ) k [ ) ) u u # K q # _ 9.3.I 7.-..._ f ..u e 0 @ = @ K @.0 K ....$...u e X.3.#.' u ` u = ..X.e # K #.X.u { ) _ q...k e 0 K -.#.e 0 _ -.q q X.q.| g -.9.K ....@...u _ f ' I -.s 0 ' = K q u X.@.X.e @ # _ ) 0 e ' ' _ K @ u ` ) e O 7 K u q ) K 0 @ 0 u # # ` f K 0 # 0 e e y 0 k ) e { k O e @.| u u _ f ) _ e u u K K f u _ _ # O e L K y u f K f e L ..) # u 0 f _ e K y q ..K K K u { 0 = 7 7 @.' ' ' _ | ' ) _ K u K ) ' ` ` _ K e e e e 0 e K K ) { ` ` _ ` ) u e 0 y e e , = # @ = = = = # # = # # # @ K ] = 0 0 0 0 0 0 0 0 0 , # # , # X X         X X O       O @ # @ # o o # # , , = , , # @ X X o O o X #   = e k K u _ ) k y 0 0 ) e u u 0 e q ) ) u { { ) ) u # s 3.  , @.#.L _ #.@.| K ) L q q # @ = O ` -.K _ ....@.@.q # _ #.@.| e { e = u 9._ 0 = ..9.K K ,.e ) ,.' 0 0 e ` 9.K w # _ 0.0 # ' F.@.e | 7.K _ #._ #.K K _ .._ u X.0 e _ @ u # u @..._ e O X _ K 0 u _ | L K # e ` ' ) # O u K q ) u e # 0 e 0   0 ) K K < u 0 u e = 0 u ) u k e @ 0 | | _ e ) _ u ) K q e u K e q < K f #   w L L e , u K q s I K ) 0 7 , = ) e 0 k # e ) u y # 7 y @ # 7 = _ _ f ` K ) _ ) _ ` ) ) ) ) ) k u K _ L K K e e u K K ) ) u ) ` { K ) k u u y 0 0 = = 7 4 # @ # # # # # ",
") u u e 0 0 y u ) ) { @.' _ g q , # = # # # @ @ @ # 0 0 y q 0 7 4 # @ @ @ # # # # = = = # # # y ` ) ) ` ` K e 0 0 ) e u u 0 e y K ) u ] ) ] ) k = K 0 = K +.$.I 9.9.X._ f | e e 7 @ 0 = K =.f K ' ' $.| g 0 ..-.@.' u ) e 0 ' @.u # f #.| f ' ` ) ,._ u f K q ` @.K # K #.0 u #.9.$.K #.#.e _ | ..@.f | ) X._ -.u 0 ..= K L u ..#.' u # # _ _ 0 q ' { _ K # u ` _ u O 0 K u 0 ) K y @ 0 e # @ { K f 0 # 0 u e e 0 u f q ' K # e X.X.u u _ ) ' ' u K f K K e f _ ) 7 O e L K 0 e s K u e L | u @ e y K ) e f q 0 ' K ) ' ) ) 7 7 y 7 @.' | .._ | @.@.@.{ ` ` K K u e e e q u ) ` ` -.#.` ) u y q y q y u ) _ ' ` _ K ) _ K k u u K K u u k u e q K { q u q q 0 0 , 0 # = # # , ) ` K e , # # @ X X   O   X @ O @     O O O O   O     .                     0 u ) u u _ ) u q 0 , ) 0 e e = u y ) ) u ' ) K k u 0 s  .  , @.$.K ' 9.X.' f L _ q e = @ # @ ) =.e _ ....@.@.u , I #.@.| u ) e 0 u :.) # 0 @.D._ e ..0 ` q.K , # # u 9...0 % K -.e = ..F.#.s X.D.' ' #.' -.K K _ ' | I @.0 u _ X f # K X.@.' e O @ _ ) 0 u _ | _ K # , _ ' ) 0 O 0 K 0 K K u # # 0 y O # ) f g , , 0 e u y , e ) e ) f @ O ' .._ q ) _ s _ K 0 u u K u 0 q ) _ #   , K L e , u K q u g L ) = y u 0 _ e 0 f # u ..K u 0 0 k @ # # @ u 0 = y % < y 0 q 0 7 , # = , 0 0 0 e q e ) ` K u e 0 , 7 # # # e u y 0 0 y y q y q 0 0 e u u u 0 0 e e ",
"@.{ ` ) k u u u 0 = e _ _ ' L K K u ) f e y 0 0 0 # 0 0 0 0 0 u K K ) ) u k u e u k u e 0 0 0 y ` k ) ` ` ) u 0 0 ) u u u 0 0 q k k u K ) ) ] u 0 f 7 = L 9.@.L 7.7..._ f | u K 0 @ , # f =.f K ' ' #.#.f , | $.' ' K ` u 0 _ X.u # u -.X.K _ { ) q...u u | K _ q.) # K #.0 0 ..X.9.K X.9._ K X.| @.f _ L ..K 5.f 0 ..0 e ' e { $.| u # # ' _ e u | { _ K = e ` ` e O 7 k u 0 K K e @ = y # @ { _ K 0 7 q f u u y K e = _ ` # 0 | _ y K ' _ _ ' f K u K u q K ' ) 0 O 0 K K 0 q f f e 0 L L u = u e K K y K 0 0 .._ K K u K # 0 y r _ K K _ u u K K K u u u u u u k K e 0 0 0 0 y ) ..` ` K u u k u u e 0 0 0 4 # = 7 0 = # = = 0 0 , q e u u e ' ,._ { { ..{ { ` ) K K u e q 0 % # , o X X X O O O       O   O               O                   O   O   7 u K f u _ ) u q 0 0 ) q K u 0 e 0 K ) u ` ) ) u u = q L   0 3.0.} } 0.X.| f K ' e q # O # X ) ..0 K ..' X.| g , I 3.| X.u K u 0 e :.L # # ' 7.| e @.u ..9.' k y 0 K -.@.e # K -.f = K 9.$.K ..w._ _ #.' -.K f ) K _ _ @., u _ @ L , u ..@.X.e   @ _ ) 0 0 _ | ) ) # , _ _ g # O e ) 0 e ) K = X 0 e O # ) f K , # , e e y , e ) q ) K = O ' ..) 0 _ K f _ f 0 u e K f u u _ _ @   e K K 0 q s K u e f ' { = 0 e 0 _ u u K # u ' K K k u ' = = = # K _ g L K } K K K e e u K ) _ ) ) u e q q e 0 0 f u K ) ) ) ) K K u 0 , , 0 0 , # # X # = 7 = = # @ = = ",
"K u ) K k K ) ) k k K _ _ L K u u ) ` ` ` ) K ) ) K u y y y q y y y 0 0 0 7 7 = = 0 , 7 # 0 = y ) u K ` ` K u 0 0 ) u u u 0 0 u u u u k ) ) ] e , e = , _ -.$.I $.$.' ) f X.u L u O = , K =.K K _ _ #.#.K , | #.L ..) ' K 0 L @.K O K @.' u K o.u #...u e _ _ ' 0.' = u @.e q ..H #.K _ 9.X.K ' ' @.e ' _ ' _ 7.K 0 ..q u ..e ..X.' u @ 0 ' ` u u ' | _ f , e ` ' f O # u u 0 ) ) e # = u 7 O { _ I q = 0 e u u q K q # _ K # # ` _ e _ ..` _ ' s K u u u 0 u .._ 0   w K K e q f u 0 0 L _ u = u u ) u u ) 0 7 { k f K K ' 0 0 y 0 K = 0 0 , # = # # # 0 K K e 0 0 0 0 y u u u u K f u u w q u u f u e 0 u K K L K f f u e q w w 0 0 e 0 0 0 e ' @.q u K K e u y 0 0 0 u ^ ) ' ' ) K u 0 # O @     X O O O   @ # # = = # @ @ O         X X X @ @ @ O @   0 k K K ) ' ) K 0 , 0 ) 0 u u , e 0 k ) e ] ) ) ) k 0 q s   0 | 9.| | D.@.@.f K _ 0 e #   = # K #.u f ' ' X.7.H < I 9.| @.u K u 0 K -._ # = _ #._ e @.) ` 9._ e e u , ` $.f @ K -.u = _ 9.9.L ' 0.K u .._ #.) K ' _ | _ #., e _ @ L f u ..#.' u X O _ ) 0 # K .._ _ # = ) _ K @ O 0 ` 0 e ) K =   = u O # ) K f # @ = e y e , e ) 0 K ' 0 X ' X._ 0 _ K ) | K u f f K f e u ' K # O e K K , q u K u q f | K @ , 0 e _ u u K @ e _ K _ ' ) u @ = 0 = | ..' .._ @...X.@._ ` _ K ) u u u e 0 e ) ` ` @.@.) ) K e q y y y e K K _ _ ' L K K K u e q q e e u u e ",
"e e 0 = , , 0 0 0 0 e e e u _ ) u u e e q 0 0 e K ) ) u u u u y q q 7 0 e u u e 0 y e e e u 0 y K u k ` ` ) u 0 7 u e u u = y u u K k ) ) ] ) u 0 y , 0 f #.9.' #.5.| K f X.0 L q O # # ` q.K K _ ' -.X.L , | -.) -._ _ ) y ) @.K   u ' ) y u o.u ....y y ' | K 7...q u X.w u X.L | K _ 9.#.K | ..-.f ' _ _ g X.K 0 X.u e | s ' X.#.u O 0 ' ` u u ' ' ) u = y ` ` u O # k u 0 _ ) u = q k 0 @ [ _ L q 0 0 u u e 0 ) y 0 ' K 0 # _ ` u _ ' ' L _ u u u e e 0 u .._ 0   , u K u q u u 0 0 L | u # e u ) K u K 0 7 ' y y u u { 0 = 0 y q O 7 0 q 0 0 , = # = 0 q e q # O   # # , , , 0 = = 0 0 0 0 0 q u k u u u K k u u K K s u q 0 0 w e 0 0 0 0 @.:._ ' ....` _ u u e y y 7 # y K _ L K u u e u u e q = = , = = 0 = 0 0 0 e u u u u u y q q 0 y 0 0 # = @ # k k u ) ' ) f 0 # 0 _ e u u = = 0 u k e k K ] ] u 0 e u   q ' 9.} } w. .| u K _ q f # X = 0 f @.f f ` _ @.$.L , K 7._ ..u K ) 0 K @._ # # ) #._ u ..` ` S...e f _ f ) 9._ # L 7.u , ' | 7._ ) 9.| s ' ' @._ f ' _ | L #., e ' # f L e ' 3.| u @ , ` _ e e _ .._ L 0 = ) ` K 0 O 0 ) , q ) K 0 O = y   @ ` L g , # 0 u e u 7 u u # K _ q X _ ' u 0 ' _ K ' K f f e f e q f | K ,   0 K K , , u K q q f ' u # 0 r e _ e e u X e ..K f K ) u @ q y 7 L ' L s u f u u ) K k u u u e e u w , , 0 q y _ @.' ` ) e e e q y y q 0 0 = = = = 0 0 = # # 7 0 0 w q u ",
"' ` _ u K ) ) _ _ ) K e y q u e e f u f K f u e e e 0 , = 0 q 0 7 7 # = 0 0 0 7 # 7 0 0 = , # q K y K _ ` _ u , = e u K u 0 e K ) u u ) ] ) ) u 0 e 0 0 f #.9...@.7.| L K #.0 I K O # # e 9.L K L _ 3.X.L < ' -.) @.K K u y K @.K 7 u ' _ e e @.e ' X.y e ..#.e X.X.f K ' # 0 ' _ @.} L $.9.L ' | #.f ..' ' K ..K 0 | ) e #.K K #.$.K @ y ` _ u e { { _ u 0 e ` ` ) # 7 K u = K k e 7 u k 0 @ ) _ L 0 0 7 u u e q K u e _ ) q 7 _ ..u _ _ ..K K q u k e e e f X.` e   0 u K u 0 f y 7 # H | u # e u _ _ f ) 0 0 ..u 0 y k ` 0 0 0 u ) q e u f u u f f u e 0 0 w e q 0 0 # # # # @ # # @ @ @ @ @ @ @ # # # # = 0 0 = 0 y u y 0 0 , 0 q u y , = q ' @.) u f K K _ ) ) K K K u e s L L K K e u K ` ' { ) u k u e 0 0 = 7 7 7 y y r 0 r 0 7 = = = = # = @ 7 # # k K u K ` ) f e # 0 ) e u e , 0 e u u e u k ) ) u , , , @ e @.9.} } 0.X.| f L _ q L 0 O # # f @.g f _ K @.#.L , K 9.K X._ K _ 0 e ..' 0 7 { @._ 0 ' ` k -.' q e } I L 9.' # K #.f , ' L @.' K $.@.K L ' X.L e ..K } I #.0 q | % f } q ..X._ e   7 ` ` e y _ | ' K 0 7 K { ) 0   , K , 0 ) K 0   = u   X ) I H < # # e u u , f e X ) K q @ K ' u e ' ' K ' K s f f q e 0 f ..K 0   # f K 0 < u u 0 , s ' u = 0 0 u K e f u X K ' u K u ) _ # 0 y = 0 0 , 0 o # = # q # q f u 0 0 0 0 0 e e q 0 0 u K u u e w q f f f e 0 , e f u e u q 0 , , , = = # , 0 0 ",
"..' ..) ` ) ) k u u e y u ) ` ) ..{ ) _ ) u K ) ) k K K K K ) K f K f e e e e e u u e e 0 q 7 e ` u ) _ _ K u 0 0 e ) K u = y f ) K ) { ) ) ) u 0 q 0 e K #.9._ #.0.X.' s #.s g K X # # e 9.} K _ _ 7...L 0 L -.' -.K f u 0 ) #.K 7 u ..@.u q ) q _ 7.e e _ 4.K K ' ) _ { # 0 X.f | | } 9.q._ ' | X.K ......_ { K , _ ) 0 | f u X.X.K # 0 { ) u 0 _ ' ) u 0 q _ ' u @ 7 ) K # k u e 0 u e 0 # ) } _ q e 0 k u e q u e e K u e y ..@.u K | #._ u e K ` K u e u _ _ y @ # f K f , g e y # K | e @ 0 u _ ' K ) 0 0 _ e q 0 e { 7 7 0 u ' K L K L K K _ L _ _ K K K ) u K ) K u 0 0 # # = # # # @ X @ @ X   @ O O O O O @ # @ @ @ @ @ @ # # @ @   q { ..q 0 0 0 0 , = , = = 0 0 q e e u u K K u e e 0 y 0 0 u K ` _ ) u u u e 0 7 7 # = 0 0 0 0 = 0 0 y 0 y 0 7 u u e f ` ) f e # = k q u e # 0 e u u k ) ) ] ) u , 0 , % u _ 0.| Y 9.@.| u L } # L q   @ # { q.f K _ L #.@.g , K 9.K @.' K ) 0 u ' ' 0 @ L ' u = ) ' k -.' 7 e | | f 9._ , e @.s , _ _ } I g $.9.L K ' X.' s ..f _ K #.0 q ..0 e ..q _ X.#.K @ 0 ` ' u q _ { ) f # , k ` ) y O 0 K , y ` K q @ 0 k X O ' L L , , # u e e , K u @ _ f e O u ' f K ' ' L _ f e e u 0 e 0 f X.K q   = u K e < e u , = s | u # 0 y K ) y f u O u K = u y _ ) # # 7 =   @ # 0 = , # o X . 7 q e q , O   O @ = , 0 0 0 = # , 0 0 0 0 0 e e q e u K K K K K K K s e q w 0 q y 0 ",
"u u f e u u u u u u e 0 0 y e K ..#.' ` u q y q 0 y e u f u q y y e e 0 7 7 0 y y y e u u K 0 u @.K k _ ) K u 0 0 e ) K e 7 y u ) K K ) ] ^ ) u , 0 0 u K @.3.I X.0.@...L 9.Y H I @ @ @ ) ,.| K L _ 5.X.} 0 _ ,.{ ,.K f u 0 u .._ = K #.#.u e ) y K #.u e ' 0.} e _ _ K ' 0 # ' g ' #.X.7.D.L _ ..@.K ' ' .._ ' K # K ) 0 ..K q | | f @ e { ) K 0 _ ` ) u q 0 ` @.u # = u u # u u e 0 y q 0 @ k _ I u q 0 f u u 0 u _ { K u f u X.#.0 L @.7.' u f _ ..K u e u _ _ q # # f _ f < f K ) 0 L X.u X 0 u K ' L _ q y f 0 0 7 y _ 7 7 0 y @.| @.X.@.@.@.#.#.-.q.,.9.:.-...` ) ) ' ) f e w e e e e e u e f e u u e e e 0 0 0 # # # # # # # # @ X @ O # ..-.K ' ' ) _ f y e u K ) K K u y 0 0 K e u f u u e y 0 0 = 0 , # @ # 0 0 0 0 = # = w q 0 0 # 0 0 0 = 0 = = u e e f ` _ K y # # e e K e # y f K u u ) ) ^ ) k 0 0 0 , q | C.@.I 4.#.| f I  .q | < O @ o e ,.K K _ L #.X.L , K 9.) @._ u f 0 e | ' q @ _ { u # u { e ..X.0 e |  .q @.X.f K ..e # _ | | | s X.9._ L X.X.| f #.L ' f X.q q @.e q #.u _ @.@.K O 0 ` ` u 0 _ | _ f = , K ` K # O q _ , 0 ) u 0 # u ) @   { _ H , , # u e e , K u = ` f u @ u X.K K _ ' K K e u q u 0 e 0 f @.K e   @ u L u , s 0 = X s  .K @ , y K ' e K u O f _ 7 q 0 K K # # 0 w < q q K u u q e q 0 0 , , q , = # # O O X o X @ @ X @ @ @ @   X @ = = # 0 = , = = 0 e e 0 0 # = = 0 e 0 ",
"# @ @ # e f u 0 0 0 q e u y 0 q k K u K e e f K K u w , e e y w e q 0 0 , 0 , , 0 0 0 0 0 y 0 u ' u k ) K K u 0 0 u K K e 0 u u ) K u K ) ) ) k = 0 0 u u @.9.' } 9.| | L 5.| K } q O @ 0 ..' f K L 9.#._ q ' #.` ,.L L K y u X.K = u @...k u @.u K q.K u ' 4...u ..` u K @ @ _ _ X.9.X.7.F.' K ' ' e L ' ..| ' L , K ) , ' L q ..@.e O K _ K ) 0 ) _ K u e 0 ` @.) @ # k k = K u u 0 0 q q   e K L q # q u u u 0 u _ { u u ) K _ ` , K @.9...K u K _ u e e u ) { e # @ u ) K u K K ) 0 K ..K @ e K _ ) K K e u K 0 0 7 y ` 0 0 r q ` e u f f e f K K ) _ { ' _ K e e q y u u e u K _ _ ) ) K u K K u K u u K u e u s K K k f e y 0 0 e u f q , ..-.f ) ....@.{ ) ' ) ) K u u u y e k K u K _ K ) _ ) ) _ _ ) K e u f K K e q q 0 0 0 7 , 0 0 y 0 0 # 7 # # K K u K _ ) K y # 0 e K f e # y f K u K { ) u ) u 0 , 0 0 u } C.| } 0.#.| K I  .s I 0 O X @ u -.I s L I 3.X._ 0 s X._ -._ u u = u ....e # K @._ w u ) 0 ..@.0 e } 3.G K ..K K { # @ K L _ #.I #.F.| f X.' | K #._ ..f ..0 0 ' f 0 @.u e @.@.f @ , ` K u , _ { _ f 0 # u ` K = O y { = 0 k u q , u y #   u _ L 0 0 = u u e 0 u u , f u e , f #.f u _ X.' K 0 e u K e u 0 f ' K 0   = f K f , K 0 y X e | K   , e K X.K K u @ f K 0 0 0 ) K @ = 0 e K K e K s u K K K K K u u u f f K e e 0 = #   @ @ @ X                   O     O   @ # # @ @ @ X @ # # # ",
"0 , = # 0 q e e = O @ # = 0 q 0 q 0 0 0 0 0 q e u u e y f K L ) K K K K f e q 0 e e y y 0 0 , u ) u K ) f f u 0 # e u u u 7 q u ) u u K ) Q ) u 0 0 q f e ..9._ _ 9.' _ L 3.| s } s @   0 _ ' K _ I 3.#.K 0 _ -._ 9._ _ ) e K ..K 0 u #.X.u 0 @.e u -.K u _ 3.| u X.| u K = X u | @.9.} X.q.' _ @...f _ ......) K 0 u ) , ' ' e ..X.K @ ) K K ) 0 K _ K u y 0 _ ' ) X # K K # K f u q 0 y y # e f K e # 0 e e u 7 u ) @.) u ) K u K u _ -.q...K u _ ) u e e u ) { K @ X e K K u K L K 0 e _ f O e K ) ) K u 0 u u y 0 7 y ` 0 0 0 0 ' q f s s e e u f f K K f q q 0 e 0 0 0 = # , 0 y e e y y 0 e 0 e e e u e u u e q u K u f e u f e e s K e y ' -., q u u K f u K u u e e e q , 0 e K ) @.-.` _ u 0 = , = 7 e f f K K u e e f u y 0 0 q u e e u k e K e 0 _ ` u ) _ ) K q 0 = q K K q # y u ) f K ) ) Q ) u = = 0 e u } C.| I 9.-...L Y 3.s I s X O @ e 9.} s L L 3.@.K 0 s @.{ ,.' f u , q _ ..y = K #.' 0 u ^ # | @.e e ..4.L 0 _ _ K _ # O _ K L @...#.T.#.e @.| ' f X._ ..g ..0 , _ s 0 ..e q ..} u O y { ) K = K ' ) u 0 = u { ) 0 O 0 ` = , u e 0 = q q = = ) L I q 0 0 u u e # e K ) K e e e L 9.f u | $.X.L w f K ' K u 0 u _ ) 0 O # f ) f % f u _ # s | K # # q s ' K L u # u e 0 0 = k K @ , 0 y } | _ X.| ' X.@.X.#.#.@.-.@.@.' ) _ ) ) K e 0 , w 0 0 0 0 0 0 , < , 0 , = # o @ @ O O O O O O X   O     ",
"u f u u e 0 0 q 0 = = # O # # # # # # = = 7 4 # 7 = w 0 , 0 0 0 0 q e u q 0 7 = 0 y y w = 0 0 s _ u k K u f u 0 # e u K K 0 y u ) e u K k ) ] u # 0 e f e #.9.K K 7.' _ L | _ u | e @ O , K ..| | K #.@.I 0 f ,._ $._ _ ) e K ..' y u 9.#.K r @.u e 9.K u _ -.' u =.@.u K 0 O 0 | | 9.' @.9.| } @.} K _ X.@.X.K _ e u ) # _ ..0 _ | K 7 _ ) K K y K _ K u y q ) ) k # # ) _ 7 K K u 0 0 q y 0 e u K u # 0 q e K 0 u _ ..) u ) K u K K _ @.9.@.K q ' K e e f u K @.) @ # u K K q K L ) u ) } K @ 0 K _ f K q # u e y r 7 y ` 0 0 y e @.@.5.| O.O.X.X.#.#.$.-.| ..#.X.| ' _ K K K K u y y e 0 q < , = 7 7 0 0 , , , = # = 0 0 0 0 w q = # = = # 0 #.9.0 X # @ # @ , K f e 0 0 e e 0 0 0 , = u _ ) K u e u K f u e , = 0 = = # = = # # @ # # # # = , 0 , e 0 0 _ ) e K ) K f w = = u K K e 7 e u ) K u K ) ^ ) u 0 = = e 0 K D.| H @.#.} ' } 4.I I K X O X 0 ..' s L K 4.#.I , K #._ -.' s _ 0 r ) _ 0 # K -.' 0 K ..0 ) #.u e ' 3.| e { ) q _ 0   K _ } 7.X.#.J.@.u .._ ) e ' _ @._ | u 0 _ K 0 @.s 0 X.| q   u _ K ) = K _ f f q 0 u @.K 0 O 0 ) 0 0 K y q # , 0 4   u K L 0 # 0 u u u = e K X.u u f K K X.0 0 | -.#.K u K K L e e q u _ _ y @ X u _ K q K K ` 0 s | L # = u K _ K K e 0 K e 7 = = e u @ 0 0 0 L _ L | K ) ..| ..@.-.=.{ ' ` k u e e f K u u K K K K K K u K K K K K K K K e e u e e 0 0 e 0 , , , , q ",
") _ _ _ K K K ) u K ) e q , = @ # # @ @ O O O O   O O O O @ @ X @ # = # # # @ # # = # # O @ 0 g ' u ) ) u f u 0 # u u K K y = u K w u k u u ) u 0 y e K e ' 9.' e -.' ) _ X._ q  .T = O 0 ) @.@.@.H +.#.' 0 _ #.K #._ K ) e K | | 0 u $.$.K q { y y -.K 0 K @._ q ' 9.) ) q @ u #.' 9.' -.~.@.| X._ L _ ..#.-.) _ u 0 _ # g @.0 K ' f 4 ) ) K K y u _ ) f q 0 K ) ) # # K K # f ) u q 0 0 u 0 y u K e # 0 y y K 0 u _ { K u K e # u ) L X.9.9.K 0 ' ) u e f e f { k # # u K K e K ) K u K ) e O , K K e K e = u q e e 0 u K 0 y y e .._ ' K K K L K u ) K K K ) ` ` ' K ) _ _ ) _ _ ..' ..{ ' _ L K K K f e e 0 w e e e , 0 , # = = # # = 7 = , ..-.q , , % # X @ < q e 0 @ O o # 0 0 0 0 0 q 0 0 0 0 0 e u u e 0 e K _ ' _ L K K K s s q w e e 0 0 # 0 = < f K e K K f u e = # e u u e = 0 e K u u K ^ u ) u 0 = 0 u 0 _ $.X.K X.#.K L ' 4.L s } 0   @ q ' ' s L H 5.#.I 0 K #._ -.X.g ' 0 e _ ' 0 , ' -.| 0 u ..# ) #.u u } #._ u @.' u ) #   u | | w.| | F.-.K @.L L e ..{ @._ _ u = K u 0 _ K q | | e # ) L u ) = u _ f u 0 0 K ..` 0   q ` 0 0 K e y = 0 0 0   u f K 0 @ 0 e e f = e K @.K u f K e K e e ' ,.9._ q K K g 0 e e u ) ' e O . e K f q K K K , , L L # , f K ) K g y 0 K e 0 = 7 u ) # 0 7 @ < 0 , q # # , q q q u e e 0 , , , # # # = # 0 e u f u u e y e 0 0 q e 0 0 q q 0 q u K K K u w e e q s K ",
"@.-.#.q.,.,.,.-.@.` ` ) _ K u w 0 0 0 0 y y 0 0 0 = 7 7 0 5 # @ # # # @ @ @ @ # @ @   @   X 0 K { k ` K K f u = @ k u u u y 0 e ) e K K K k ) u q e e K q ..9.L u #.I K _ | _ q | } = O 0 k @.| ..f +.7._ 0 K #.) #._ f K u ) ....0 e ` 9.f 7 ` r r @.u 0 e _ K q ' q.{ u 0 O f @.{ ,.` -.F.@...#.' ' _ ..-.-.K ' f 0 ' @ f X.0 e ' K 7 _ ) u f e k _ _ K q q K ' u 7 # K _ # u f e 0 7 0 q 0 q K K e # 7 e e k = u _ ) e u u 7 @ K ) f | -.-.K , K K u y u e K @.K = # 0 K ) e f K K f K _ f @ , u K y K u = e 0 K u = s L e e y u | K u 0 q 0 q y 0 = 0 0 @ 0 @ 0 # 0 0 0 7 = = 0 e w e k ) _ ' ' ' | ' _ ' L K L .._ K K K K K K u K K k e e #.@.f u e u u q 0 , , q w # O     O   @ # # @ @ = = = # # = 0 q q , = 0 0 0 0 0 u e 0 , = = = 0 0 0 @ w 0 e K K e K f u f e = # e u K u , 0 u K e u u u k ) u # = 0 e , L 9.| u  .#.L _ I @.K s | e O   0 _ ' } | K #.@._ 0 u #.) @.| s ..q f _ @.u , _ 9.| w u { q ) #.K e } #._ e @.X.u K q   0 | | 7.X.' D.X.f $._ _ g ....#._ K f , K f # | K q | | e # ) f u ) 0 u _ K K 0 , u _ K =   q ' q 0 K u q = 0 0 y X u u K q @ % 0 y f = e K ..) f f K e u ) K ..-.9._ 0 K _ K 0 e u u _ @.u O @ q K f q f K K e f _ _ O # f _ K K u = 7 K 0 r = = u K # 0 y w I ' ' +.| | } X.X.X.@...K _ _ L L K u e 0 e q 0 = = 0 = = # , = 0 0 0 0 0 q q 0 = = 0 y w 0 0 e e 0 , , ",
"e u u f K ) _ ) u u y e u K u K k K K K ) K K ) K f K K K K K u u u e u u u e 0 0 0 q e q w u u ` u ) ) u f e , # f f e e u T ) K u f u e u ) u y w 0 f 0 K 9.} u @.K g L .._ e L } = O # u @.| | K | 9.' 0 f @.K X.' u K K K X...0 u ..9.L , ' f 0 #.K q K _ _ q _ -.) e @ X q ..) -.) $.F.X._ ..K | L ..-...u K f 0 ) # q X.u u ' K 0 _ ) u u 0 u _ _ K 0 q ) ' f 7 # k _ 7 f K u y 7 0 y q q f u 0 = 7 e u K 0 u _ K e f e # @ u K f | #.9._ 0 K K u 0 e e K ..) q   , ) K u f g K f _ O._ # 0 u f e f u 7 e q _ ' K f K y 0 0 u f , # # # = # # # # # # @ @ # @ @ # # # # 0 0 # # # @ @ 7 0 0 e y e y y e 0 0 0 e y y e e e e e y e 0 0 , y ) -.s g u ) K s K e u u u u u k y 0 # #   @ @ O O O O         O O X @ X @ @ # # 0 = # # @ # # 0 , = X # X , ) ) u ) f u f e = # f e K u 0 = u K 0 u u y u ) u = , 0 u 0 _ 0.| q | #.K ' L | f e 3.q O   0 _ ..X.@.g #.#._ 0 u #.K | | u ' q e K @.u , _ 9._ e u { = ) $.e 0 _ @.L e { -.K ) 0 O , X.| -.X.| F.#._ 7.L ' L | ..-.' K ) 7 u K % | _ , K } q # _ K u K 0 u _ K f 0 , u _ K 0 O 0 ' 0 0 ` u y = 0 0 e # e u K 0 # = 0 y k 0 e ) { K f f f = 0 K u | $.9.' 0 f _ f 0 u u e K { e @ # 0 K K q K _ K u K L f O # e _ e K u # 0 u , u 0 0 u e = 0 0 q | ..K H K I _ ' _ | | ' _ | ....K @.@.@.' ' ' @._ _ _ K K u e 0 , 0 0 , = # o # # = , # # o X o . X X o ",
"g L L L L K e q 0 0 , , 7 7 = q e K K K K u y u q 0 u q e e q q q e K K K u e e e e e K e e e e ) u ) K u u y = @ f f e q u #.' u u K f e k ) u 0 0 0 e # K #.' e @.L K _ _ L u e K 0 @ @ u -.' ..L L 9._ 0 u @.) X._ u f K K ..{ 0 u X.$._ 0 ' ) u @.u 0 K K ' q ) =._ { q # u -.) -.K @.T.#.K ' f | K ' { ..e K K 0 { # q X.K e ' ` e ` f e u q K L f u = y ) { _ 7 @ e ` 0 k K e y 0 0 y e y K u , 0 7 q e u 0 f _ u 0 f 0 = 7 e e f | $.9.' 0 u L f 0 e e K @.K e   0 ) _ K L K K u _ _ y O , e K u e 0 7 u q ) { _ K K 0 7 0 k q , 0 , q q 0 0 0 0 0 q q e e e u e s K e e e e 0 0 0 # 7 7 0 u u y 0 9 7 @ # # # @ @ O               O   0 ' q._ @.X.#.@.#.-.@.-.@.@.{ ) ` ) K e 0 , # , = = 7 # # # @ @ @ @ @ @ @ X O                               s ) ) k ) f u g e @ @ K e u e 0 @ e K 0 u k u u ) e 0 w 0 K 0 _ 3.| < _ #.u _ L X.g e 3.s @   0 ) =.| | s  .3.K 0 e -._ | ..u _ 0 u _ #.u % ) 9.' 0 e ) @ ) ..y , K _ L q ' 9.' K 0 O q X.' :.' #.F.9.I -._ ..L ' X.q...f ' 0 u K # _ | , u | u # ) f u K 0 u ) K K 0 , u _ ) e O 0 ' 0 # K e y = # 0 e @ e f f 0 # # w e u = q ) ` e u K q @ 0 ' u _ #.9.$.0 e ) K 0 e e e _ ..e @ # e K K e K K K u u K K 0 # q K e u s , , e 0 K , , K e 0 e y y _ L q e 0 f u e e 7 = 0 # e y u y u u e 0 0 e K K K K L K ..| X.......' } L K _ ' L s u e u q u 0 e e e ",
"X...@.@.#.@.| @...| _ K K q e e 0 7 , 0 , , = 0 0 0 y q e 0 q q 0 , 0 q e w 0 u q , % , = 0 , u ` u ) f K u e 0 # u _ u 0 u #.| u u K f u u ) f 0 7 q e # K #.} q .._ K _ K _ u q e w @ O K -._ | _ K $.L 0 q @.K ..) u f u u .._ 0 u @.9._ 0 { ) 0 _ K y K K | u u =.| { e # u -.K ,._ { F.@.K ' f ..K { { #.f K K 0 ) # q #.K q _ _ e { K u K L ' H e 0 # y K ) _ 7 @ w ) # u K u y 0 y y u q u w , 0 7 y y u 7 f _ u e u 0 0 k 0 e k } @.9.K e e L u 0 u e K ..K q O 0 K _ e u K ) u f K y @ , f K e q 0 0 e 0 u ) K K k 0 7 0 K u e L _ K K K K K k u e e u u u e e u s 0 0 e f u e e u k u w y e e y e y y e w 0 y u y 0 0 7 = = = = = # K @.q.q 0 u K L _ ..@.=.' ' ) K u e K ) K f e u e q e e e K f e u u f K f e q 0 , 0 , 0 = = = = = % , , , o s K ) K ) f u u q @ @ ) e y y e K u K e u K e e ) u 0 0 0 u < u @.@.e L ..q K L ..s q } g @   O K @.I } s } 0._ 0 e @.) | ..u ) u K _ #.u , _ 9.#.e w ` 0 ) { 0 q K L L < ' q.K u @   K @.) -.' ..D.$.K #.L | L ' @.q.' e ' 0 e K @ K | 0 u ' f , ) ) u u 0 u _ ) K 0 = u ` X.e   0 { q 7 ) e y = # 0 y @ q f f , # # 0 e K = e _ _ y u e # O e _ q _ @.-.#.q q K K 0 y q e _ ..f 7 X = K K e u s u f K | ' # # e K 0 e s 0 , q q ' f 0 K u 0 , 0 0 q 0 o = # = # # @ o o @           O   X   @ @ o o # = 0 = w 0 u u u u e u e w 0 e K f u k K s G e k u u ",
"K f ) K u u K _ ` | X...@.' ' ' .._ K K K u e y 0 0 q q 0 = # % , 0 , = , # # = # # # = # = # u ) e K f K u e e 0 u K e 0 K #.K u f u K e u K u 0 0 y e % f @.X.e .._ u ) u ..K u u u @ O u @.) _ K f $.K 0 e $.u _ K u ) e e ' ` = e X.-.L = ) u # K k q k ) ..f e .._ { q # u -._ ,.) ` q...' ..f #.) ` ) X.K K ) e ) @ q @.K e ' ' e { K e ' X.' K e 0 0 u u u ` 7 7 u k # u K u e 0 y y y q u , 0 q , q y u 7 u _ ) K k 7 e ' f K f _ X.3...K e ' u 0 u u K ' ) 0   0 f ' e u K _ u f K y 0 0 K K 0 f 0 0 y 7 e ) _ K u 0 0 e K u , 0 q 0 0 q y e 0 y q q 0 0 0 0 0 0 = 0 e f L L L L K K k y 0 y u y u u u u u u K K u u u e e u e e w 0 0 :.q.< q q q u u u u u q , # , # @ 0 0 = y u _ _ _ _ K e K u w e e q q 0 0 0 e K ) K K e y q q q K L e e , q u f u K u u e 0 @ @ _ u e 0 u #.) u e f u w u ) u 0 0 0 e , e X.@.e _ ..u _ K } g , K K #   O K -.' | K I 9._ 0 0 @._ ' | q K u f _ #.e < _ 7.@.u y @.0 k X.0 y K _ _ 0 ) -.) ) 7   u ..K @.' ' F.#.f ' u _ K _ ..@._ 0 ' 0 e K @ K X.e e ' K e _ u q u , f L K K = = f ) @.u O y K e 0 ` u y 0 0 7 y 7 q f u # # # q e u 0 u ' K 0 u q @ @ , f 0 _ @.$.#.e w f _ 0 0 0 e ) ..e #   0 _ K s L K K f K I K 7 o q s e q q # q u e ....K K q = # y 0 . # o , % # # # # # # # = , , 0 , 0 q u 0 e f q w w , # # = 7 u u y 0 7 0 # # # # # @ @ O O   @ @ O O   ",
"0 , # # # @ # 0 y u y e e w u u K K K K _ ' O.........' ' ' _ _ ' ' K e u f f k e f f K e u e I _ u ) f K e u ) q f K u K | L e u u u u e u k u 7 q u u u q | X.q | _ K _ q ' K e 0 y # = u -._ ` K K 9.X.e e -.e ) ) u ..u u _ _ 0 0 { @.) 7 K u = e = # u _ X.f 0 _ _ =.u # K #.) -.) ) 9.....#.f X.K K e | K K K e K = q #._ 0 ' ..q _ u < s #.L g u 0 e e u k ` 7 0 K ) 7 f _ K u 0 u q y q u 0 0 e 0 0 q u = q _ { ) k y u u y K u K ' @.| _ u _ u 0 e u K ..) 7   0 K ' u u K _ y e K 0 e 0 K K 0 e = 0 e 7 0 K ' ) u r 7 y ) ..K _ ` _ ` _ _ ` ) ) ) ) ) K K y 0 e y e s e e e q e u k u q 0 0 0 = = , , , 0 0 0 = # # # # 0 y y 0 y 0 q ,.@.I | X.X.@.@.@.@.' L L L f u y y , = , # # = 0 0 0 = 0 , 0 y e e e u u e 0 , y e e q e f s , , 0 , 0 = q K K K K u u e 0 # # K K q 0 u $.L u u K f e e K K 0 # 0 e # q ..@.e K ..e _ K L K 0 q u =   = K #.L | K g 3.K , 0 @._ ' _ e K u u K ..e # K 7.' e 0 =.e u ..y y u ) ' q e =.' { u   e ..K @.` _ w.9.K ' u _ K ) ' #.| , .., w K @ ) @.e q ' K e ' f q f s L K e q # 0 u ) =.e   # K e 7 K u e 0 0 7 e 0 q u w # 0 # y e u # u _ u 0 u 0 = y 0 e e _  .3.@.u 0 u L , w e e _ ..' ,   0 u _ u s f K u K K e O # e K q 0 0   e e q ) ) f K y = = y e q L g L g f u u f f u u f K u u e q K f 0 # < q = # = 7 0 0 = y y 0 7 7 = # 7 # # # = = @ X X   O X X X ",
"@ # @ # # # o # @ @ @ X @ @ # # o # = , , y e e f f u e e e e 0 y f u e u u f u e u e e 0 q u 2.` u ) u K e K { q e f _ #.0.K y f u u u u y u u 0 y u q g % _ 3.e ' _ K ' 0 ..K f e 7 = 0 K #.' ..K K 9.} u u #.u _ ) q _ e q ) ' 0 0 { @.k 0 K u 7 _ y 0 u ) -.K u { ' @.e # _ -.` -.) ' F.....-.K @.K K 0 _ K u f u @.0 q #.' 0 L ..e u f # u #.L g K u e K _ ` _ 0 = u _ 0 f _ k u 0 u q y 0 u 7 = q 0 e e u 0 u ) ) u q w u K = e e u ) ' ' k 0 K u 0 e e u ' ' # O , f ' f e K f 0 f K 7 y 0 K ` y 0 = y k 0 = u { ) u w # 0 u e , 0 y u K k e e e u K K ) _ K e k ) u f f K K K f f K ) _ _ ) ) K k K K K K K K f u u u u u e w 0 , 0 = 0 ' ) e u K _ L _ _ ' _ | ..X.@.#.@...L ) ' L u e u e y 0 , # # # = # o . . X X # # # # X X @ X     @   #   , K K f f f K e y = = u K q 0 K #.K u u u K y e k u 0 # 0 e # q | #.f K @.u ) u K ' q q u 0   = u @.K ' K f $.K 0 e X.K ) _ q ) e e K ..0 # e #.| y 0 ` 7 , L k 0 u ) ' u u @._ | q o u 9.K -.` ) 9.-.K ..f | ' _ _ ..| q | q u K X K #.u e ' L q ..K q ' | } H u 0 # 0 k e { e O 0 u q # ) u e 0 0 0 y 0 q y # , 0 # 0 0 e = e _ K e u = # _ e u u g } #.$.K u s ' 0 y e e ) ' u #   0 f _ 0 0 f ) e u K y @ # e _ 0 e w # y 0 # u _ f K w = = y 0 # 0 < q < 0 , y 0 0 = = = 0 0 0 0 0 < , , e K ' ' _ ' ' ) K e e u u u K k u k e e u K f u u e 0 0 0 , , ",
"e e e q e q q u q e y e u e e f u y w , # 7 = 0 ^ e y 0 0 7 # 4 # = @ @ O   O O             #  .` k K f K u ) ` 0 e ) @.9.C.L e K u u u e q e k 0 y q q L q _ 9.s _ _ K ' 0 ..} _ f # O # K ..' @.) u 9.| u K $._ .._ 0 ) u e ' { q 0 { #.K q k y 0 ..u y ) K @._ f ' ' =.u # ' @.` ,.) ' F.| X.-.K ..f K 0 L _ u K u @.0 0 X.| # K X.u # f # f X.I K L e e K _ _ ' 0 @ y _ u u ' K e 7 y 0 = 4 u 7 = 0 0 y u u 0 e ) K K u y u ` 7 e u u K ` ' K 0 K u 0 u e f ' _ 0 O = u { K u K K 0 L K # y 7 K K 0 0 = 0 e w 0 K { K _ u # e ) e 0 y 0 7 7 , , 0 0 y y # # # @ @ 0 0 # # , 0 0 , = , 0 0 0 q y e u u e e u e e e f k u u k K K u u u u e u X.@.e 0 0 w q y = = = e = # e 0 e K K u k _ _ ' ' @.' ' _ ' ' I L L L K f K L K u q q , 0 0 0 q 0 e , y # s K e u u f K e k u 0 f f , e I ' e u u u u y e k u = # e < < 0 K $.s g @.u _ u f X.q e 0 q O # e #.) _ u K 9.L y e $.f f _ e ' u e u ..K O e @...K 0 ` 7 = e # , K _ | e q ' K =.u   e $.K -.) K ,.#._ -.f } ' ) f K | q ' e K K # _ 7.f e .._ e ' u < f #.I s q 0 0 e u 0 ' u @ u K y = ` K u 0 0 0 0 7 q e = 0 e = 0 0 e # 0 K ' K u 0 0 ) e _ f f L +.#.' u f _ , 0 e e ) ..K @   0 K ` u e K _ y u K 0 q 0 e ` , u w # e 0 @ f ` ) K y 0 = u K K K f K u K u K u u f u e e 0 0 = # = # , , , e e q q w q 0 = X # 0 # 0 0 , = 0 = q 0 0 = 0 # # 0 k e y ",
"e u e u e e u k u e e u f q 0 0 q 0 = , 0 w 0 0 y y y 7 0 0 0 0 , 0 0 q 7 # 7 = # = # = # # 0 } ) u ) K K e K ) 0 e _ @.0.J.K u K u e u e 0 e u 0 0 q q I q K -.e K L K _ 0 | ..' e @ O 4 K _ ) ..) u 9.| u f $.' X._ < K e u ..' 0 0 | ..K 0 u q e @.y 0 ) L ..K u ..) -.u = ..} ) ,.) { Y.....@.K ..f K y K K e K e ` = s X.| = y | K # u # u #._ L I e q K _ ) ` q # y _ ) u ` ) u 7 y q 7 = k 7 # 0 0 0 q e 0 y _ K u u u k ) 7 e u u u ) ' f 0 _ u q u e f ' ..e @ # u ` ) e K f 0 g f @ y 7 u ) , 0 7 0 e e 0 k ..) _ u # q k k K _ ' ' ) ) K ) ) ) ) k u u e y u u u e e e e e e u e y w e k K u q # @ @ @ @ @ @ X X O @ @ X @ # # # # u | 3.< # @ X o X X # O       O X @ @ @ X X # # 0 q 0 e K K K K K K K K f u u K K K K K K K K K k u k w k 0 T | f K f f u 0 K K 0 e K L @.3._ 0 f e e u e e e u 0 0 u < s , K #.s e @.e ' u e @.u u = 0 O 0 K -._ ' f K 0.} u e $.u ) _ 0 _ u e u ..u X u @...e 0 ` , y K @ , f ` ..u y ' _ ..y @ u -.) -.) K 9.#._ ,.K ' L K e e ..w K u K f # f 9.K 0 ' ' q K u o f #.L s u q 0 u K K ..e X q ) u 0 ` K u y 0 e 0 0 e u # = 0 = q q e = 0 K _ f e 0 0 K # q e e f ' | _ e u ) 0 0 0 q K ..k X   = f ' u 0 f K = e K , q 0 u { 0 0 # # u q X e _ ' ) y = # y e q u e K ) ` K K k k ) ) ` { ' K e f K f g K K K K f K K _ K K u u u q q e u u e q q , , 0 0 0 = , = @ # ",
"e u y y q y , 0 0 0 0 0 0 , e K ' ' _ ' _ ) u u e k k k ) k K K u K K K k K u y y e w e 0 0 e ' _ u ) K u e u ) 0 y ) ..9.$.u u K u u u u u u K 0 0 e q T q K 9.u K _ } | f } ' K 0 @ O 0 _ K _ ..K e $.| u K $._ ..K 0 K e u @.' 0 u ..X.K 0 u y u #.u 7 K _ _ u f #.) @.u , | ' ) -.K ) ,._ ' @.K ' u f e e K e K y ' , 0 X.| , q | K @ e @ e X._ L _ e 7 u K K K 8 @ 0 K _ 0 f K e = 0 0 0 7 ) 7 # 0 0 q e u 0 y K ' e e y u K 0 K ) u u ) ) u 0 ) u 0 f u K ' ..u @ # e _ K u f f 0 K f # y y K _ 0 e = 7 e k y u ` K ` e # 0 u 0 # = 0 0 = , = 0 0 0 0 = q y e y ^ K ) K u u u f k K ) ) e e e y u u K K K K k u u e e y q 0 w 0 , # # @ u | $., , , = = = = , # = , = , , , 0 , 0 q < , # # O # = 7 u q y 0 7 8 = # # = # @ @ @ # # # O O @ @   @ O | ' ) K u K u e ' K , e _ X.9.0.s y K u e u y 0 e u 0 0 q , s < q #.L f @.e ' e e -.s I 0 #   0 K @.L @.K K #.' e u #.K ' ' 0 K e y u X.u X K @.@.e 0 K # e } 0 e ) K @.K f .._ =.q @ _ #.` :._ ) S.#._ q.K .._ K u e ..e K u K ..# K 3.L , I ' e # k   u X.L g K u 0 u _ _ ' y O 7 f K 0 ) ) u 0 # e 0 # 0 y @ = 0 = e e u = e ) K u y 0 q ` = 0 u e f _ ' K 0 e ) , y 0 q f ..K @   = f { u e K f 0 s K # 0 = e ` r = # = e y # e ) _ K K 7 # y 0 o # @ # # 7 # # # , e 0 = = = # = e q , , 0 q u , 0 w e y y e e u u f K K K K K K K _ _ ) ) K ) K e q u ",
"_ _ ) K _ ) ) K f q , 0 < 0 e < u q q e e e 0 = # 0 = = 7 = = , 7 0 0 = # # # # q e q e 0 e q K ) K ) u u e u K q 0 K ..9.9.' u f e u u u K u u 0 q K q T s f #.K f _ | } u _ L K y #   0 K K ' ' K e -.| u K $.K | K = u y e { _ q K #.@.K 0 u 0 u #.u # K _ ' f K #.K @.K , | | ..,.u f ,.` | @.f ' u f u e ' u u e _ 0 0 ..+.e q .._ # q @ e X.} I I e = u K K K 0 # 0 u { 0 u _ u 7 0 7 0 7 ^ 7 @ 7 0 0 y u 0 0 K ..e f u K ) 0 f ) u K _ _ u 0 ) u 0 e q f _ ' u @ # q ) K u ) ) e K K = 0 u K K 0 u 7 = u k e u k e ' K # 0 k y # # @ # # # # # # 4 0 = 0 # @ @ , # 7 # @ O O O O @ # # X @ @ @ # = 0 0 y = # # 4 7 0 y e y u u u e e 0 q K @.q f f K K K f u f K f e u 0 s H q , 0 0 , = # # 7 = 0 u y 0 0 7 = @ # # @ @ = #     .     O       @   | ) K K u K u e ` u 0 u ' #.J.J.u u K e e e e 0 y u 0 0 0 0 g s q #.L u | u ' u e -.L K = O   0 K _ _ @.K u 3.} u u #.' ..' , f u e K X.f X f @.' y 0 u = u | = w ) L @.k f ..K -.y @ ....) :.{ ) ,.X._ q.K ..K u e q ' u u u K K # u @._ , g X.q @ K X f #.L L L e 0 f K K ' u @ = f ) e ) _ f 0 # u # @ 7 u @ # 7 # 0 y e = w ) K u e e e _ 7 0 e e u ) ' _ y e ` , e e e K ..) #   = f ' f q K f 0 f K   0 , y _ , 0 # = w y 0 y ` _ ) K 0 = u u u K K K K f e u K e k e 0 0 , # = 0 , , # # = , # = = # # = 0 y e e 0 # @ O   O O @ @ @ @ @ @ # # 7 , 0 ",
"0 0 q q u u ) ) K e u ) K K K K L K K K K ) ) K u f u e u K u K u u u e u e e y q , = 0 # = # u ) K ) k u e u ) e = K | $.$.K K ) y u u u K u e e u K q T Y K 9.L f _ I L e L L K e # @ 0 f _ _ ..) u -._ e f $.K ' _ 0 ) u e { ` y K X...K 0 k y u -.e @ k ) ' K _ #.K -._ 0 .._ ..-.K y @._ ' ' e ' u u u 0 ' e y k K 0 0 X.+.f , } } 0 q @ q _ } L I e = f K K u w # 7 e ..e u ' u 0 0 0 # # u 7 @ 7 0 q y u 0 7 u ' q e e k K 7 ) _ u K _ _ K , f u y e q f ' ' u @ # e K ) e f K e k f 0 0 u K K = e = # K e e ) _ e ` K # # y | K e 0 0 y y y r y y u 0 0 7 7 7 7 0 y q q y 0 y y u u e y y 0 7 0 0 y 0 7 # @ @ @ X X @ % @ # # @ # @ O 0 L { e 0 0 0 0 = = # = 0 0 0 y 0 q 0 , q u H K s u u u u y y e e e e e e e e e u u e e e 0 , 0 0 = , # = X L ) f K u f e e ) u 0 e _ X.D.-.e u K e e u y y e u 0 0 0 , H s 0 $.L q ' s | g u @.H K # O   q K K _ ..u e $.' q u #.' .._ , K k w ' X.u 0 L @.' y q u 0 ) | 7 r _ f ' e K @.K -.e @ | _ K -._ ) -.@.K -.K ..K e u 0 K e u u K )   u X.I # e | e X e   u #._ L I e # u K K _ y @ # u _ u e ) u 0 @ e # # 7 u @ # 0 = 0 q e # 0 ) _ y q y u K 7 q u u e f ` K 0 q ` , e u e K | _ ,   # u _ K q K u 0 f f X 0 0 y ` 0 0 = # y e e 0 ' _ K ) = # q q 0 e e k e e y y u e e y q e k u u K K L K K K K K K _ K ) u k u u K u e q q w 0 0 , = # @ # @ o # # @ @ ",
"0 y e e e 0 # # # @ , q = , 0 q u 0 0 e u u u u u u u u u f f s f K K K k u K K f u u k u u 0 k ` u K u u e k ` u , K X.7.9.` K ) 0 f u u K u u e e q e T T f -._ u _ ' L e _ L e f # O # K K K { ) u #._ q e #._ .._ # ) K k { _ 0 K @.@._ 0 k y r -.k # K K ' ) ' =.f -.K 0 ..K ..-.K q ' ' @.' u ' u u K , _ u e _ f 0 7 _ +.q , _ } y 0 O u | T L L e # e k ) K 0 # # y ..u u X.K 0 q y # @ u 7 O # 0 e e u 0 0 K ..u e e u k = K _ 0 e K ) ) 0 u u e 0 q u ' ' q @ # q K ) u e u 0 u f y q u K K , y = = K e 0 u ) u { ) q # 0 _ e e y u u u e e u e u e e y e u e e u e k ) K e u _ ` ) u 0 @ @ 7 u ` ) K u y e e y y u e e e q q q 0 = = K =.f ) ) ) ) K k f u e q 0 , # # # , q q K K K K K K u 0 = 0 y 0 q e 0 q 0 0 e y 0 0 0 = = e k y u 0 e , H ) K K u u e 0 K u 0 0 K @.D.9.) e f e e u e k u u 0 , u < H g 0 #.' q ' } X.L u | e f , O   u K K _ ..u e $.} u u $.K _ L # u u 0 _ ..e q _ @.' q 0 y 0 K @.= 7 ) ) ' e K X.K :.u # | ..` -.K u ,.' K :.f ' K e K 0 K K e u u K   f 9.Y < e | f o e . u | I L L e # e K f K 0 X # e _ u 0 _ u 0 @ y # = 0 u @ @ 0 % 0 q u 7 0 K ..q u q e ) 0 e _ f u K ) f 7 q _ % e e u K _ ' %   # u ) K e K K 0 f K # , y f { 0 0 0 @ q e u 0 ) e u { 0 # y 7   O   #   O   O X @ # # @ = = # = 0 7 0 7 = # O @ @ # 7 0 @ # # # 7 0 e u u u y w 0 y w e u e e u e 0 < ",
"K u K K u k u u q 0 y e y 0 , = 0 = 0 0 = 7 , y u u e 0 @ @ X X @ @ # @ @ @ @ # @ # # = # # = K ` K k e f e u ` k 0 u -.9.q.) ` _ 0 f e u ) y u y q f I 2.K y @.| K ' ' f u _ K = u # O = K u K { ` f #.' 0 f | _ .._ # _ ' ) ' K , K ..@.) 0 k y q 9.` 0 K _ ..K ' @.K -.K # ` K -.,.e 0 X.X.,.' ) ' u k K 0 ` u y ' u 0 0 _ 5.s , I @.u 0   q | | L L f # q K f ) r @ # 0 ' ) u @._ 0 0 y 7 O u 8 @ 0 q y y e 0 0 f { f y e u u = ) ..7 e K ) K 0 u u w e e u _ ..u @ # 0 K ) f e u 0 e K y 0 e u K e e 0 0 ' u 7 0 y e ) K y # u u e u y f K k u e u f k K K K u u u u k e q e q 0 w k e 0 0 = # 0 y k ) u e 0 0 u e q q e u u f e q w w u e K { 0 K K u u u f ) _ { { ) u u u e u e u e e e q e u u 0 0 q q 0 , 0 0 0 w 0 0 , # 7 = = # = = @ = # = o 0 K u _ K K e 0 K u 0 0 _ O.9.$.K f K 0 u u u K u e 0 w L % H R e #.X.q K _ H g e | e K 0 X   q K L _ ..u e 9._ e e $.K _ ' 0 u k q _ ' e y | | _ 0 0 u 7 _ #.e = K K ' u ' @.K -.k , | _ { -.u y =.' K #.u _ K 0 K = K ) 0 u K K @ e X. .< u ..K # e O 0 ' _ L L e # e ) K K q # @ y ) K 0 ' K y @ q # # = u @ O = , 0 q u = # f ..0 u e u ) 0 e ' e u ) _ ) 0 q _ , 0 q q K ' ' % X # e K K e K _ e f K = = e u K , 0 0 O e e u e ` y u { 0 @ 0 y e 0 @ = # = 0 , = 7 0 0 # 7 @ @ @ # @ 7 # # X o # # = = = # = @ @ # @ = # # @   O O X X @ # # # , = = , ",
"# # = = 7 7 0 y e e k ) ) ) ) ) K K K ) ) ) u k u u ) u u u u u u e e w 0 0 0 0 0 0 # 7 @ # 0 K ) k u q f u e ) k 0 ' #.-.9.K _ ' 0 f e u K q u 0 e k }  .q 0 #.| s L I e f _ g # u # @ # e u K ..{ u #.' , , | L ' K @ _ ' ) ` u = u ' ..K 0 u y q ,.) 0 K _ ..f _ @.K -.K X ` u -.:.u # | #.9._ ) _ e K ) 7 ` u e ..u 0 7 _ #.K # f | u 0   0 | | L L f # 0 u K ) e # 7 q ) ) u :.) 0 7 u 9   u y @ 0 e e 0 y = 0 K _ u 0 e u u 0 ) ..4 u ) ) K 0 K K 0 e e u K ..e @ # 0 u K K e u 0 u g y q e e k K K 0 , _ y 7 0 7 = r 0 0 = ^ f u K K ` ) u u u u u e y e u u e y 0 0 0 0 w q q , y k e 0 y y w e e e 0 0 0 0 u e e e u e e u u y q q e y k ` = # # @ = # 0 0 = # , = # q e 0 q u f f e u u K K K ) K K K K K L I L _ K K K K ) K K K e e 0 e 0 q # e ) u K e u e q ) K 0 0 K ..$.#.K K K 0 u e e k e e q e u o d 2.s @.| e f ..L K u | u K 0 O   , K K L { K e 3.L q e $.K ' f , u ) q ) ' e y ' @.' y y K = _ -.r 7 K K ..u ' X.f 9.) = ..K { :.) = ' L ' ..q ` K 0 ) # f _ , u K f @ 0 |  .q < } I # 0   , L } g L e # e K K f q # @ 7 ) _ 0 ' _ e @ y 7 @ # u @ O # 0 q q u = = u ..y 0 e e K = e { 0 e f K _ y 0 K 0 0 e q K ' ' , X # e K K e u f , e f 0 0 u f K , , 7 O u e 0 y _ e f { e @ # e L e 0 q e y y y 0 y e e 0 0 7 0 0 0 y u 0 u u u e u K ) K u 0 # @ 7 y k e y 0 # # # # # # , , o # o # % ",
"0 = # 7 0 7 7 # # @ 7 = 0 7 = # @ @ # 7 0 0 # = # = 7 0 e e e 0 0 , 0 0 y e e e k u e e 0 0 0 ` ) ) K q u 0 y ` K # f | #.9.K ' | q u y u k 0 u q y e L G # K @._ K ' K e K _ K # K = @ @ y K ) { ` u #._ , = | _ _ K @ _ ' ) _ K 0 e _ #.K 0 K u e 9.` 7 ) _ ..k ) ..) -.) e | f -.;.y = _ X.9._ ` ) e K ) = _ u y ..K e = k 7.} < e ..e =   # |  .I L K 0 y K ) K u = = y K ) K -.' q 0 u 7   u y @ 7 y y y e # 0 ) ` u 0 e u u q ) ' 7 f ) K K 0 ) ) q q u f _ _ 0 @ # 0 u K K e e 0 f g 0 0 u u K K e 0 = u 0 7 0 = @ 7 7 0 # k K u u u K K ` { ..{ .._ ) K K u y q # = = @ = = 0 e u ` { K ` ..' ' ' ' _ ) K e u 0 0 # # @ o # # # , < = = u @.K _ K K K K K f y 0 , # # 0 , # o # = , # # # = = = 0 0 y e 0 = % = # = = 0 0 , 7 4 7 , , 0 , y 0 w # e ) K K e u e q ) ) w 0 ' $.D.9.u ' K 0 u e e ) y u 0 0 q q Y R , ' X.f K X.g f f .., e q     0 ) u f ' K u #.I , 0 ' L | ' , u ` u ` _ q 0 ' @.K y y K = ' -.0 0 K K @.u ..@.K ,.K = ..K ..,.) # ` ' #.X.u { K 0 _ = u _ = f K q # 0 @. .< , } } 0 ,   # } T H L e @ 0 f K K y @ O 7 K { 0 ' ' u # e 0 X @ u @ O # 0 y q e , 0 u ..u , y y k = e ` 0 y f K K w 0 f 0 0 q e K _ ' 0   o w u K e e u , e K q # e u K 0 = 0 @ K K 0 # e y K ' u # # 0 e e 0 e u u e e e u u e u e e e e u e e 0 u u q 0 0 K k u y # O @ 0 y ` ) K e w u e u e e e s e s u u q ",
"e y 0 y e y 0 0 = 7 = = 0 0 = = # = , , 0 0 7 7 # # 7 # 7 # # O O O O O O # # @ # # o # O O 0 K K K K q u 0 e ` ) # f ' ..-.K ..' y u w y u 0 e y u k e e @ K ..L K ..) f ) ) f # u = @ @ e ) K ' ' q =.) 0 , ' L _ K # ) _ ) ' _ y , K #.K 0 K u e q.) 7 K K { u f ' ) S.` 0 ..K =.=.u 7 K ..-.) @.K e _ K = K K e ..K f 0 K 9.} s 0 @.K 7   @ L @.L K L e 0 u _ u e # # 0 y ) u @.' e 0 u 0   u u # # q q q e # , K _ y = e u u 0 ) { 7 K K u ) , f K e e u u ' ' e @ # e u K f e e , f H 0 = e f K u u 7 # y 0 0 0 0 7 0 7 q # k e 0 q 0 e e u k u u k K k u K u u u u u u y y e u k u K e e e u e u k f K K K ` _ K K K L L L _ L K K f K e u ` @ y 7 7 q 0 y y 0 e k u e K K K u e e e e u u y y w e k u k e # # @ @ # @ # @ @ @ @ @ o # @   @ O @   0 ) u ) 0 u u , K ) q 0 _ -.9.9.e ' K 0 u 0 e ^ 0 u 0 e e I 2.Y e #.@.K K | K u u ' = 0 0 O   # k e K .._ f #._ < u | L _ _ , K { K ' K 0 0 _ X.' y 0 ) 7 { @.0 0 ) _ ..q ' ..K -.` 0 ' u @.,.e # ..X.9...K ..u e _ 0 u _ , K K q # 0 X.| q , I _ y #   < | | H L f @ , u f K u # @ # k { e _ ' f # 0 0 @ X ) # @ 0 w 0 0 y # , u ' f 0 e e u 7 y ` 7 0 f ) K 0 e ) 0 0 q q u _ _ 0   @ e u ) e e u , e g 0 0 e e u u e e @ K K 7 = 0 7 y u y @ 7 e q e e k K u e q 0 e u e u u u e y q 0 e 0 0 0 0 , = e u 0 = = = , q e u 0 , = = y q 0 , 0 0 e e u e , 0 ",
"u e e u e e e q w y y e u y u f k e u K ) K u 7 @ # 0 u ) K k y q e q 0 0 u e q q < < q = , , ) K K K 0 u f K ` ) # ) ..X.9.K O.@.y u q y u 0 e u K u = K 0 K X.' e K K e ) K u # u 0 X @ y K u ..{ q @.) q 0 | L ` ) = _ _ ) ' ) 0 @ K #.K 0 K k u ,.) 0 u ' -.) ' ..) =.) 0 #.K @.@.f @ K @.-.) ..u f ' K 7 K K 0 | ) f 0 e ..| e = | _ y O @ L @._ L L K y 0 _ f u 7 @ 0 e _ e ..X.u 7 u 7 O u u # = 0 0 y e # , ) ' e # 0 0 y 0 k ' 0 u u e K = u K u e e u _ ` u O @ 0 k K u e u # u K , = w K K u e q 7 u u 0 0 y 7 7 7 0 @ u = X X   @ X @ O     @ @ @ @ @ @ @ @ @ @ X @ @ @ @ # # # # @ @ # @ # 0 = 0 0 0 y 0 e e e K k K ) K ) ` ) ) u u )   X @ @ @ X # 7 @ # 7 = 7 y y u e e e q u e K K k y w 0 0 e e k K K u u e e e e u u e e e e , 0 = , o w ) e ) , u e % k ) q 0 K @.9.9.u ..L 0 u y e k 0 e 0 0 0 H Y < q X.| s f I e f u ' = , q   O 0 u f ) @.` u #.K , 0 ' L _ L   ) ' f ` K , , L X.' y 0 ) 0 ' @.0 , _ _ ..q ' ' K -.e 0 | u @.,.u # _ ..9.' K _ u u ` 0 e ' = K ) e , 7 ' | f o K _ w =   # |  .L L f # 0 K K K k 7 @ 7 u _ e =.{ f # 0 r @ @ u 7 @ # e q 0 q @ 0 K ` u , e e u 0 e { 7 y ) K K 0 e ' e 0 e q u ) _ =   @ 0 e K e q e , s g 0 = u e u K e w X K u = 7 # @ # = 7 @ 7 f u K u _ ) K K K K K K u u u u e 0 0 @ = @ # , 0 0 = y K K e u K u u u K e e e 0 e q 0 0 0 0 , , 0 0 = 0 ",
"u e y e u u K u k u u u u e e e e 0 y K u e q = # 7 y K ) K u 0 y e e w 0 e e e f u w e 0 e u ) ) f u = u ) ` ` u # u ' | -.) @.$.q u 0 y u 0 e y K k 7 K q q ..| q f L f f e e # u 0 @ @ 0 ) u X.X.u @.K 0 0 ' K _ K # _ K ) ..) 0 7 ) @.K 0 ) ) K q.` 0 y _ -._ ....K -.) 0 -.L @.{ K   e ..-.K ..e f ' u 7 K K w | ) u = 0 { } s # L K y O @ g  .L K L _ q 0 ) u k 7 @ 0 e ) u ` @.e 7 u 0 @ e e # 7 e e y u 0 0 K ' u 4 e e y 0 u ) 7 y u u ) 0 e K u q u u ' ' f @ @ y ) _ ) u K 0 e s , # 0 u u u u e , u K r 7 y 7 7 7 0 # K e 0 0 = , , = = , 0 # , 0 0 7 0 0 , # q @ = = = = = = , # # # # @ @   O @ @ O O @ @   O @ @ # 4 # # = 7 7 7 ^ { o 0 0 0 , 7 0 q = = # X X # O # @ X         X @ @ O   O O O @ 7 = = @ O O   @ # # , # = 0 , = , @ @ # u _ u ` w u q # K _ e 4 _ _ #.7.u #.K , u 0 y u 7 e q e u K K o u X.' s _ ' u K K _ # 0 y @ O 0 u K K ..K u -.K = # } L _ L @ K ' K _ _ e = e @._ w y ` 7 ` #.y 0 ` K { 0 _ _ K :.u , @.u =.;.K X s ' q._ ` _ q u ) 0 0 ` = K ` u e 7 ) @.g o s } e 0   @ |  .H K K q 0 u ) f e # @ 7 y K u { ,.K 7 y y @ O u 7 O # 0 q 0 q @ = K _ e = y e k 0 y @.0 e ) e _ 0 e _ u , q u K ' ' 0   # 0 e K u q e , s g 0 # y u u u e 0   y 0 # 7 7 @ # # 0 # = u y e 0 e u K K K K _ ` ) K K u u y y 0 0 = = = , e e K ` _ K K ` _ _ ' _ ' _ _ f k e 0 q 0 0 = , , 0 0 0 ",
"K K k k u y y u e e y 0 0 0 0 q w 0 , e e 0 7 0 0 0 q e e 0 0 0 0 e e e e e u u u u 0 y 0 u e _ ) f f 0 L ' _ ` u # u _ ) 9.^ #.#.0 e 0 w u , e e k k q e s u | X.0 s ' L f u e 0 K u # @ r ) K @.#.e @.K 0 0 _ K ' _ 0 ..K ) { K 0 0 K .._ 0 K K u :._ 0 K ` @.` @.{ f :.u q ..L @...) 7 e @.#._ ..q e ' u 0 L _ K $.' u = 4 { #.g , u K y O @ K  .I L ' _ e 0 ) f K 8 @ 0 u ) f ) ,.f 0 y 0 O y u @ = y u y y , , f _ u 0 e y e q f ) 7 e u e _ y e u e 0 e u L ` K # @ 0 u K u q e e s e q # 0 K u u u 0 = e ) y q e 0 0 7 7 # u ....' K K ) ` _ K ` ` ` { { ) ` { ` _ ) K k e e e e u u e K 0 f 0 e q e 0 0 0 0 0 = # # # # = = = # # # # u ] [ , e y q y y y e 0 0 = 0 0 0 0 e r 0 w q 0 y e u e y y = = 0 0 y 0 0 @ @ # @ @ @ @ , # o o o # #   O   0 _ e _ 0 q u q K ` e # ' _ #.$.f $.} 0 u 0 w u = e 0 u u 0 f # = ' ' f H I u K K _ # 0 q @   @ u K f X.) e #._ , 0 | L _ ) # K ' f ` _ u @ u .._ w 0 ) q ..-.u # K _ X.u ' _ ) -.u , #.f @.@.K # K | 9.L ` K 0 ) ) 0 0 ' 0 K ' s u = K $.H < q X.0 #   O | @.L H L f 0 0 ) f u = O = 0 f e _ #.K 7 y y @ O ) 7 @ # q 0 0 y   = K _ y @ q 0 e 0 e ..0 q K q K 0 0 f u 0 e q f _ ' 0   @ 0 u K e e e # s H , # w f K e q 0 X 0 e 0 = 0 = # # 7 # # 0 # # @ , , 0 7 = # # 0 y 0 0 0 0 0 0 0 0 , = # = 0 0 0 0 0 e 0 , , = 0 0 u q u e K K f K L _ } } ..' _ _ ",
") ` ` ' ' ) ) K u e q # # = # = 0 0 0 e ) ) u K _ ) L L K K f f e y 0 = = # # @ # # # 0 # # e _ ) f f q | X._ _ e # u K K #.) @.@.y e y y u # y u k u 0 , f _ _ X.q s ' K f e u 7 K u # @ = u u ..X.0 @.K 0 0 ' _ @.{ 0 ..K K { f 0 y _ X.L = K ) f -.' e ' ' @.{ =.X._ ..u e @.K ..@.k # q ..#.' ..e e ' u y K L K #...K 0 0 K | L q y f e @ @ K @.} I ' L e 0 k K ) 0 @ 0 u ` ) u =.K 0 y 0 O y u @ 7 y u y 7 # , u ) K 0 y e u 0 f ) 7 e u y _ e e u e 0 0 e K ' K # O = K ) k y e u u u e # 0 f u u f 0 , q ) q y k e e 7 7 # k ) u q = = 0 ) ) u u y 0 0 0 9 0 y u K k k e e K u K _ ` _ { ..@.{ ` ) K e 0 0 e e y 0 0 = 0 0 0 0 0 0 q e u ) { 0 u u u e e u u u u e e e e e u 0 u K u y e ) ) K y # O @ = e { ` ) u e e u e y q f s e u u q q , q , K _ u ) < w K f _ _ q 7 _ _ -.-.u 5.X.0 e 0 y u = e e K K # s q 0 | X.u q L u K u K # , e #   = u u f @._ e #.) , 0 | K _ ) # ) _ f { _ e   q ..' y 0 ` y ` q.u X K ..=.K ..' K ..y 0 #.K @...e   e @.q.K { f 0 | K 0 0 ' 0 K ..u w @ k 9.} # 0 ' K 7   # I @.L K L L e = K f u 0 O # 0 K u ) @._ , 0 y @ @ ) 7 @ # y 0 0 e @ , K ' e @ 0 0 e = e ' 7 0 u 0 K 0 0 K K 0 e q f ' _ 0   X 0 K _ u e e # q s = X , u u e e y , e K q @ 0 0 = # 7 # 7 0   X                       O     O               O .   @ @     X O   O X # # # @ # , # , = , 0 0 e u K K ",
"0 q y 0 u q e u u u u y u y 0 0 0 e u f ) ) k K ) K K K _ ) K ) K K e K K H L L ' K k K f K q ' ) u u 0 | X.{ ` u # u f K { ) X.| 0 u y e e = u K k e y # u | K ' u s _ L K e e # e e = @ 7 u f ....q #.K y e ' _ @...y @.f K @.u y r ` -.' 0 K K k -.' q ' ' @.) { ..L { ^ K 9.u ..@.f # 0 @.#.' @.u e ' u u g } L #.| u e   s } K q 0 u y @   u | | L _ _ u 0 u u K 0 O 7 y ) ` e ..K q 0 e # y e @ 7 0 e y 7 # 7 u ` K y 0 e u 0 K _ q e u q _ e e e e 0 w e K | ) 0 O = K K K e e u e e e # 0 K K k K q = q k 0 0 ) 0 u 0 7 = K 0 O X O @ X # 0 # = # # # = , 0 0 0 0 0 q 0 0 q 0 y y u q e q e e y e e u e e e 0 0 0 0 0 # @ # # # 0 0 u k ] =.f K e e 0 q e e e u u e e u e e 0 0 0 0 , 0 f e , = # # 0 y u f 0 0 # = e w , 0 , q e e u e , w , e 0 K ) e f , 0 K ) ' ` e # f K X.9.e 9._ 0 e 0 y u = y q u k 0 e s , ' #.K 0 ' K K e g # , f #   # u f ) #.' e #.K , , ' K _ K o _ K u { _ 0 o 0 ' | e 0 { y { ,.e @ K ....) @._ K =.e 0 ..K @.{ u   0 ..9.K ..e 0 ..k w r ' < ) @.K w @ ) @.| < = K K #   0 L  .H K L L q # K u K 7   # 0 K K u @.` , , y @ @ ) 7 @ 7 e y 0 e @ = f _ e # q 0 e = y ` = 0 u 0 ) e 0 f u , 0 q K _ _ q   X 0 K ) e e u 0 u s , @ 0 f e e u 0 , 0 K e # 0 = = 7 7 # 0 u e , 0 q 0 y e 0 q e e q e u 0 0 0 = e 0 0 0 , 0 0 0 0 0 , # # = # # # @ X X X   O             O O   @ # ",
"        O @ @ @ @ @ @ @ # # = # = = 0 0 0 0 = 0 = # # = 0 0 0 0 y f e e u K K u _ _ ) ` K { K ` ) u u u @.X.` ) e = u K K _ @.@.K 0 e q y e 7 u K K y 0 = 0 _ _ _ e e K L f u f 0 q 0 # @ q K ) @.@.u @.K y e L K X...0 @.f f .._ y = K #._ 7 y k k ,.{ 0 ) _ ..k _ .._ ) u ) 9.e ..-.) # # | @._ @.f u ) q ) f K K #.| K e # s ' _ u = u e @ @ e | | K K K e = u K K y @ 7 q K ' 0 X._ e = y # q u = 7 0 e y 7 0 7 u { K q 0 q u 0 K _ e u f q K e e u e 0 q u K ' k 0 O = K e e y 0 q u e e 7 0 K K u f e # 0 u = 0 ^ 7 ) u @ 7 K g q f e f u y 0 e e e e e K K K e , = # # # # # @ @ O @ X @ O @ # # @ # 0 q e e w 0 w 0 , # # @ @ @ @ # # u ) { e K ) ) ) _ ) k u u u e 0 0 # = = = 0 0 0 # 0 u y 0 y y y e q e y 0 e 0 e e 0 0 0 0 0 , 0 0 = 0 = 0 o K ` u K 0 f | ) ) ) 0 # f f ' @.u 9.' , e 0 0 e # y e k k 0 0 e K _ #.u , } K K q e , w K 0   O y u K @.| q @.u , , _ K ' _ = ' K f { K 0 = e ' ' 0 0 { 0 ' -.u y _ ' ..' @._ ) @.e e @.K @...' # 0 ' #._ ..f , ' u y q X.u | $.K e   y ..| u 0 e ) =   O K | L L Y L e # K k K 0 O # y K K e X...0 , r @ O u 7 @ = e e 0 , # , f _ u 0 y 0 e 0 u ' 0 0 f 0 ) e 0 u u 0 0 0 u _ _ q O X = K ) e e y e e e q @ , u e 0 e , # 0 K e 7 u 0 w 0 = @ = _ ) f e e f ' { K ) ` ) ) ) ) ) ` _ ` { ) ) u q e q e f K K f u f e u u e 0 q 0 0 y 0 = = = , , , 0 = = = ",
"e 0 0 0 , 0 y y , , # # @   @ @ @ @ # # # @ X @ @ @ X O @ @ @ X O @ @ X X # @ # 4 # 4 9 # y # ` ` u f f #...) k e # u u e u { =...K e e e e = u K u q 0 7 = K ..` e e _ K K u K e 0 0 # @ 0 u _ @.#.0 ..f 0 f _ L @.) 7 { u f ..K u X u X.) 7 y y u =.{ e ) ' =.K ' @.| L e ) -.q @.-.) # # ' #.K @.) K K 0 ` u s L #.| K e 0 K | | K # e e # @ w } | K L ) u # q ) ) y @ = q ) .., X...f 7 7 O 7 y @ 7 0 u e e 0 # e _ K q y 0 y 0 u K 0 y u u K u e e u 0 q u K { u 0 O , K 0 0 u 0 0 e e y = 0 ) K e K u # q f = 0 ) 0 f u @ 7 K | _ | } X..._ K L ' _ ' } _ _ ' K K K e u e f K K u u u 0 q 0 0 q 0 # @ # @ # # # # # @ @ @ # @ @ @ # # # y ^ { , u K K ) u ) ) ) K k u y 0 = = # X # # 0 0 u ` ` K _ ' ' ' ' ' _ _ K u e < , , , # # , = 0 0 y , 7   u ' f f 0 K $.' _ u 0 # k u _ ..K -.' = e 0 0 y # y u k u 0 # y ' K X.s , _ K K e u 0 0 u = O O 7 u f @.} 0 -.e w , ' _ @...0 ..K e { K 0 = K @...0 7 | y =.,.K u @.' ..' =.| ' ' 0 K 9.u { @.u @ # ' -.' X.K # _ f e q } s ' X.L f   q L | s 0 # K ,   @ g  .} L I K e # e u K q O @ q K ` e _ ' e # y = O u = @ = y e 0 # @ 0 u ) e 0 0 0 u # e _ 0 0 f 0 K e 0 u e , 0 0 e _ ' e O   , u ) u e y u 0 e e X , u u u K 0 # 0 K y = u e u , # @ 7 u # @ O X X , y q 0 = @ @ @ @ @ @ = 0 y y y 0 q k u f K K f ` ) ' ` K K f q , , , 0 0 , # # # @ # # = # , ",
"{ ) ) ' { _ { ) ` ` ` K K u u q y e 0 e e 0 e 0 e q q 0 0 , 7 # # 7 # @ @ # # = = # # # # = y _ ) u u f @.X.) u e 7 e u e e { :.=.u e e e u = u K u y 0 # = u _ _ u f _ f f e K e 0 0 @ @ 0 _ u ..#.u ..f e K .._ ....y ..u K .._ e O e ..) 0 y y 0 :.{ y ) _ @.u ' @.| L , K #.e ..=.` # # ' @.K @.K K K w $.s q L -.X.K u 0 K K ) ) 7 e u # @ = K K K ' f e # 7 ) _ y @ @ 0 K @., @.-.) y 0 O 0 u # 4 0 e e e 0 # y _ K q 0 u f 0 y ` e e u K ) u e e u 0 e f K ' K 0 O 0 K e 0 k e 0 y e 0 # 0 K _ e f u @ 0 e # 0 u = u u # 7 K .._ ' ' _ ' } _ ' ..| | ' _ K ) K ) K K K K K ` ) ) ) ' _ _ K K ) K K K K u u u u u k u e y 0 e q y y e e q ] { #   # = X X # 0 0 0 e y w y e e 0 0 0 y u u u K u 0 y q 0 q q e e e f K K K K ) _ ' _ ' ' _ K ' K L u ) ' f u 0 K #.' _ K 7 = K u _ { ' @.K = e 0 y y # u K k y 0 # 0 ' K _ e < L L K u u 0 # u = O O q K ) -.X.q 9.e 0 , _ K @...0 @.u u ..` y # u @.X.q 7 ) y ` -.u e ..` { k .._ L ) u _ #.0 { @.) @ # ' #._ X.K 0 ) u u q I s ..@.K f # # K _ s 0 # ) 0   o u  .| K L K e # e u K q   @ 0 f ..e ) | e # 0 0 O u = # @ 0 w 0 # # # 0 ' f 0 0 0 u , u | e q u 0 u u 0 e e , q 0 u ) _ q X X , k k u e 0 q q e y @ , K u e e 0 # , f 0 @ u 0 y u = @ q u X # @ # # # = # = # , , , q e e 0 , = # 0 = , = # # # = # # # # 7 = , , y u u e w , 0 e q =     X X # # ",
"y y r y 7 # 0 7 7 y u K ) K u e u e u K K _ ..' { ` ) K K e q 0 q e q 0 , , , , 0 0 , 0 q u e ` ) u u u X...) u y # q e e 0 ) -.q.K e w y u 7 u K u e y = # u _ ' e u L u K u K y 0 0 @ @ 7 f 0 _ -.K ' u 0 K | _ ..' q @.f K | K u @ u ' _ 0 y 0 u @.{ y ) _ ..e ' #.} _ q _ #.y { @.{ 0 = ) X.u @.K _ _ e 3.u 4 ' #._ f u 0 K 0 f _ 0 y u # # 0 e e u _ K e = # K K e # @ 7 ) @.0 ..@.) y 7 @ 0 u # @ 7 e e e q = 0 ) ) e 0 e f 0 y ) y e e f K e e e u 7 e u K ..K #   , u 0 0 e e 0 u e q O = K ' 0 u e # w q # 0 e # u u # 7 _ e # 0 7 0 0 0 0 0 w w 0 7 = # # @ @ @ @ @ @ @ @ @ # # 0 7 q e e y y e u u K ) K K K K _ _ K u k K K u K e e ] { O   = #   O     @ O                       @ @ # #     X     X @ # = , = 0 0 , , 0 0 0 e y e u K k ) u ) ` K u q K #.' ) K = = u e K K =.X.f , e 0 y y # u K k 0 = = # K ' _ e < L K K u u u # q # O O u ) _ -.@.0 @.u 0 q L K X.) = ..u u .._ e @ f ..| u # k 0 ..-.u e ' ' { e ..| } K y ` -.q @.-.) @ 0 | #.K ..K u ) 0 u k G q ' @.K e 0 0 L ' _ e @ k 0     e | | K K K e @ 0 K K y @ @ q f ..e ) @.f # 7 7   y 7 # @ q e 0 , = # u ' f 0 0 0 q # u ) y e u q u e 0 e e , 0 q u ) _ 0   O = u , 0 y = 0 y e 0 # 0 K K u f u # = f 7 @ u 0 y ) = @ y K u u f L f s 0 y u u u f K K K e , , # @ # o @ # # @ X @ X X X X @ X     # # 7 , , , , = # X X O         ",
"= = # = = # # , 7 0 0 0 0 q 0 q u e u u K K u u K u u u u e y e y 0 0 0 0 0 # # # # # , 0 k u ` ) u q K X.X.) u 0 # q e q 7 k @.q.' u 0 y e 0 k ) u u y 7 # e ' ..u e I e L u u e 0 0 @ @ y ) K _ #.f _ f e K _ _ ....0 @.K K @._ u @ u ' ..y y y y =.[ @ f ' @.e K X.K ) y _ #.u ..@.' f # K ..q ..f K ) e -.f = K -.' e K e K q K ' 0 0 u # O u u y u _ K u 0 7 u K u 7 @ r ) ..0 ' @.) y 7 @ 7 e @ # 7 y e e e 0 q ) _ K 0 0 u 0 w K e e e K ) e f K y 7 u K ) ' u 7   0 k 7 7 w y 0 u f f # = e ..0 f u # q e 0 u u 7 u u 7 7 K u 0 y 0 = = 0 7 0 0 0 y q 0 u e u u k u k k K k u K K K u u u u y 9 7 7 = = 7 # @ @ @ # 0 # # 7 0 0 7 0 0 0 ) ` 0 u K k e f u u k y e 0 = y 0 = 0 0 # # # # # # o # @ # @ X   O O O               . O O O @ X @ O 0 O u ` f u q K X._ f e = 7 e e e y { ,.' , u 0 y e # u k u 0 = # @ u ' ' e q ' f K u u f # 0 @ O   u ` K #.| 0 #.w q f ' L @.) = ' u u .._ f   y ' ' 0 0 k 7 ) ,.u u ' ` ..u ..X.| f q K #.0 @.-.` @ # ' #.K .._ f _ # ) L , K X.#.L e 0 q L _ ' e X u 0   O 0 } L K L K e # 7 ) ) e @ @ = u @.q f -._ 0 = @   y # @ @ 0 e y e = # q _ f 0 0 0 y = y ) 0 0 e u K u 0 , u 0 0 e f L _ 0 @   # K = e e 0 7 0 e 0 @ 0 K K 0 u u # , K = # k 0 0 K # @ y ' ..@.| @...} L L ' _ | | } ' ..' K L K K K K K _ ) K K K e u e 0 e 0 # 0 # @ @ @ @ @ @ @ @ # X X # # # , ",
"e y u e f f u K K e , 0 # = # = = # # # # @ # O # # @ @ # 0 y u e w 0 q w , @ # # @ X @ # # 0 ) ) u e _ X.X.) u 0 7 0 y q 7 u { :.' f q e e # e k y u y 0 @ u ' @.f 0 _ e ) u u u 0 7 @ @ y ) _ ..#.K _ K w K K _ ....e #.u K #._ e # y ' X.u u u 0 -.{ 0 u ' #.K _ $.L _ y _ @.u { { ) u # u ..q ' f u ) 0 3.K , ' #.' e K K K 0 u ..y y k = O e u e u ' K u 0 7 K ) K 8 @ 0 ) ' 0 _ #.' f 0 @ 7 y   # # 0 0 u e 0 0 ) _ K 0 y u 0 0 k e u e K ` u K K q 0 u K _ ..u 0   # K y y u e 7 y u K 7 # s +.e f e O 0 e 0 0 = # 0 y 7 # K { ) @.{ { ` ' ` =.@.{ @.o.{ { { { { ` { { { ` ` ) ` ) ) ) ` ) ) K ) u u e u e u u u u u e 0 y q 0 0 , 0 , , ) @.e e ` ) u _ ) ) ` _ ) ` ` { ` _ K u q e w q e e e K 0 e 0 , 0 e , 0 0 0 0 0 # # = , , , = = = = # , X k ` k u 0 _ @.' K e = 7 e e 0 q ..,.@.q e 0 q e # u K u 0 7 # @ e ) ' f < _ s s e e f # 0 @ O O y K e @.@.e | 0 q K X.L ..{ 0 @.e e .._ f   y _ { k 0 r 0 ^ ,.u e ` ' _ e @.@. .g # ) ..0 { @...e X K #.K ..L K ' < L } , f @.@.L e 0 0 K e ' u # k 7 O O = s s f ' f e # @ K K e @ O # u -.e u 9.` u 0 @   u 0 = O 0 e q e 0 @ q _ K r % q K 7 0 ) e e e u K f 0 , e 0 0 u f _ _ e #   0 K # y e y 0 0 e 0 @ = e ' e e u X # e o @ e = 0 K 7 @ e _ u K f u u K K L K ' _ e f e u e u e u e u y y u u f K ) K ) ` K ` ) K ) _ _ ) K K K _ _ e K u e f u e e ",
"_ L ' ' ' ' ' _ ' K e u q 0 0 0 0 0 7 = 7 = = 7 = 0 = @ @ # # # # = = = @ @ @ @ @ @ @ @ o # 0 ) K e q K -.@.) e # 7 q y q 0 u _ -.=.) e e e # y u y y q 0 = u ....u 0 ) e ) u u u e 7 @ # 0 K _ ' @.K ' L 0 K _ ....| e @.f K #.K e # 0 _ ' r r y 7 =.{ 0 k ` #.K ' $.L { e _ @.u ` ' K K # f @.f | K u ' u #.L X K #...u u _ u y e ' u 0 u =   w f e u ' L f 0 4 K _ K r @ 7 u ..u | #._ e 7 @ = y O # # 0 y u u 0 0 ) ) f 0 y u 0 0 k u e e K _ e K K 0 7 u K _ X.K 0   0 u e e u e = e e K 7 # e ' 0 f e   0 u y 7 = @ 0 k u = K 0 7 u u k u k u u e y u y y u u y e = = q 0 0 7 7 # # = = 0 = 7 0 0 0 7 0 0 0 y u u u k u y u e e u e e q q ) -.0 O 4 0 = = @ @ # @ @ # = q e e u q e f u K ) _ ` ` ` ..' _ K f w , , , 0 0 , # # # @ # = = # w e K 0 K ) u u q ' ..' K e # 7 q q 0 0 ` ,.,.f w 0 0 e = u K e e q = @ t ) ..u < L e f f q f o q # O O q f e ..@.e X.0 q K .._ ..' 0 @.u f O.L 0 O 0 _ ..y 7 y O u =.u r ' { ` 0 X.| I L e | @.w ....K 0 # u X.e | _ f ' q @..., K @...K e e w K , ' f # e y O @ u , 0 u _ f e = O u K u # O 7 e @.e u X._ u 0 @   e = # O , w q q 0 # y ) _ e = 0 f 0 0 ) y 0 0 u K e 0 e w , , u e _ ' K O   = u @ 0 0 0 0 e u 0 O # w } 0 q s   0 q = 7 k = 0 K 7 # e q   # X # @ # @ @ @ # = # O   @ O @ @ X @ @ X X @ @ # # = o # 7 0 7 # # 7 = 7 y y 0 0 0 w u e y y u k e e ",
"K L L ' ' K K K K K K L K ) K K ` ` ` _ _ K K K u K u u u u e e e e e e u e 0 0 q e q e 0 e 0 ` ) u 0 e #...K e # q y e q 7 q ) =.-.) 0 y e = u u y q 0 7 # u @.{ u , K q f e e e e 7 @ # 7 K ` ) ' u _ _ q u L X.O.| 0 @.K K #.I f # 0 K _ 0 u u 7 ` ..7 u K @.L | @.K { K ) ' e ) _ e _ # u ..u ' K u ' e .._ @ f $.@.f K ' u e q _ u # e = O 0 u 0 e ` K u 0 = u K k r O # u ' e ' -._ u 7 # = e X 7 # = e k u q , K ) K 0 y K 0 # u u e e K K y K K 0 7 w H L ' K =   = u k K u u = 0 e ) 0 = u _ = f e   0 u e 7 = # 0 u k 0 K 0 X @ 7 @ # @ 7 = # @ # @ @ # # # # # = = = = = = = # # # # # # # # # # = = # # # = = # # # = # , , , # # # ) q.o u 7 = , 0 0 0 0 0 e q 0 0 0 = 0 0 0 w 0 y w y e 0 = w 0 0 0 0 e e e e 0 0 0 q 0 # X   X X @ , , u = K ) u u 0 | #.` f y # 7 q 0 0 = ' -.q.K e , 0 q # u K y y y = O e _ @.K , L e f f 0 f # 0 @ O # e ) ) | X.e ..u q K K _ X.{ 0 X.u f @._ e @ 0 K #.u 0 k # ` =.0 0 K ' ' 0 @.} g f y ' ..q @.' { y X e X., _ K e _ , | | # u #.@.L w K q K # ' K # q e O X f q 0 e _ g u 0 # u ) k 7   7 y ..e e #.' K 0 @   y = @ @ 4 0 y u e = q ) _ u , 0 e 0 = K 0 e y u ` u e L q , 0 f K ' ' 0 O   , k # 0 0 0 7 q f u @ # f | w q s O , q 0 q y # 0 u 7 # e k y K e e w e y u k u k ^ k ) ) ` ` ` ` { { ` ` ` ` ` ` { ) ) ) K u e 0 7 = = 0 = # # # X # @ @ # # # @ # ",
"@ @ # 7 = # # @ # @ # # # = = = 7 0 q q e e u u u u u u f K K ) ) ) ) ) _ _ K u K K u K e K q ) k u y u -...K q 7 0 e e q 7 0 K ..9.K , y u = u u y 0 y 0 7 ^ -...u = u 0 e 0 0 u u 7 @ @ y K ` ) { K _ ' q e L @.3.@.0 @.K K #._ 7 @ e ) ` 0 u k 7 ) @.y k K ..K } @.f ) u _ ' e ) ) 0 ` @ u ' u ' K e _ u .._ # u @.#.f e { e k 0 K u # y 7   0 K q u ` k u 0 # y K k r O 7 e ` e ) ..) f 7 # # y X y 0 # e u u y = f _ u 0 y u 0 7 ) K u e u _ y f K 0 0 y K L } K 0 @ @ u u K u u 7 y e L 0 # u _ 0 H q O 7 u y 7 = = 0 u k , K @               O   O   O O O O       O O O O O   O O O O O O O O O O O O O O O O O O @ @ @ @ @ @ @ # # @ e { #.K L f e f K f K K K K f , % # X X X X X O O O O   O   X @     O = 0 0 0 0 0 , , # X X             o X u ) u e e ' @._ u 0 X 0 0 0 0 # f { ,.) u 0 e q X y u y y q 7 @ K ' X.K # K u u f , f , 0 O   # y ) ` X...u | u 0 K K ' ' | w #.e s @.L e # = K @.u 0 k @ ) -.0 0 ) ....e @.| K ) e _ ..y .._ K K @ e @.e L K e ` q | | , e _ @._ 0 _ e f # _ _ 7 y u O O u u e u ` K u , # u ) K 0 O # 0 { u e #.' K 0 @   q # O @ # 0 q u q # 0 ) ) u , 0 u 0 = K e e y u ..u e ' w , 0 f K | ..e O   = ) = u e y = 0 u f # o s  .w u e   # y 0 7 = O # y 0 @ y ) K ..` { ` { { ` ` ` ) { ` ) ) ) K K u u u u u e e e e u u u u u k k e q q e y u u k u u u w e y , 0 0 0 ",
"u k k u u u u u u u u q q 0 7 0 = = 7 0 q 0 0 0 y 0 7 # # @ # = # @ O @ # 4 # # 7 0 # 7 # 0 # ) u e 0 u X...u 0 # 0 y y q 7 0 u _ -.K 0 e u # u e q 0 y 7 # ^ ..' u # e e f e 0 q u 0 O @ 0 k ) ) ' ) _ ..u e L X.3.@.u X._ s +. .q # 0 K _ 9 y u 7 ) ,.K u K ..f I $.f ) u ' _ u K ) , ) @ f ' f _ K e _ f | _ = e | #.f e ..e K q K K 0 u 0   0 K q e _ K f y # q K f e   7 u { u u ) f u y # 7 q O q 0 # e e u e # K _ u u f f 0 = K u u e u ) q u K 0 q y e L | K 7 @ # 0 0 k u f 0 q e K = # q ' y K q   0 K e 0 # # 0 u K 0 u y q 0 7 0 y w 0 7 0 7 7 7 7 7 7 7 7 = 7 7 0 7 0 7 # 0 7 0 0 q 0 7 7 = = 0 = # # # @ @ # @ @ @ X   X     O e { -.K ..' ' | ....| | } ..| K L K f s e u u u e e q , 0 , , 0 , , , X O @ X o X X X X X X X # @ # # # = @ f ) e 0 q ' #.) u = @ 0 q q 0 # u { :...f < e y # y u q q 0 7 @ e { | K # f u u f 0 k 0 q X X @ e _ ' ' ' u } g 0 f L X...' 0 $.g s +.K e @ 0 K ..K = u @ u =.u q ) ' | u #.| K ' e ' ..0 ' K u K X e @.e ' K e ' e | | , 0 X.#.K < ` u e # K ) 0 , u O   0 e 0 u ' f u 0 @ e ) K 0 O @ y ' f K -.' K 0 @ O q #   @ @ 0 0 e e = 0 K K u , 0 u 0 # k e q q u _ e u L , = = e K ' ' 0 O   # K 0 u q y # 0 e K # @ u _ # e s   = u y # @ O # e k = y u @ 0 7 0 0 0 0 0 0 7 7 0 0 8 q 0 0 0 = = = 0 0 @ = = 7 # = 7 # # = = = = = 7 = 0 y y u 0 y 0 y q 0 q e q ",
") { { ` { { { { { { { ` { ` { ) ` { { ....{ ` ` _ ) ) u u y u e u e u e e y 0 y 0 0 , 0 , w = ) K 0 0 u @.{ u 7 # 7 q e q 7 0 e K -._ e y e # e u y 0 y 7 @ y _ | f , e e K f y e e 0 @ @ y K ) ) _ K K _ e f _ @.$.@.e .._ q  . .e # 0 K K 7 8 y @ k =.) k ) @.u K $.f k u ' ' u f K # K # u ..K _ K u ' L _ ` = y | @.K 0 ` e K e e K 0 y w   0 K 0 q ' K f y # y k ) u @ 0 e ) K u ) u u 0 # 7 0   7 7 # e u u y @ u _ k e y K q = K u u e e K q u K = , 0 e K | K 0   # w e u u u 0 y e K 7 @ e ' w e 7 @ 0 u y = 7 = 0 u u 0 r y y e y y y 0 0 0 y y r 8 7 7 y r 7 7 7 7 r q y 0 0 q y u y u u u y e y y 0 , 0 7 # # = = # # @ @ # # @ @ e ] ,., u e u f f K u u e e u u u u f K f K ) ) ) ` ' K _ K K _ K K ) ) ) ) k ) ) ) L u u u u f u e e e u , K ) e e 0 @.@.) u = # y y q 0 # e ) -...u = y y # u u y 0 0 7 @ e ....f # u e e e , u 0 q   O @ e ) _ _ ' u _ K 0 e L @. .' = @.K G +.I K X # f ' 0 0 ) # u o.) 0 K _ ..f #.| f _ e _ ' 0 _ K y _ @ f ..q _ K q ` u L ..q 0 ..9.L 0 ' u e , u K 0 # u     w u = e ` e u 0 @ y k u r   O 0 ) u u =.' f 0 @ O q # @ 0 X , q u e = , K _ u , 0 u 0 # u u u q u _ e e _ 0 , , s L L L u @   # K e K u e @ 0 e K # # e ' = u ,   # e y = @ @ # y K , e 0   O             O O O O O O O O O @ @ @ @ @ @ @ @ @ @ X X X O O @ O @ @ @ @ X O @ X X O O O @ X @ # # # ",
"0 u r y 0 y y 7 0 0 0 0 7 0 7 7 = 7 0 0 0 0 q 0 0 q 0 7 7 0 q r y u u u k u e u y e e e 0 e 0 ) f 0 0 K -.` u = # = q q q 7 q e u =.) e 0 y = u e q 0 u 7 O 0 ) ..K , e u K f e q e 0 @ @ 7 ) { _ ) K K ..u u '  .3.X.y .._ e  .| e @ 0 ) ' 0 0 u # y o.` u K @.e f -.L r q ' ..f u ) 0 k @ q ' ' K K f _ _ ) { , 0 _ @.K , ) e u e e K # 0 e   e _ 0 0 | K u w 7 0 u ) k 7 y 0 u K e K u e 7 # # # # = = = e u u e # K { K y # e q # u 0 e e e k q e K 0 0 w e K } K e X # 0 y u u 0 = y e K 7 @ q L 0 K 0 @ 0 0 8 = # = r r 7 7 7 7 @ # # # # 7 # # # 7 0 7 # = 7 7 = # 4 # 7 # # # # # # # # # # @ @ @ @ @ @ @ # # # # # @ @ @ # @ @ @ @ O y ) T.e @ X = 7 # X # @ # # @ X     O O O X @ @ # = , = 0 y y 0 7 0 0 0 y e e e e q e k e y e f u e u q e , u K w y 0 @.#.K e = # 0 e q 7 # y K @.X.u # y y # u u 7 7 0 7 # u =.| K # e q q e # u 0 q     # u ) ` ) ' f ' L < e ' $.3.@.e @.K s +.} u O q K ..0 7 ` = y =.) y K ) | s X.| e u u _ _ e ) K = _ O f ' e _ K q ` e L | u = ' 9.L , _ f e e 0 K q @ k X   y k , e _ u u 0 @ 0 K f y   # 0 _ u u { ) s 0 # @ 0 # @ u @ = y e e , , K _ e 0 q u 0 # ) k u y u _ e q _ 0 , 0 q K I _ u o O # e 0 K u e # y u K # @ q _ 0 f 0 O # y y 7 @ @ = y k 0 y ,   O   O O O     O O   O O                 O       O     O O     O                       O O O   O O O O ",
"  O     @ # = @ # @ # # # = 7 7 7 7 = = = = = # # # # # = # = # # # # # # @ # = # 0 , , # # # ) f 0 0 ) #.) u = # 0 e q y 7 r u u X...u r y 7 u e 0 0 y = # y ) { f , u f K K u 0 y 7 @ @ 0 ) { _ ) K f ..f e ..| @.| 0 ' K e } +.e @ , _ | e 0 u 7 y =.) e u @.u f 9.f 0 0 _ ' u u K 7 y @ 0 X...K K u _ } K ' q 0 ) #.) q K u u u e K # 0 e   q _ 0 0 ..K u 0 # 0 u ) u q y = q K u u u u 0 # # # y u 0 = u K ) u # u K u e # w q @ e 0 y e e u y u _ q q 0 e K L K e # # 0 q y u 0 = e e u 0 = < L q u 0 O 0 0 7 # = = 7 0 7 7 7 u u k u 7 # 0 0 7 7 7 0 = = = 7 7 = 7 7 = 4 # # # = 7 # @ @ @ # @ @ @ @ @ # # @ # # # # # @ @ # @ @ @ @ O K -./.0 K K ` ` ) ` ) ) ) ) ) ) ) ) ^ ) u k u w e u u u y e e y 0 = # # # = # # @ @ @ # X @ # # # X = @ #   e K 0 0 0 ' @.K 0 # # 0 y q 0 # 0 u ..@.f 0 e q # e y 0 = 0 = O y ) ' K # 0 e u f , e 0 y @   # 0 K ) ) _ u ' ' q u L @.#.| u @.L e O. .e @ # u ' 0 = k # 0 o.` e u ) ' q @.| e f k ' _ e K K = ) O u ' f L K 0 _ K K | u = ' $._ , ) K e e 0 K e # K X   0 f # e ` u u q @ 0 u f u   = 0 ` K e _ f u e # @ 7 # X y @ = y e e , # K _ u u s K , @ K e u w e K e 0 _ 0 # q 0 K _ L e X   # y q K u u # q e K # X q ' 0 e <   = u e = @ @ # 0 K w u y y y = q e y 0 0 0 7 7 7 7 # 7 7 # # # = = 0 0 0 = = 7 , 0 0 y 0 0 , 7 = 7 # @ # @ @ O O @ X O O   O O   ",
"@ @ @ @ O O O O O O O O .                 O O   O O O O O O O O   O O   @ @ @ @ @ @ @ # @ # @ K K e = K X.K e 7 # 0 y 0 y = y e y ' { K e 0 7 e 0 0 y 7 @ # ) ' ) u 0 u K K K u 0 u 0 O @ 0 ) .._ K ) f X.K e } }  .| e ' K q  . .e @ 0 K ..0 0 k y y { ` u u ..f f 9.f q 0 K ' u e ) 0 0 @ = | ..L _ e ) @.K =.e # f @.) u K f u u y f # 0 e   0 L q = ' K u y # = e ) u k u @ 0 ) q u u k 0 @ # @ q u y # u u K e # u ) u 0 7 u u 7 y y y e e e 0 e L 0 0 q e K L f y # = , 0 y K e 0 u q e = # , K q e 0 O 7 7 @ = @ O @ 7 0 # 7 0 # # # # # 7 # = # = 7 # # 7 # # # = 7 7 7 7 7 7 7 7 # 7 7 7 # # # # # # # # # # # # # @ # # # @ @ @ @ O = D._.= k ) ) ` u ) ^ ` ) ) K ) ) ) ` ` ` ` ) ) ) ) ) k ) ) ) ) K u e y e e u u u u u u 0 e y , 0 0 q 0 q , K K 0 , q { @.K 0 @ @ 0 q q 0 = e e ' ,.) 0 e 0 @ e y 0 = e # O 0 K ' L # e u u K 0 e 0 q X   = y ) ` f ' f L L 0 K ' @.3.O.y ..L q  .#.u @ # f ' 0 # u # 0 @.=.e K ` ' ,  .| e e f | _ e u K # u @ , ' L K _ e ` L K ..f @ K X.' 0 f K e e # f u X k #   u K # q ..f e 0 # 0 u K k @ 0 0 f K y ) f u q # @ # @ O = @ = e u e , # u _ u 0 , k 0 @ u e e e e K y , L , # 0 0 f I L y O X # e 0 u e e = y u f # X q L , e =   = 0 w = # # = y y 0 7 = 0 0 0 , 0 7 7 = = 7 0 8 7 # 7 0 7 = = = = 0 7 7 # 7 7 7 0 0 y q 0 0 0 0 0 = # = # @ @ # # @ @ @ O O O X ",
"y 0 0 0 9 8 7 7 7 7 # # # # = # = # # # # = = 7 # 7 # # # = # @ # @ @ @ @ @ @ @ X X   @ . @ X K K 0 7 ) ..K u = # q q 7 0 = 0 e 0 K ' ' u 0 0 y 0 0 0 # @ # u _ K u u u ) u u u 7 f e # @ y ) .._ K K e ' K 0  . .+.| y ' K q  .X.w O 0 u @.0 8 u 0 0 { ) k u @.K e -.K k y f | u y ) u 0 # q ' | f K 0 K $.K @.u 7 ) { _ e u u u k y K 7 , y   0 K 0 # ' K e w @ = y ` u u y O = u y K f k 0 @ # @ 0 k y @ e y u e = u K K q 0 u k y 0 e e e 0 0 0 u K 0 0 0 u f K f y # 0 q 0 # e u 0 y w u = , q K e u y O 7 7 7 7 # @ = 0 y = 7 q 0 0 0 0 = 0 7 7 7 0 y 7 # 7 = 7 7 7 7 7 0 # = # # # # = # # # # @ # @ @ @ @ @ # @ @ @ @ # @ # @ @ @ @ O # ^.-.  @ = r y # 0 7 0 7 y 7 # # # # # # # X # # # # # = = # 7 7 7 = = 0 0 r e u u u y 0 e 0 0 e w w , 1 , K K 0 = y =...u 0 # # y 0 q 0 # e 0 ) -._ 0 0 0 # u q 0 0 e # O = K .._ # e u u K e 0 = q X   0 u _ ..f _ f L ' 0 s I  .3.| 0 X._ 0  .O.q O # K @.u # u = 0 { @.y u ) ' < X.| f # y ..' e u K = u O 0 _ ' s L u ) ' u ..u @ K ..' 0 e K 0 u = K e O e #   f L # 0 ..e e 0 # = u K K # y 7 y K q K e e 0 @ @ o @ # =   = e u u 0 @ u ` u , @ y , X u 0 y e y u y q _ 0 = y 0 f L L u @ @ @ 0 0 e e 0 # e q e #   0 L 0 k 0   = , 7 @ # = = 0 7 # # # # = # O @ # # @ @ @ = # @ # # # @ @ # # # # @ @ X # @ @ O O O @ O O O O O O O   @ X X X @ O     X O O O ",
"7 7 7 0 r 0 7 # 0 r 7 7 7 7 r y e y 0 y y u u u u u u y y e 0 = 0 = @ # = = # # @ @ @ # @ @ X u u q # ) _ u e # 7 e e 7 0 # q q 0 K _ ..K 0 q y 0 0 0 # @ @ q _ K f K e ) u u e 7 ) u = @ e ) { _ K K e ' K w  . . .| y _ K e ' _ 0 O e K #.e 0 y 7 7 ) ) k 0 ..K q -.K K 0 u ` k 0 ) u # # 0 ' ..f K 0 u #.L | K # u ..` u e k u u 0 u = 7 u O 0 e , = | ) u y # = y ` u y 0 @ # u e ) K k y @ @ # 0 ) y @ y y u e = 0 u u y 0 y y q 0 u y q e q e u K 0 0 0 e K ) K u # # = y y K u 7 y q e = 0 e K e u q O 7 7 0 7 @ @ = 7 7 # 7 y q y y q y q y 0 7 7 7 # @ @ # 7 0 7 = = 7 = = = # # = 7 # # # # = # # @ # # # # # # # # # # # @ @ @ @ O @ !.T.0               O O O O @ @ @ # = = = # # # @ @ @ @ X X @ @ @ @ X @ @ X @ @ @ O O O # X # # # #   @ O u K 0 , u -._ u 7 @ # e 0 0 , # e 0 K =.` e q 0 # u r 0 0 0 # @ e ) ' K # e K u K u 0 = q O   X q @...f ) u K | 0 u O. . .| 0 ' K , |  .u O # K X.u # u 7 7 { @.y e ) ' % | | q = 0 ' L e u K @ 0 O = _ | K K e K X.f ..u # K @.{ e q ) q K , K y O y #   f K # 0 | u e , @ # u ) u 0 e @ = k q u u u q @ O @ # e e # , K K K 0 # K K e 0 # 0 0 O q 0 0 q q e 0 q _ q , e , e K K u # @ # 0 0 e e 0 = u q e = X , L , e 0   # = = @ @ @ @ 7 7 # @ 0 e u y = # 0 = = # # = # @ # # # @ # # # # @ @ @ @ # # @ @ O @ O   O O     @     @ @ @ @ @ X   @ @ O O X ",
"= # # # 7 7 # # 7 7 # # # # 7 # = # # # # # # 4 = # # @ # @ # @ # @ # # # # @ @ @ @ @ @ @ @   e k 0 7 _ ) y q # # 0 0 0 0 = 0 y 0 f ) ' u 0 0 e y y 0 4 @ @ u ) f K K 0 K e u e 7 ) u = O 0 ) ' ` K K w L K 0 } |  .| e ' K 0 K ' e @ 7 u X.u 7 y 7 7 u u ^ y #.K 0 #.u K 0 u _ k q K u # # e _ ' K L 0 e @.' | K # k ..' u , e u u = e # = u O q e 0 7 | _ f e # q e ` u 0 y = # e 0 u K u q @ @ # 0 ) u # e 0 u e 7 0 K f 0 e e q 0 = y 0 y K y u e e 0 0 0 0 _ .._ e # 7 7 y u K e 0 y 0 y # 0 0 e 0 e q O 0 0 y 7 @ # = 7 = # = 0 0 0 7 7 7 7 7 7 7 = 7 0 7 7 7 = 0 7 7 0 7 7 = = = 7 7 0 = # # # # # = 7 # 4 # 0 9 7 # # # # # @ @ @ @ O 7 q.q.e = = # @ @ O O O O                                                           O O O O O O O   X   @ @ u K e # u =.) e 7 X = e 7 0 = 7 e 0 e ' ' K e = = y , 7 0 # @ @ ) ' _ u , e K k ) u , 0 u =   @ u ....u ) u g @.e e | I  .} q ' K ,  .} q O 0 L @.K 7 u y 7 k @.e e K .., | X.e 0 0 _ _ e e K 0 0 O # } | K _ y K @.K ..) @ k @.` u y ) q K , u y O e =   u K # , } u u 0 @ # 0 ) u u y O # k e e u K e # O @ @ e u # # u e f 0 # K K e , # e u 7 0 0 q q 0 q , 0 L e , 0 q K K f e # @ # 0 7 y e e = e 0 w @ @ , K 0 e ,   # @ @ @ X O O = 0 # @ = # @ @ @ @ 7 # @ @ @ @ O @ @ # @ @ # = 7 7 = # # # # # # # @ # @ @ O @ @ @ @ @ @ @ @ @ X O O O X O O O O ",
"7 7 = = 7 7 # # 7 7 # # # # = # # # # 7 # @ @ # # @ @ @ @ @ # @ @ # # # # # @ @ @ # @ @ @ @ O y u 0 = ) K q 0 @ = y y 0 7 # 0 q 0 u K ' e = q u y q 0 7 @ @ 0 ) K K K q ) u u u 0 ) ) 7 @ = K ` ) ) K 0 _ K = K | | @.K { K 0 u I u = 7 f ..e 7 u 7 0 y y ) e -._ e 9.K K 0 u _ ) e ) u # = 4 _ ..' _ 0 q ' I | _ # k @...K , 0 e u = K 0 # K @ 0 e 0 0 L L K e @ q u ) u y u 7 @ y q u K e y # @ # = K u # y 0 u u 0 , K K 0 u y 0 0 7 e 4 0 u 0 q y u 0 0 0 0 L | K e = = # q u ) u 0 y 0 w 0 q , 0 = 0 0   0 y u r 7 # # # = @ # q q q 7 0 7 7 8 7 7 0 0 0 y y 0 0 7 # # 7 0 7 = 7 7 7 7 0 7 # # 7 # # # # # # @ 7 9 7 7 = # = 7 # # # @ @ u ,.{ # y r 0 0 y 8 7 7 = 4 7 = # @ # # = = = @ # # = 0 , 0 4 = # # # = # o # @ X O X @ X O O O O       O @ e K q @ ) @.K u 7 @ 0 e = 7 # = y , 0 _ { ` e = 0 y = 7 0 # O # e ) K u u 0 K u e u , e K # O # K { @.f K u s @.e e  .| +.} 0 ' f 0 | ' 0 O = K @.e # u 0 # k { u u ) .., _ @.u u 0 K ' e e ) e # @ , _ | e K 0 f #.L | ` @ 0 ` _ u , K q K 0 e e O q =   u e = 0 } f e 0 @ # 0 ) u y y O @ e 0 u u K e # O @ X y e # # u q u 0 # e K u 0 7 e u 0 0 w y 0 , 7 0 e _ 0 # , 0 e K f e # # # y # # w y = q q e # , q K 0 e 0   = # # 7 @ O @ = y # @ 7 = , 0 = # 7 = = = 0 0 7 @ # # = 7 = # # # = # @ @ @ @ # # @ @ @ @ X X   X X @ X @ @ X     X @ @   O O O ",
"# # # 4 # # # # = # # = 7 0 7 = 7 7 = 7 # = # # # # @ # # # # # # # # # @ @ @ @ # @ @ @ O @ O e e , 0 K u q 7 @ 0 0 0 0 = # 0 0 0 K K ..u = 0 y q 0 7 = @ O = ) ) u u 0 K e e u 0 ) ) 7 O # K .._ ) ) y ' _ , I } | @.K ` f 0 u I f # u ' 9.K 7 y 7 7 e u k 0 @.L e 7.K ` y e ) ) y u u # 0 7 K ' _ ' u q _ _ | ' # u @.@.) q e f e = ) 0 = ) @ , e 0 = K ' ) e @ y u k u e e 7 @ y 0 u ) u u # @ # # u e # q 0 y e q 7 ) u 0 k e 0 7 = u # 0 u 0 e q u 0 0 0 0 K I K e q 0 7 q K _ u q u q 0 7 0 0 e 0 y 0 O = e K e r 7 = = 7 * = 0 y u u u 0 0 0 7 0 e y e e q 0 0 0 7 7 0 y q 0 7 = @ @ @ @ @ @ = = = 7 = = 4 @ 7 7 = # # # # 7 # # # @ O r @.{ 0 = # # # = 7 0 7 @ 7 y 7 7 # = = 0 0 w , 0 0 0 y y e y y y y y 0 = # = # @ @ # # @ @ @ O O   X O @ @ e u 0 # ) { e e # @ 0 e # = # = w , 0 K ' ' e = 0 e 7 0 # @ O X , _ f u K q K k e u = u K = O @ 0 _ ..K K e e ..e e  .}  .} 0 ' f 0 _ | q   # K  .K # y 7 @ y { u e u ..# _ @.e e 0 K ' y 0 K e X # # ' | s K 0 y @._ } | # u ' { K 0 u e K 0 0 0   y ,   u q # , } K e 0 @ , 0 ) u 0 0 @ O w y u K K e =   @ @ u K # # u 0 u , @ 0 k u 0 0 0 y 0 , y 0 0 u 0 e e K 0 = 0 0 s K K k 7 @ X = 7 e f 0 # e w q # 0 q u 0 e 0   # 7 0 # O O # # = O @ 7 0 w 0 0 q 0 0 0 = # = @ O   @ # # # # # # # # @ @ @ @ # # @ @ @ @ @ @ @ @ @ @ @ @ @ @ @ @ @ @ @ @ O O O ",
"0 0 7 0 0 0 # # = = 7 7 = 7 7 = = # @ # # = # # # # @ @ @ @ @ # # # @ @ @ @ @ @ @ @ @ @ X @ O y e 0 e u e q 7 O # 0 7 7 = # 0 0 0 k f K u 0 7 y 0 0 0 0 # @ # K _ e u , k y y u y u f q O # k ..` ) _ 0 L _ = K | } X.K ` e 0 u K u # 0 u X._ 7 y 7 7 u ) k q @._ K @.u ) u y K K y K e X w 0 f | L ' K u ' _ L L , u _ { ) u e f e # ) w # ) @ , y 7 # _ L u y @ e u u u u e 7 @ y 0 u ) u e # % , # u u # q q e u q = u 0 # u y 7 7 = u 7 0 u q e e u q 0 q u K K K u q # # 0 u K q 0 y e = = , 7 e 0 0 0   = u K y 0 # @ # = = # 0 0 y q y 0 0 = 7 q e y 0 0 7 7 0 0 y 0 y e y 0 y e 0 0 0 0 0 q 0 7 # # # @ @ @ @ # # # @ @ @ @ @ @ O @ O e { o.7 # # # # @ # = @ @ # # @ # # # # 4 @ # @ @ @ @ @ @ @ @ @ O O O   O O   X X X X   O O X X O O O   O   q u 0 @ ) ` q 0 # @ = y = = = = 0 , 0 K ) ' y # 0 e 0 q 7 # O   e K f u L 0 e u 0 u = u _ 7 O @ e ' { ) ) u 0 } w w | |  .} e | f , K } , @ # q | u @ y 7 = 0 y u u K @.q _ X.e u , K _ y y K q O # 0 _ ' K L 0 q ..' } ' # y ' @.K , 0 y k 0 , e   e ,   u w # , L K u q @ 0 e ` u 0 w = O 0 0 0 K u e #   @ X 0 K # # y 0 u w # 0 K e = e 0 0 = # y # 0 u y q 0 u 0 , 0 , f | ' u 7 @ # = y u K y = 0 0 0 @ , , 0 # 0 0   , 0 w = @ O @ # = @ O # 7 = # # # # 7 = # # # = = # # # 7 = # = # # # # # # # = = @ # @ @ @ @ # @ # @ @ = 7 # @ @ @ @ @ O O O O ",
"0 0 7 = = # @ @ # # 7 7 # # = # # # # # # 7 # # # # # # # # # # @ # # # # # # # # # @ @ @ # O 0 e e u e e y 0 @ # 0 0 = = # 0 0 q f K K u 0 q u y 0 0 7 @ # 0 ) ) e f = u u u f e u K 7 O # u ..' K ' 0 L ' = L +.} @.K ' u 0 q e e @ y ..#.e 7 u 0 7 u ' ) e X.) f @.y K e 0 _ K e K q O 0 0 e @.L _ K f ..' ....# u { ..K e 0 e k = u 0 # ) # , y # 0 _ _ u e # e e y u u y # @ y = e _ u w # 0 = O e e 0 q q u k y # u y # y 0 0 0 # u 0 0 e q u k e 0 0 q q f L K u e @ @ = 7 e y 0 0 u = 7 0 0 e 0 q 0 @ # u K y 0 # # # 7 = 7 0 0 q 0 q q 0 0 0 e K u e e y e u y e y y y q 0 0 0 0 7 7 7 0 0 7 = # # @ # # 4 # # # # # # @ # @ @ @ @ O y ) =.@ # # = = # # = @ # # = # # # # # # @ @ @ # # @ X     @   O   O   @     @ @ @ @ @ X   @ @ O O X O O   , e 0 X K ) 0 0 @ # , e = 7 @ # 0 , 0 K K ' y # 0 u 0 0 7 = O   0 K K u _ e f u 0 u = u ' 0 @   e ' ' K ) u 0 ..q 0 } | | X.K ..f , e I 0 # # u @.K @ y 7 = q y u k ) X., ' @.k u = u _ k e K e X , # ' | _ _ 0 , I L ' | # y { @.K 0 # 0 k , , f   e 0   e 0 % < L K u 0 @ 0 y k e 0 e # O 0 0 y ) e e 7   @   0 u = # 0 0 u y # 0 ) u = u 0 0 = # e # 7 e 0 , , u 0 = 0 # s _ I u 0 X # # e K K e # 0 0 0 0 0 0 0 # , 0   = w u 0 7 @ O @ # @ @ 7 q 0 7 0 # = = @ # = , 0 0 q 0 = 7 @ O # # = # @ = # 7 = = # @ @ @ @ @ @ O @ @ O # 7 = # # # @ # @ @ O @ ",
"7 7 7 # 7 7 0 7 = = 7 7 = = = = # = 7 = = , 4 # # # # # # 4 # # # 0 7 = # # # @ # @ @ @ X @ O 0 ) ) e u e q 7 @ X 0 0 # 7 # 0 q 0 y K _ e = y u y 7 9 = @ # , f K y K 0 e u e u e k ) 0 O @ u @.| u ..e _ | 7 L @.X.-.K { K 0 e ) e # y { #.u 0 y 7 7 ) { K e ..K L $.y u e q ' f K ) e O 7 0 u ..K _ K e ' _ | X.# e _ @.K u % q K # u q # ` 0 7 q @ 0 L _ u e # q e q K ) u # @ 7 = u _ u e # e = @ y u y 0 y u u y 7 k e # 0 0 0 0 # k y 0 e 0 f K e 0 0 e q f L K u y @ # 0 7 w y 7 # e # 7 7 # 0 0 0 0 @ @ 0 q 0 = @ # 7 0 7 u u e u u u u e y y e K f e u k ^ k u K k u 0 y 0 0 0 y 0 0 0 0 0 0 = = 0 7 = = 4 # # # @ # # # # @ # @ @ O q ) =.@ # # # # # # # @ @ # @ @ # = 7 = = # # # # # @ # @ # @ @ O @ @ @ @ @ @ @ @ @ X O O O X O O O O O O   0 e , 7 u K q 0 @ @ , 0 # = # # 0 0 0 K K ' y # 0 e 7 = 7 #     # _ ) u u 0 u e 0 f 0 e ) = O   y { X.K ' k q @.y 0 I | | @.u ' u = u L s @ # _ q._ = y 7 @ 0 k e e K @.< | @.f K , k ) k 0 K ,   0 # s ' K ' u 0 L _ L | = 7 ` -.) e , e K 7 0 ) @ e u   w 0 # 0 L ' ) q @ y q u u y e # O 0 0 0 _ e u #   #   0 u # # 0 7 e q = 0 K 0 # K 0 , # # e # = e q 0 0 e 0 = 0 , s L K e y # 7 # u ) K e 0 e 0 0 = # , w # 0 0   # y k e y # @ @ = @ @ = q u u u 0 0 = = 0 w q q q 0 = = 7 7 # 8 0 0 0 = = @ O O O O O O @ @ # # @ # @ @ # = # # @ # @ # @ @ O O ",
"0 7 7 7 = 0 q q 0 7 0 # @ # = 7 # = = 0 = 0 7 # # # # # # # @ @ # 7 7 7 # # # # 7 # @ # @ @ O e ) _ 0 y q 0 # 0 # u u = 7 # 0 0 0 0 f ) y @ q u e 0 y 0 @ # = q K e K = e _ u q 0 u u 7 @ O e ..| u ..e _ X.7 K | @.#.K ' ) e u @.f # K ` X.u 0 y 7 7 ) =.K e ' ' ' #.e k e u @.u f ` K @ # 0 u ..K ' K , L _ .._ # q ` ..u e = 0 ) , k e # ) e 0 0 # # _ _ f e # q y 0 ) K e # @ 0 0 u ` u e # 0 # O 0 e y 0 q e u y = u y # 0 , 0 0 # k q = e 0 f K e q e e 0 f I L K e O # 0 y u e 7 # u = = 0 = 0 0 0 0 # @ 7 7 7 7 @ 4 7 y 0 u y 0 y y e y 0 0 y 0 u e e u K u u K L f u 0 u e e e e 0 0 0 y 0 q 0 0 q q 0 0 7 7 7 0 # = # = # # # @ # @ q ) =.= 0 0 0 7 = 0 0 # @ # = = 7 # # = = # @ @ @ @ @ # @ @ @ @ @ @ O     @ X @ @       @ @ @ O O O O   O   0 e , e e e 0 0 O   = 0 # # @ @ 0 0 q ) K K y # 7 e 7 7 0 = X X 0 _ _ e u , u e 0 u 0 0 f = O   e _ @.f ' K , X.e , L | } #.f ' u = e K u @ 0 _ @.f @ y 0 @ 0 ` u u K #.q | _ e ) 7 u ) u 0 K ,   e # f ..K _ K u _ I K } , , _ X.K u < e K = , )   y e   0 0 # 0 ' f e 0 @ e e y u e e # O 0 , , ) u e #   <   0 k # # 0 0 u y = = u # @ u 0 = # # y = 0 e 0 y e q 0 0 , q e L K e u # # # 0 u u 0 = e 0 # = # = y 7 , ,   @ w K y 0 @ @ @ # @ @ # , 0 0 0 0 , # # 0 y 0 0 7 # # = 7 0 0 0 q y 0 = e q 7 7 = = 0 0 , # @ @ O O   O O O X O O   O O O O O O ",
"0 = 0 y y e y 0 0 7 7 7 7 7 0 0 0 = 7 # @ # @ @ @ # # 4 7 # = # # 7 7 7 # # # # = # @ # @ @ O 0 ..K 0 0 0 7 # 0 @ y ] 7 7 # q q 0 y K ) y @ 0 u y q y 0 @ # # 0 K y K 0 e _ K K 0 u k 0 @ # y ) | e ' e L | 7 K } #.-.K ` K w u { u @ 0 _ ..K 0 u 7 0 { =.) e ' ` _ @.e K e e ' e K { ) # # 0 u ' K ' _ q K _ .._ = 0 ) @.K u = 0 ) = u y @ u e # , # # K _ K q # 0 0 0 ) k e 7 @ 7 0 e ` K u # q # @ y e y 0 0 y e y 0 K u 0 0 7 0 0 # u 7 @ e 0 y u e q y e 0 u H K f y @ # = y ) e 7 # u = # 7 7 u y q y # # q u u 0 # 7 0 0 = e y 7 y q y q y y u r 0 = = 0 0 0 0 0 e 0 0 q f u e e K f K K ) u u y 0 y y 0 0 q 0 q 0 = 0 , 0 0 = 0 # = # 7 ` *.X 0 0 0 = = = # X   X # # 7 # # # # # @ @ @ @ # # @ @ @ @ # @ @ @ @ @ @ @ @ @ @ @ @ @ @ @ O O O O O   # e e u e e 0 0 X   # 0 = # # # q 0 0 K K f e # y u 0 0 7 # O @ , _ ) q f = q u y K e e ) 0 @   e ) #.u _ K , X.u 0 I  .} #.f ' u = 0 e y X 0 ) #.K # y 0 @ 0 { K K K @.< | L 0 _ # u _ e e K #   0 # u @.K _ K u ..| ' | @ , K @.K u 0 0 K 7 , k X 0 f O 0 0 O # ' K e 0 X e y 0 u u y # O 0 = , ) u q # # ,   = k 0 0 0 0 u e 7 # k = @ y = 0 = @ u 7 = e 0 e K 0 0 0 , 0 q K K u k #   @ = 0 0 0 # 0 y @ = = = 0 0 0 0 X @ y K y = @ @ @ = # # = 7 0 , 0 0 0 7 = 0 u u e y y y y y y 0 w 0 0 0 = = , # # # = = = # @ @ @   @ @ @ @ @ # @ @ @ O O     O O ",
"7 # 0 0 y 0 7 0 # 7 0 y 0 y y y 0 0 0 7 = = 7 0 0 0 7 # # @ @ @ @ @ @ # @ @ @ @ @ @ @ @ O @ O e ..K 0 0 q 0 = q @ q { q 0 = 0 q 0 y K _ u @ q u y y e 0 @ @ 0 K K e K K e K f K e u e 7 # O q ) ' u ) e L X.0 K | #.9.K ' ) q u @.K @ 0 ) ..u 0 u 7 r ` { ) u @.' L #.e u u e ..e ) ..) = # y u ' _ ..' u K _ ' ) 7 7 ) @.) u # = K = u u = u u # = @ # K _ K u # 0 w 7 k e 0 # = 7 0 e ` ) u 0 u = X 0 y q 0 0 y e u q u e 0 = 0 q 0 # u 7 @ e q 0 u y q e w , u K K u e @ = , y _ u 0 # y = @ = = 0 # 0 y # # y K y q = 7 u 0 # 0 # @ # # # # # = 7 0 0 # @ # = q q 0 q 0 7 0 u u 0 q K ) u e e u k k k K K u e e y q y y u e y 0 7 7 # # # 7 { { X # # = # # # # 0 7 # # = 7 # # = # # # # # # # = @ # @ @ @ @ # # # @ @ 7 7 # @ @ @ X X O X O O   O   , _ K e w y 0 = @   # 0 # # @ # q 0 0 y K K q # y u 0 7 = # O @ # u ) 0 K = 0 K e e y e ) 0 @   # K #.s _ _ < X.f 0 ' @.O.#.u @.u 0 e _ e @ q ) #.K # e = @ u @.K K K X.e @._ 0 ) # K _ e K K 0   0 = q ' f _ K 0 _ ' ' ..# = K -.K u 0 # K 0 0 k @ q K @ 0 7   # ' K u 0 @ q w 0 K ) y # O = # 0 ` u y 7 = ,   0 u y 0 0 e k e = 7 K 0 @ 0 = 0 = @ k 0 = e , e K 0 0 0 0 0 e L L s k #   # = = 0 w @ , 0 X # = # 7 , = 0 X O = 0 0 = O @ @ 0 = q e y u e u y q q q 0 K f q y u ^ u u f u u y 0 0 , 0 0 0 7 , , , = , # = = # # # @ @ @ @   X @ @ @ X @ O @ ",
"q 0 0 u K u e e u u y y 0 y q q 7 7 0 0 = = = , 0 7 # # # @ @ @ # # # # # # # @ @ @ @ @ @ @   q ' K 0 0 0 0 0 q O 0 { q 0 7 0 0 q e L ' u @ 0 u y y y 0 @ @ 0 _ ) e K _ e u e K u K u = # O u ..' u ) 0 ) X.0 K ' @.-.K ' ) q e { q @ e ....K 0 k 7 r { { K y @._ K @.0 u u 0 ..u _ ..) = # q e ' _ ..K f K ' ' { 0 # ) @._ f 7 # u = u k 7 e u # # @ # K K K e 7 0 u q ) e 0 = = @ # q ) k u 0 q # # e u q = 0 0 e K 0 q 0 = # 0 y 0 @ u 8 @ e e 0 u q y u 0 , u K K K e # = 7 y K u y = 0 y # = 7 0 7 0 e # # y k y y , 7 u 0 # q 0 @ @ # @ @ @ @ # = 7 7 # = # 7 0 0 q 0 7 7 0 = @ # 7 = # O @ @ @ @ @ @ # # # # # # = 7 0 0 0 = 7 7 0 0 0 = k { = = , # = = , 7 0 q 0 = = # O @ # = # # # = 7 = 0 # @ @ @ @ @ @ @ @ @ X # 7 # = # @ @ # # @ X @ O O   0 K _ 0 0 q 7 # 0 X 0 u = # @ @ e 7 = 0 ) K e X r u 0 0 y 7 O @ # 0 K q K = 0 ) u q 0 y K 0 X   # K #.u ) ) , X.K , L @.#.#.u ..k q u @.f @ 7 K X.u # y = = u { k k k @.s #._ 0 ` , ' ..0 _ ' )   = 7 u ..f | K , K ' ' ..# = f @.K u 0 X K 0 , ) @ 0 _ # 0 =   0 ' K u y @ 0 0 0 K k y # O # = 0 ` K e = , =   # u y 0 0 q e y 0 0 K 0 @ 0 # 0 # # u 0 @ y , u K 0 w 0 0 0 q H L K q #   # = e e e @ # e # # = # 0 = = 0 @ O = # 7 = O @ = 0 , e q = y 0 y 0 0 0 0 0 e e 0 e e k e s K K e 0 q q q q 0 0 , , , 0 0 0 0 0 0 0 = = # # = = @ # # # @ @ @ @ @ ",
"q q 0 u K q y u u u u k u e 0 0 0 0 0 q 7 0 , 0 = 0 # = 7 # = # # # # @ @ # # # # # @ # @ #   q ' f 0 0 0 7 7 0 # e ` q 0 = 0 0 q 0 K _ q @ 0 e 0 y y 0 @ @ 0 _ K u ` _ q u e u u ) u = @ O 7 _ ) u _ e K | 0 u } @.$.K _ K 0 q ) e # u ' ..K 0 k q u { { ) y ..' ' #.u K K 0 @.f ) ' ) 0 @ = e _ K ' K e u ' ' @.e # K =.K e = 0 u 0 e u 0 e u # # O # K g K u 7 7 u 0 K u e , @ O @ 0 ) u K u e # # u k 0 # 0 0 y K 7 0 0 y q 0 0 0 @ y 7 # e u 0 q w e u q 0 u K K f e @ # 0 e K e u e = u 0 7 7 0 7 q u 7 7 e K e q 0 7 u y = q u e e y q 0 0 0 = = 7 7 0 0 # # # 0 0 0 7 # = # # # # # # # @ @ @ X O @ @ O O @ O O O   O     @ @ @ # # @ # ) ..= 0 , = , y e y y 0 , = 7 # # 7 0 0 0 # = @   O O @ O O @ # # # @ @ @ @ # = # # @ # @ @ @ @ O @ O O   = ' ) 0 , 0 7 @ 7 X y { 0 # # = w 0 0 e _ K y X y u 0 0 y 7 O @ # 0 K 0 K 0 q ' K K q y K y #   0 ` -.f K K , | K 0 K  .$.#.e ' u , u ..q   = ) | u # u 0 = k o.) u K @.e @._ < ' # f .., _ ..u O = # e ' e .._ 0 k ' ' ` # = u =.K u 0 X K 0 # K # = K = = =   , K K f 0 @ = = , ) u y # O # = 0 _ K u # , #   0 u 0 7 0 0 q y 0 0 K e 0 = # 0 = @ u = @ y 0 0 u 0 e q q 0 q K K f e # X # = e k 0 @ = w # @ = = e 0 0 y @ O 0 u u 0 @ @ 7 7 # 0 0 = r 7 y 0 0 y y 0 7 # # , , , 0 , q q , , u e q q e f u K u f u e 0 , 0 0 , , 0 7 0 0 # 0 = # = # # # # ",
"0 0 0 q y 0 u u u e f K K u 0 e y q q e 0 0 0 0 0 q 0 0 0 0 , 7 7 7 0 = # = # # # # @ # @ # O = _ e 0 7 0 0 7 7 # e ) q = 7 0 q q 0 K _ q # y e q e 0 0 @ @ 0 K f u ) f q K e e s K u 0 @ # e ) _ u ` 0 f ..0 u ' | @.K ` ) y e K e # e K ' q 0 k y u =.o.K y ` _ ..-.f ) ) 0 @.s K _ ' e O # u _ K ' K f e ` _ ' K # u @.K e q f K 0 u u 7 q K 0 # O = K K K e 0 7 u y K u y = @ O # 7 u k K q # @ @ y u q # 0 0 0 f 0 0 y 0 0 0 q 0 7 e 0 @ q K 0 = 0 e u e 0 y K K K e # # 0 K K u u u 0 u 0 7 0 y 0 q k 0 = e ) e y = # 0 e 0 e q 0 q 7 # = 7 # # 7 0 7 0 0 0 0 0 y e u u y y e e u e u u u 0 y e y 0 r 0 0 7 7 7 = # = # 4 # = # @ O O O O ) { # = # # = 0 y 0 = # # # 7 0 0 0 y y 0 = 0 0 = = # # = = = # @ @ O   X O O @ X O O   O O O O O O   O   y @.K 0 7 0 0 # y   0 o.e 7 = 0 0 0 0 e ' K 0 X y u 0 y y =     , f ) 0 K K 0 K e K e e e 7 @   # _ -.f K K 0  .K 0 L ..$.@.u ..u 0 u @.f   # K ..K 7 u 7 = k =.k u ) #.e X._ # ' = ' @.w ` ..u @ = = f ' L @.L u u ' _ ' 0 @ u -.) u 0   u 0 7 K = = ) , # #   = K _ K q # = 0 # u y 0 # @ @ 0 0 ) K u , q ,   # y 0 = = 0 q e e 0 k 0 = = # 0 4 @ u = @ q 0 , u 0 0 q 0 , q K K e e # @ # = e ) 0 # # 0 # O # # , @ 0 q @ X 0 K y 0 = # y 0 @ = # O # @ @ @ @ @ # 7 7 # O @ # 7 0 7 0 0 # = w u y 0 e K k e y e u u k u K u y e q 0 0 y q e w 0 0 # # # # ",
"0 y y 0 # # = , 0 0 < q q 0 0 e e q q u e u u f u e q 0 0 y 0 0 0 0 0 0 = 0 , 0 0 7 = = # 7 @ q ) w 7 = 0 0 7 # # e k 0 = = 0 0 q 0 K _ 0 # e y u _ K e # @ 0 u e 0 K K 0 K u q u K K q @ = u _ _ 0 ` e u ..0 e _ ) ' K ` _ y e f y @ u K ..e 0 k = u :.{ e q ) K ' @.u ` { q ..f K _ ..K @ @ u ' f ' K K e ' _ _ ) @ 0 ' K e 0 K _ 0 e u = 0 ) 7 # O # u K K e 0 0 u q K u u 0 # @ 7 7 e u K 0   @ @ y e q = q q q K 0 0 y = , 0 e y 7 0 y = y K 0 # 0 q k e , q f K f q # @ , K ` K e y e q = 0 0 0 0 0 u 0 = e ) w 0 # @ # = 7 y u y e y 0 0 q 0 0 u y 0 y y y r 0 y y u y 7 0 y 0 0 0 0 w e 0 0 e w y e e u e y y q 7 e y e y y 0 , 7 = = @ ) { = 0 0 0 0 e K u u e e y e y 0 0 q 0 0 = = 0 7 # # = , = # # @ @ O O @ @ @ @ # @ @ @ X X O   O O   O   0 ' K 0 = 0 0 # y   = ` y 7 = 0 0 0 0 e | f 0   q u 0 y y 7 O @ 0 _ ) q K _ y f 0 f e f K 7 @ O 4 _ @.u K K < | K 0 f ..$.$.u ..u 0 e { 0 O y ....K = u 0 # ^ ;.k u ) @.u X.L # _ # k @.0 { ..u # # 0 u ' _ ..K s f ' _ { e X u .._ f = O w 0 0 k 0 = ) 0 o X   , K K s q # 0 u 0 K e , # # O @ 7 K k u 0 < =   = k 0 = = 0 0 u u # e = = # , 0 7 @ e = X y y , u 0 q e 0 = 0 f K K e = @ # , e K 0 0 # 0 7 @ # = = # 0 y @ # 0 u 0 0 = = e 0 @ = , O     O O   X X # # # # @ # = 7 0 0 0 # # # = @   # # # ,   O # O O @ @ @ @ O @ @ @ # # 0 0 = = = # = 7 ",
"O @ # 7 7 @ @ # 0 0 0 0 0 7 0 e u 0 q K K u e u u u k u K u e e y q q e y u y y 0 7 # # @ = O 0 f 0 = = 0 0 0 @ # e u 0 # = 7 , y 0 _ ) 0 = e y u K e y # @ e f u 0 K f 0 f u 0 u K K y O @ u ' { q ' y e ..q 0 ' ' ' K ) ) y e u q @ e _ ' y 0 u = u =.` 0 y ) u ' #.f @..., @.u K _ ' K @ @ w ..K ' L K 0 ' ' ` _ # 0 ..' f , e ' 0 q e 7 0 _ 0 y # 7 u L K s 0 0 e 0 f u e 0 # # 7 7 u k K 0   @ @ 0 e y 7 q y y K y q u 0 = 0 y y # q e 7 0 e 0 # 0 e K e 0 u s K K e 0   # e K K e 0 u q 7 0 = 7 7 7 y 0 7 y u = e 0 = = 7 7 = q q u y 0 7 0 7 7 y 0 = 0 0 7 7 0 # # = = # # # @ @ @ @ # # # # = # = 0 , q e y q 0 0 y 0 0 0 0 0 w q 0 y 0 u @.0 y y q 0 e K e w e k u u u u u y 0 0 = = , , = , , , = = # # = # # # @ @ @ @ O @ @ X @ O X O O       0 ) K 0 # 0 0 # 0 O y ' e = = = , 0 0 e | K = @ q e 0 q q 7     0 _ K u ) _ q f 0 u e K f # O   @ u ' u K K 0 ..K , K ..@.$.u ..u 0 0 _ y @ u { ..f # u r y ) @.u u K @.K #._ 0 ` @ K X.q ' ` K # X # e ' K ..K e e ` _ ..K @ q @.K f , % e y 0 u 0 # K 0 X O   0 K f s q # 0 e , K e 0 # @   O 0 u u u e q =   0 K y # = 0 , u e @ 0 = y = 0 , = @ 0 = @ e u , 0 0 q e e # q f K f e #   # 0 u f , u 0 = y # = = = = 0 u # # e K w 0 = 7 e e # = e y y y y 0 0 0 = = # = = = @ @ @ , = 7 # # # @ @   @ X @ @ @ O O       O O     O O             O O   @ # ",
"7 = = = 7 # = # = 0 0 q 0 = = 0 = # # = = # @ @ @ @ @ @ # @ @ # # # # # = = , = = 7 = y 7 0 @ 0 u 0 0 7 0 0 y @ = u u 0 # = 7 = 0 0 u K q , e 0 y y 7 7 @ @ g K u q K ) = u K q q K K 7 O O y ` ' q | L u ' q 0 ....' f ) K 0 e u 0 @ u _ ` y r k = u =._ = q K e _ @.u ' _ 0 X.u K _ ' K @ O 0 _ e s K K , ` ' K L # = ' _ f , y { y y u 0 0 ) y y # # u L K s 0 0 0 7 u u e y # @ 7 0 y e K q   @ @ 0 e y # 0 q 0 f y 0 0 = = 0 q 0 # 0 e 0 0 e 0 # 0 u u q = e f K u e # O # 0 y u 0 # e 0 0 0 @ # 0 7 8 # # = 7 7 0 = @ = # # # 0 0 y = # # # @ @ # @ @ # # # 7 0 # # 0 7 0 0 0 7 7 0 = 7 = # # # # @ @ @ @ # @ # # # = # = = = = = = = = # ` =.@ 7 7 0 0 0 y , y u u e u K K s q 0 y 0 q q q 0 0 = 0 0 0 , 0 0 0 = = # # = # @ = # # @ @ @ @ #   @   0 _ e , # 7 0 # 7 O 0 ) q # # 7 0 0 0 e ' K = # e y q e 0 7 O   0 K f e ) f 0 K e w u K K 0 O O 0 u { u K K , | ) 7 K | ' @.u { K 0 y K 0 O e K ..u = k 0 y _ =.K e ) { _ -.' q { y K X.0 _ K u #   # q ' s | K K y _ _ _ _   7 ..K e , u K e 0 K 0 # K e # @   = K g g q = , u q K e q # @ O @ = e k f e o #   = k y # = 0 = e u # q = q , 0 0 = # w 7 X 0 k = # , q u e # , e f K e # O # e K K , K e 0 e # = 0 7 0 0 u 7 @ y ) e 0 # @ 7 w , 0 0 7 0 # # # # @ X = = # = = = = = 0 q e e q 0 q q y e y y e e = w 0 , = 7 7 = # # = # @ # @ @ @ @ @ O     ",
"= # # # 7 # 7 # # # = 0 7 # # # @ @ @ @ @ @ @ X X @   O O @ @ O @ @ X O X O   O   @   # @ @   0 y = 0 = 0 0 e @ # e e q # = 7 = 0 0 0 e e 0 0 0 q e 0 = @ @ s f u q K K # e K 0 0 g L 0 @ # 0 K ' q | | L ..e 0 | .._ e ) K 0 q K 0 @ y _ _ q 7 k = K ..) = y K q K ' 0 K K q @.u K ' ' f @ @ K ' u e K ` , K ' K _ # 0 _ _ K 0 0 ..e e e # 7 f u e # @ w L K K 0 0 7 = u k u e # @ 7 0 q e K e   @ @ 0 e 0 @ 0 0 0 k u 0 = # # 7 q q 7 q q 0 0 q 0 # 0 u e 0 = f K K f e 4 O @ = q e 0 = e 0 0 0 # # 7 7 7 # # 8 0 7 7 # @ 7 7 = # 7 # # # # # = # 7 # # # 0 0 7 0 , # = 7 # # = 7 # # = # # # # # # # # # # @ @ @ # # @ # @ # @ @ @ @ @ @ O @ { =.O 0 0 q y 0 # @ # = , , < q e , 0 e e e q q f u u u f e e 0 , 0 0 , 0 0 0 0 0 # 0 = = , = = # # @ = O = ) 0 # # = 0 = # O 0 K q = # = # 0 q e ..u # = e w k ) k 0 X X , e y 0 K K , K u 0 e K K e O O q u ..u f K = ' K = K ' K ..u { K 0 e K 0 O y K ..e = u , y { @.e 0 K K K #._ e { 0 K ..q ' ) { y   , u ..u ' K K 0 _ _ ) _   # ' L e , e ' q , u 0 @ f e @ @   < L g g q # , e 0 f e e 7 @   # # 0 u f e @ O O # e 0 # = q 0 e u # e = 7 # 0 y 0 7 0 y # y K , @ , q e q o < u f K q #   X = K _ e e y q 0 @ = 0 = = = u , @ y K 0 0 @ O @ # # e 0 0 e = 0 7 0 7 , u q = 0 0 r 0 0 y 0 e e 0 = 0 0 0 0 0 0 0 y # 0 e 0 0 y 0 e y y 0 0 # r 0 e y 0 0 = # = ",
"0 # 7 0 7 0 0 0 0 7 y y u u q w e y y e y u e 0 0 y 0 0 0 0 0 7 7 7 = # = = = 4 # = @ @ O @   # 0 # = , q e y   # e e 0 # # = 0 0 0 0 e K q 0 0 0 e q 0 @ O 0 e y 0 K K # e L q q K L w # # 0 u ' e } I I | e 0 ..O._ e K K e q ) 0   y _ ' q 0 K = u ..' = 0 K 0 K L 0 f f u @.e f _ ' K = @ e ..K u L _ 0 K ` u ) 0 0 _ ` u , 0 { u e e # 7 u u u # @ u K K K e = , 0 u u e u 7 # = 0 0 u ) e   @ @ q e 0 # 0 0 0 u u q = # # = q y # 0 0 0 7 q 0 # e e e 0 # u e k u u 7 O @ r y e 0 = q = = 0 # # 7 7 7 @ # 7 7 = @ @ # 0 = # @ 0 0 0 0 y q y q y 0 q e ) ` k u y y e u y 7 0 7 # # # = # # = = 7 # @ # # @ # # @ # # # # # # @ @ # @ @ @ @ { =.      O @ 7 7 O O @ = 0 0 7 0 # = 0 u e 0 e K K u e u k u u u K u y e y r 0 y y u w 0 0 # # @ # O @   # K , # # , 0 = #   q K 0 = # , # 0 0 e | u # = e w K f e 0 X X q u y , f K # f u < e f K e     0 K @.e f _ # _ L = u X.L ..e ' u 0 y K 0 O e ) ..e = u = y ..` 0 , K u K #.' f @.q K ' 0 ' K ' e O X y ..s | L K , ` ` _ ` # o ` ' f , , ` e = e 0 @ k u = 0   0 ' K f e = , 0 , f e e 0 # O @ @ y u u u @ O   # e q 7 = 0 0 e f # u 0 0 @ , e 0 # 0 e # = e = X , q u e = e e f K e 7 O O 0 u ` u 0 0 e , # = # # = # y 0 7 y u = e 7 @ # @ # = = 0 u 0 # 7 0 = = 0 = @ 7 = # # # # O @ # X @ @ O O O O X @ # X # # # # = = 0 e q 0 0 = w , 0 , 0 , 0 0 0 ",
"0 0 e e = 0 0 0 0 0 0 0 e y 0 0 q 0 0 0 0 0 y 0 0 e q q y y u e e q 0 7 e 0 e y q 0 = 0 = 7 # 0 y # = # u f q O # e u w 0 # = 0 , 0 , e _ e e 0 0 0 0 , @ O 0 K e 0 K ) = e ' s s _ L w # @ 0 u _ K } I I | u 0 ....K 0 K ` u e ) 0 O q _ ..e 0 K 7 y { { # y f , K K 0 u ) K #.e u ' ' f = @ y .._ u ' _ 0 K _ u _ 0 # K ' u , 0 ' e 0 0 # = u e k =   e L K K e # 0 0 u u e u 0 # # y y u _ u # @ @ 0 e 0 # 0 0 0 e u y = # # 0 e u 0 y = = = y q = K e f q # u e u f u 7 O O 0 0 e 0 # 0 0 = 7 @ # 7 7 7 @ # # 7 = # @ # 4 @ @ # e y e y y y u 0 0 0 y k ) ) K u u k u u e y 0 y q y y e 0 0 0 e u 0 0 y y 0 r 0 7 7 # # # @ @ @ @ # @ # @ @ ) [ = # # # # # 7 # # # # 7 0 0 0 = # = = #   # 4 # O O X = @ X # @ @ O @ @ @ @ @ # 7 = = = = # 7 r = = O 0 u , = # 0 0 y @ X e u 0 # @ , # 0 0 0 K f , , 0 0 y q 7 = O @ K g e 0 f K # u K , q f L 0     = y @.u s | q L K = K #.' ' e ' u 0 y k 7 O u _ ' 0 0 k 7 y { ..e = K u f @.K e ' 0 K ' q ' K ' e @ O 0 ' < f K ) = ` _ K _ # # ` ' f , = ` u = u 0 @ u K = 0   , ' K f u , , 7 = u e y 0 # O # 7 0 u u e   O   # e q = # q 0 y u , w = = # , 0 , # 0 y = = w 0 o 0 e u e @ q e s u e 7 O   = , e y = = y # 0 # @ @ 0 # 7 O @ = = = 0 = @ @ @ @ @ = 0 y = @ @ @ O O @ O O # # @ # = @ @ = = = = 7 = # # # # # # @ @ @ O O O O @ @ O @ @ @ # # # # # # # # = ",
"# # 7 = # # 7 = = 7 # @ # # # # # @ @ @ @ # # # # = # = 0 = 0 y 0 0 0 7 w , 0 0 0 0 , q , y , = q = 0 = u f 0 O = q y 0 u 0 0 0 = 0 # e f e y 0 7 0 u 0 @ @ # L y = e ) 0 f ' s q L K 0 @ O 0 e K f I I T  .u y X..._ 0 K K q e K 0 @ y K ..q 7 e = 0 { ` = u K 0 u e # e ) _ @.q e .._ K = # e ..K e ' K 0 f _ u ) 0 # K ..u = 0 ' k 0 e # = K u k 0 @ e I f s u = 0 7 e e y y = @ @ e y K K s @ @ @ 0 y 7 # 7 7 7 y k y 7 # = = 0 e 0 0 = = = y e # k 0 u 0 @ e u u u e 7 O O = @ 0 0 @ , 0 7 0 # # = 7 7 @ # # = = 7 # # # # @ 7 0 # 0 = 0 0 r 7 7 0 0 0 e u y y u u u y 0 0 0 0 0 0 q y 0 = # 0 0 7 0 q r 7 0 0 7 # # @ # # = # # # = # @ # ) *.# @ # @ @ # # # = # @ X = = 0 # # @ @ X   X   X @   O O         O     O O                   O #   O   , y = = # = , k @ X y u q # # 0 # = 0 = w u , q 0 7 0 q 7 @ O @ s f u 0 K ) # u K , 0 e _ 0 # O 0 e ..s K 3.L } I = K #._ L 0 ' e , 0 K w O 0 _ ' 0 = K # e ' { e = K e u ..u 0 _ = _ ' 0 ' K ' q #   0 ' w q K K # K ` f ' # = K ' f 0 # ` f 0 u 7 @ y K y 0   # u g K s , # # # u u u e # O # 0 0 e u e   O O # e 0 # # 0 # y K 0 0 @ # @ = y , = 0 0 , = 0 , X 0 e e , @ u K f f e , O   # = y , # 7 y # 0 = O @ = = = @ # = 7 = 7 @ @ # # @ # # @ @   @ @ X X # @ # X = 7 # # # # @ # # @ # # # # # # # @ @ @ @ @ @ @ # O O O O   O O O @ O O O O O O O ",
"@ @ @ # # # # # # 7 = @ = 7 = 0 7 7 = 7 7 7 # # # # # @ # @ @ @ @ @ @ # # # # # # # # = # # @ # e , 0 = u K q O 0 e 0 7 k r y 0 0 7 = y u u q 7 = 0 y 0 @ @ # K y # u ` e f L e q f u = @ O 0 u _ K I L L | u e @.@.K 0 u u 7 e ) 0 @ e ) ' y 7 e 7 0 { K @ y e q _ K u ) ) _ @.q u ' f K q # e ' K e ' K y u K e ` q @ K ..u = 7 ' k 0 0 @ = K u k 0 O e ' K g u , = , 0 q e e 0 @ 7 f u f _ f @ @ @ 0 y 7 @ = 7 7 u K q # # = # 7 u q 0 = # = y e # e 0 e 0 @ q u f f u 7 O @ = @ 0 q @ = 0 = 7 = = # = 7 @ # # 7 * 0 = # 4 # @ 7 y e y y 0 7 7 # # X @ @ # = 7 7 0 0 0 # # # , 7 = = 0 0 7 0 0 7 = = = # # @ @ O O   O O X @ @ @ X @ @ @   @ ) =.# = = # = 0 7 = = = 0 = 0 0 e u q 0 q 0 y y q y y y = 0 0 , = 7 7 = # # = # @ # # # @ @ @ X   O       o 0 # # # 0 0 y   X y u 0 @   # = = 0 = , K e 0 0 = 0 0 y = O   < e r 0 f K @ u L q , s _ q = O 0 e ` f K  .s } I = e @.} L 0 _ u y q ) 0 O q ' ' 0 7 K = y { ..0 = K , u ' e 0 _ q ..' = K K ..q X X e +.u u L ) # K ` u _ O # K { u 0 # ` K 0 e = @ q u y q   = K f K s , o 0 # f u e e # @ @ 0 7 u K f # O O # e 0 # # 0 = y K q = @ # @ = 0 = # = 0 0 = 0 0 X q w e 0 X q e u f e 0 O   = = u , = = w # = # @ O = # # O @ = = # O O @ = # @ @ = = = = 0 0 0 0 y = 0 0 K ) u e y 0 q y 0 # # # # @ X # X X # # # # O O @   O @ X O @ X X X @ O O O @ X O ",
", , 0 = # = e 0 7 0 # # = # @ # = # # # # # # # @ # # @ # @ @ @ @ @ @ @ @ @ @ @ @ @ @ @   @ @ = y 0 e = u ) e @ 0 u 0 7 e 0 u 0 0 = 7 0 u u q 7 = 0 y q @ @ @ K e # e ` u K L u f K K , @   0 u K K } H K  .y q ..X.u 7 u K 0 u ) 0 @ e ' ' u # r 7 y @.` 7 e e y ' q u K K _ X.y e _ e ) 0 @ y .._ e _ K e u K e ' # @ K ..e # 0 _ u , 0 @ = k u e 0   w ' L K e , = w 0 0 u u 0 @ = q K u K K # @   7 y 7 @ 7 0 7 u K 0 # # = # 7 e 0 = # 0 = q y # 0 , e y # u u f K e =     @ # y e # 7 e q 7 # 7 # # # # # 7 0 = 0 # @ 7 = @ 7 e q y y e y y u e 0 q 0 7 7 0 0 0 7 7 = # @ o X   @ # @ @ # = # # 7 0 # = 7 7 = = 4 = @ = @ @ @ @ @ @ @ @ @ ) ` # 0 0 0 e e = 0 0 0 0 0 0 q e u q , 0 0 0 0 0 0 0 e = 0 e 0 0 e w e y y q 0 = y 0 e y q 0 = # = # = # # 0 # # @ e f y   X q k w , @ # q , 0 = = K u e 0 = 7 , 0 #     , K q 0 f K @ q ' s e L _ q # O 0 e K K L } s | L , e $.L g = ` K u e K #   0 _ ..e 7 K = q { ..0 = K , e _ q 0 K u ..} # K K ..q # @ e @.K e ' ) = f _ e ` 0 # u ' e , # ) K = 0 # @ 0 u y 0   @ H K K s , X 0 = u e y u = @ @ q 0 u K f #     # u 0 # @ 7 # 0 u e = @ # @ , e w , , # # = 0 0 @ u 0 f 0 O 0 u u f u 0     # = y 0 # # 0 @ # # @ @ # = # O @ @ @ # @ O @ # @ O @ 0 0 e y 0 y y 0 , = 0 u ) ) K u e e u e e 0 0 0 0 0 0 q 0 , 0 , y q 7 = 0 7 = 7 = # # @ @ @ O O O O X O O ",
"y 0 0 0 e u { ) u y 0 y e q = 7 7 # # # = # # # # = # @ # # @ # @ # # # # # # @ @ @ @ # @ # @ # 0 0 e = y k ) @ 0 e 0 # e q u q # # 7 = q e q 0 = 7 q 0 7 @ @ K e , u _ 0 K ' f K K K q # O , u K K I H s | e 0 @.#.u 7 u u 0 u K 0 O y _ ' u 7 y 7 y ..u = ) e e ' e K ) K ) | w y ) e { y @ 0 @._ e _ K e e K u ' 0 @ u @.u # , ` u 7 e # # K k y 7   0 ' f f e , # 0 7 7 y e = # # 0 k e K K 0 o O # e 0 @ # 0 # e L e # # = # = q q = = 0 # 0 y 7 = 0 e e # u u e f q =   O # # y y # q e y 7 7 7 # = = 7 # 7 7 7 y # # 0 # @ 7 e , 7 = = = 7 q e 0 q 0 0 7 0 0 7 0 7 0 0 0 y q 0 y 0 0 0 0 y 0 = 0 0 0 7 7 # = # # # @ # @ @ # @ @ @ @ @ e X.k @ # # # = = @ # 0 # # = # X @ # @ X @ O O O O X @ # X # # # # , = 0 w 0 q 0 = w , , , 0 , , , 0 = 0 = = w # , # u K 0   @ q y = u 0 = 0 = = = # f u u 0 = = 0 e # O O , L 0 , u ) , u ' s e H K e @   # e u K K | I  .I , u $.L f = ` u 0 e K =   0 K | w @ y = 7 ` { = , K 0 e K , 0 K K .._ # L _ ' 0 = @ u O.s e ' f = f _ q _ 0 O e ..u , # ) K 0 q = O y K 0 u     L K K s 0 X 0 # e e y q # O O 0 0 u K f , O O # e = @ # 7 @ 7 e u # # # # = 0 q = , # # # y q # k 0 u 0 X 0 u u u u =     # @ # , # @ , # = # @ O # # =   @ @ # = = @ @ @ @ O @ # # # # # = 0 # , = 0 0 e u y 0 y y e y y 7 = 0 , = 0 0 0 = @ # 0 , 7 7 y q 0 w 0 = @ @ X X O @ @ O @ # @ ",
"q 0 , 0 e u K u e e e e e e w 0 0 0 0 0 y 0 0 0 y e 0 0 0 w 0 y 0 7 7 # # # @ @ @ @ @ @ @ @ @ = 0 0 q = 0 u e # q y 0 # y q K w = # = = 0 e f y 0 y k y 0 @ @ u e q _ ' e K ' f f s K y # O = e K L I H I O.e 0 ..@.e 0 u K e K K 0 @ 0 L _ 0 7 0 = r ` k 0 K e f ' f K ) u ) | q q ` e ` e # 0 _ ' e ) f y e K e ' 0   u ..u 0 = ' u 0 K = 7 K f y y   0 L e f g 0 @ r 7 0 e u 0 @ @ = u k ) K 0 e 0 0 e 0 @ @ 0 4 e K u 7 @ # # = 0 0 = # 0 # 0 y 0 = = e u @ u u u K e 0 @ O @ @ 7 0 = 0 0 0 # # # 4 7 7 7 4 7 = 7 y = @ 7 # @ @ k u K 0 = = # # # 7 y 0 0 7 q 0 0 0 0 7 0 0 7 = = 7 # # # # 4 @ @ = = = @ @ @ @ @ # @ @ # @ @ # @ # @ @ @ @ | { 0 @ O O @ @ X O # @ @ = = @ = 7 # = = = # = # # # # @ @ @ O O O O @ @ O @ @ @ # @ # # # @ # @ # o = @ # y # 0 # f K y   # e 0 # e y 0 0 = # # = u e u = 7 7 = e = O   # I , # e ' 0 u L q q e u = o   0 u K K H T K  ._ , u @.K K # ) e = e K # X u ) ' w = y = 7 ` ) = = K , K K , u K K .._ # _ K K e = @ u ..u u ' K 0 u K w ` q   u ..u = # K K 0 q #   q ) 0 k     L K K s q o = = , q y e =   # e 0 u K K # O O # e = @ @ = @ 0 K f # @ @ # # 0 y 0 = # @ @ q y @ y = e 0 O , q u u u #     @ X # q #   = 7 # # @ @ @ # # O @ # @ @ = = @ @ @ O @ 7 0 0 0 4 = # O O   O   # # = = 0 0 0 # @ # = = = = 0 0 , = = = # # @ # @ X O O O O       O O O O O O     ",
"# # # # # 7 y 0 0 e u e y 0 0 0 0 0 0 0 0 0 # # 0 0 = 7 0 0 7 0 0 # # @ @ # @ # # # # # @ # @ # = 0 0 # 7 e ) = y w # # e y ` y # = 7 # 7 u _ u y k K 0 @ @ @ w y y ' _ u K _ e e u K 0 # O = u u I K L L } y y ' O.u 0 f f 0 K f 0 # u K _ u 7 r # 7 y 0 7 K e ) ' K K K u K ..e 0 ) q ) q # 7 _ ..u K e 0 q K e ' 0 @ u ..e 0 = _ u 0 u 7 = u u q q   0 f K s g 0 @ 0 , = 0 e 0 # @ # y u K K K ) w 0 e 0 # # r 0 u K r # @ = 0 0 0 y 0 7 0 # , 0 = # = e u X 0 q e K u y # X @ = , 0 = 7 u y = # # @ # # 9 # # # y r # # = @ @ O ) { ` 0 7 7 7 7 0 y u 0 7 0 e y e y 0 0 0 u 0 0 = 0 7 7 0 0 y 7 0 y 0 7 7 7 7 = 7 0 7 = 7 0 = 7 # # @ @   @ } { @ # # = = # # # 0 0 # = # @ # # O # # = # # # # @ @ @ @ @ @ @ # O O X O X @ O   O O O O O @ O O   X   @ y , q # u ) u   # e 0 @ e y y 0 = # = = e 0 u # # = = y = O   X u 0 # e ' e K ' q f K g = X   # q f L L T e } L = e #.K u # K e 0 u ) # O u ' ' 0 @ 0 # 7 ) ` = , u = ) K 0 K u K .._ # ) K K K # O u @.k e _ K 0 u g , _ # O u @.u # @ K K = 0 # O 0 ) 0 q     G K L s q # # 0 # 0 u u =   @ 0 u u K K # O O @ y = @ @ 0 # w K k # O @ # @ 7 e 0 # # # # 0 y @ 7 # e 0 @ 0 e e s e 0     X @ # u # @ = y # @ @ @ @ @ @ @ @ # # # = @ @ # @ O @ r y w 0 e y 0 r q = , # # # 7 = = # # # @             O     # # @ @ # = @ @ @ @ @ @ @ @ @ @ X O O O O O O ",
"0 7 # @ @ @ # # 7 7 0 7 # # # # = # # 7 0 # = 0 7 # # # # @ @ @ @   @ X   O O O @ @ @ @ X @   # = 0 q = 0 u { = y q # , u 0 K 0 # # # # # u _ y y e K y # @ @ 0 y y _ ' u f K e s u K 0 # O 0 u q L g K u _ q q '  .f = K K q ) f 0 @ e L ..K 7 r # 7 0 r 0 e y ) ' f K _ K K ..u = ) e ) 0 @ # ' ..u K e 0 q K u ..q   u { _ y = _ e 0 e 7 # u e 0 q   # e K g K q @ y 0 0 q e 0 # @ = y u K u ) ` y 0 u 7 # @ 0 0 e u 0 # @ 0 q 0 y y 0 0 0 # = y 0 @ , e e @ 0 q e u 0 0 #   O # 0 0 7 = y w # # 7 # # @ 7 4 7 = u y = 7 7 # @ O ) { ` 0 7 7 0 7 7 7 7 = 7 7 7 7 q y y # @ # # 7 # 0 7 = 0 0 y 7 7 = # # 7 7 = = 0 = 7 7 0 u 0 8 # # # = 7 # | k 0 q q w 0 = y u { ) u y 0 0 y q = # # # @ X @ X X o @ @ # O O @ O O O @ O @ @ X @ @ @ O O @ X @   @ O @ 0 , e # e K ) @ 4 u 0 X y q e e # @ # @ 0 0 u = = = # y , #   @ e 0 = u _ 0 K | e K K L 0 #   @ e u K s T e T u # e #._ e = K 0 0 u K # O e _ | u @ r = 0 ) K # K K , _ f w ) u K ' K # K u f K = O 0 X.f e K K 0 e K e ' , O u @.s # @ K K = 0 = @ 0 ` 0 u     q K K u u @ @ w # = y w # O @ , k e u K # O   O y = #   7 @ , K K = @ @ = @ # q 0 @ = = # 0 q # = # e e @ 0 e e e q 0     O X # u = = 0 u 7 @ @ @ @ @ @ # O = 7 = 0 @ @ = @ O @ 0 # # # 7 = 0 0 e 0 0 = 7 = 0 7 # = # = 7 = 0 , = = 0 0 7 = 0 0 7 = 0 = = 7 @ @ @ @ @ @ @ @ O @ @ X @ O @ ",
"0 e e 0 0 7 7 0 0 = = = # # @ # X X @ @ # @ # = # # = 7 # = 7 = 7 7 # # @ # @ @ @ @ @ @ X @ X # # 0 0 # # u ) 7 e y # = e y K 0 # # # # # u _ u e q e y = @ @ , y y ` ' f e f q s u u q @ O = u q K f s q K 0 0 ..| u = f K e K u 0 # 0 f #.u 7 0 4 7 8 r 0 y = K ' e e ) K ' @.e # k y K 0 O # K | e u u , q K q ' e O e ` ) 0 # _ e 0 y , # e e 0 y     u K H H q @ y e 0 e q 0 # # 7 7 u ) f K ` e y u 7 # @ 0 0 e e = 7 @ 0 0 7 0 y 0 0 7 # # 0 0 O # q y # 0 e q e , # X   @ @ = 0 0 = 0 0 7 # # = # @ 7 # = # y 0 # 4 7 # # O u q y # # 7 7 = # 7 7 0 y y e q 0 y 0 = = 7 0 7 # = = 7 7 = 7 7 4 # # = 0 0 = 0 ^ r 8 7 0 u = * @ # = # @ # f y 7 y 0 = = = e u ) K u u e u y e 0 0 0 0 0 0 0 0 0 0 0 y y 7 = 0 0 = 7 = @ # @ @ @ O O   O @ O @ O @ O # 0 , e # 0 u u # 0 e 0 @ 0 0 u e # # 7 @ = , u e , 0 y k y #   X u q 0 L _ q K | f K e K 7 @   @ 0 e L H I s  .f , e #._ e # ) e q k K # O 0 L _ e @ r # 0 ' ) = K u q ' K u ) u K ' K # K K K ) 7 O e ..K e K u 0 q K q ' 0 @ q ..K , @ L K , e 0 @ , _ , u X   0 K s s s # @ 0 # 7 q y = O O # y u ) ) , , # @ e 0 # O 7 # 0 e ) 0 # O # @ # 0 0 O # # @ # 0 = # # w e @ w e < s q = O   O O # w = = , 0 # @ @ @ @ 7 # = @ 7 @ = 0 @ @ = @ @ @ y e e # @ @ @ # # # 0 # = # 0 = = 7 = # = 0 = # # # # @ # @ @ @ @ O # # @ @ O O     @ O O     @ @ X O O X ",
"7 7 7 0 0 0 = 0 0 7 0 7 0 7 0 0 0 0 0 0 0 0 7 0 7 = 7 0 7 7 7 @ # @ # # @ # @ @ @ @ @ @ @ # @ 7 0 0 e # # e ) 4 e y # 7 0 e K 0 # = # # = e | u e e u 0 @ @ @ 0 e e { ' u q K q f q e q @ @ # e e K L L u K 0 0 ' | K = e ` u K e , # 0 u ..u 7 r 7 7 r y q 0 # K ..f e ) k K @.K # u u ) u X q _ | u e f w q K e ) e   0 K K 0 # _ u q q 0 @ e e 0 y   @ u K L K 0 O 0 w # 0 # 0 # # # # y ] u u _ y q u 0 @ # 0 0 u e = 7 @ 0 0 = 0 e 0 0 0 # # = 0 O = e e # = 0 0 0 # # @   @ @ 7 0 = 7 0 0 7 = = # # @ 7 # # # y 0 # 7 = @ = = y 0 0 7 7 0 0 = 7 7 7 7 7 4 = # # = 7 7 = 7 0 0 # # 7 7 4 = 7 7 = # 7 = 4 7 7 y r # @ O # # O @ @ @ X O O # u u # 7 # @ # # = 0 e y 0 y e u u y 0 , 7 0 0 0 0 0 = # # 0 , 7 0 y 0 0 y 0 # # @ @ @ @ # @ @ @ @ @   @ O # = , 0 # = y u # 0 y = @ e 0 K u # @ 7 @ # 0 L L 0 u k k # O   O e 0 y | ' e K _ u e e K y @   @ e e L s I s | f # 0 #.L e = ) e q ) K = @ q K _ e @ 0 @ = y r # u u u ' K K ` u u ` L # K K u K = O y @.K q K e , e K 0 } 0   e ..u 0 X K K , e 0 X 0 L , u @   q K s s s # @ q = = y e 0 X O @ q u k f u ) e , u 7 @ O 7 7 0 u u = @ O = # = 0 q @ # = # = 0 = @ # e e X , e q s u 0 @   O @ # = # # 0 u = @ @ @ @ # @ 7 O # @ 0 0 @ @ # O O O k { K = # # # # = q u 0 = = 0 0 y 0 7 = = u 0 = # = # # = 7 0 = @ 7 w , = # # @ @ # # @ @ @ # @ @ @ O O O ",
"# # = 0 0 = = 0 0 0 0 0 7 7 0 7 # # = # # # # # # @ # = # @ @ @ @ @ # @ @ @ @ @ # @ @ # O # O # 7 y e # @ e ) 7 y y # 0 0 y K q # # # # # u | u u u u q # @ @ y e e { ' f u K w K q K u # @ @ q e K L K q K 0 0 ' ..f # w K u e 0 0 @ 0 u ' y 4 y 7 7 y 0 0 y # u @.L u ) u K ..K # y K ` e   y _ | K y k e 0 u e u = O u ) ) 0 # K k 0 0 0 @ y e w q @ @ e L K K q @ 0 e 7 u 7 7 = # # @ y ) y k K e q f 0 @ @ 0 w k e = = O 0 e 0 0 e = 0 q # = 0 0 O # e u # # 0 0 = # # @ X   @ # 0 7 0 0 0 7 @ # # # @ 7 # 7 = y , # 9 0 # # 7 y y y y y y 8 = = # 7 0 = # # @ # @ @ # @ @ @ @ @ @ @ @ @ O @ @ @ O O O   O @ @ X O O O     O   O O O O O @ u ` 0 7 # = @   O   # # = 7 0 0 0 # # = = = = 0 0 , # 7 = = # # # @ X O O               O O O O O O       @ # 0 0 # = u { 7 y w # @ e , K e # @ # @ # 0 K K , e e k 7 O O O 0 0 y ` ' e u L q s e K e @   @ u 0 L s L s L K # q @.L q 0 ` e y K u , X 0 K ' u @ 0 @ # 0 0 = e 0 K ..K s _ k f _ _ # e u e u =   0 ' _ q K e , q K u | 0   = ' _ q o K f , y 7 O 0 ) = e @   0 f s s H # @ 0 # = y q 0 X . # 0 u K u k ' e # e 0 #   7 0 0 e e # @ @ 0 = , w y = 7 # @ # 0 = X # q e O = q 0 e e 0 #   O O = , = @ = e = @ @ @ @ @ @ # @ # # u 0 @ = # @ O   ^ @.` # = 7 = # # = 7 # = = 7 = 0 q q # @ = # # @ = = # = = 0 0 # # # @ @ # # # # 7 # # # = r 7 7 # @ @ @ ",
"7 = 0 0 q = 7 0 0 q q 0 7 7 y 0 = = = = = 0 0 0 7 = q 0 = # = 7 # 7 7 7 = = 0 7 7 # @ @   # O , e 0 0 # # y ) 7 e y # 0 q q K 0 # = # # # u ..k e u k 0 # @ @ q y 0 ` _ y 0 e , f e f u # X @ 0 u u K K q L y 0 _ ' u # 0 K u , q q @ 0 k ..e # 0 7 8 u 7 = e # e @.K , k k u ' f = u K o.K O q _ _ e w u u q e K e 7   0 ) ) 0 @ u K y # 0 O 0 e e 0 #   , K s s q @ 0 e = y # = = # # # 8 r r k K u q K , # # 0 e K u # 7 O q e = 0 y # = 0 @ = 0 0 X # 0 0 # # 0 0 # , , # @   @ # = 0 = 0 0 # @ # # # @ # # @ @ 0 0 # 0 0 # @ 7 0 # 7 @ 7 7 = # 7 7 7 7 7 7 0 0 0 7 0 0 8 0 0 0 7 7 0 7 7 7 7 7 = # 7 7 # = = @ @ @ @ @ @ @ @ @ @ @   @     q ` 7 0 y u e 0 7 = # = 7 = # # # @   O         O     # # @ O # = @ @ = @ @ @ @ @ O @ X O O O @ O O       @ # 0 0 # @ u ) # y e # # u 0 K 0 @ @ # @ @ 0 K ) q e , u 0 # O O 0 y y ' ..e e K q f e f y @   @ e , K s K q s u = f 9.L q = ) e e K e , O q e $.e = 0 # @ 0 y = y # u ..e 0 K K ) | _ 0 0 u 0 k 0   , ' ' e K e = 0 K q } 0   y _ K e @ K u , 0 7 O = u # y #   0 f s G K # @ e 0 = e 0 , @ @ = 7 y ) K K ' u , u = @ O 4 0 0 e 0 @ # X w = # 0 y = 0 # @ # 0 =   # 0 w   0 q 0 e 0 # X   O O # , 0 7 = 0 = @ @ @ @ O O # X # @ e 0 @ # # @ O O u u q @ @ # = # # = # = 0 0 0 0 = 0 0 # @ @ # # @ @ # # # # = # @ @ @ O # 7 7 @ 7 y 7 7 = 0 y = @ O O # # ",
"7 = # # = 7 = 7 7 0 q y = @ # # = # = 7 = 7 7 q 7 4 = # @ # # # # 0 # 7 4 0 u 0 7 # # = = 0 # y K 0 0 # # e ) 7 q q @ y y e K = @ # # # # e | K f K K 0 @ # # y e 7 K K y 0 e = f e u u # O @ 0 K u K u u L y 0 ' ..u 0 0 K u # 0 q @ 0 k ` u # 0 = 7 r 0 7 y # e ..K 0 u K e K K 0 K k { ) O 0 ' ' u y u u e y _ y #   , _ ) y @ u K u = 0 O = e e = @   0 H f s y @ 7 u 0 y 7 0 0 , # # @ = 7 u u e q K 7 # @ 0 e k e 0 0 # 0 0 = 0 y = = 0 @ = 0 0 # # , 0 @ # 0 0 # = = = #   @ # # 0 # 0 0 # @ # # @ @ @ # @ # y 0 # 0 7 # # 0 8 O # # # # # = 7 8 7 7 # @ @ # @ @ @ # @ @ @ @ @ # # @ # # # # # # y k 7 # # # = # @ @ @ # @ # # # @ @ @ O e { 0 # = 7 0 0 0 = 7 , 0 # # # = = = 0 , = = 0 0 0 = r y 7 # 0 , = 7 # @ @ @ @ @ @ @ X O X @ @ O @   @ O # = 0 0 @ @ e ` # y e # # e 0 L q # @ # @ @ 0 ' _ 0 u 0 e = O O O = y e { ' e q K q K q e 0 X   O 0 0 K K L e f u @ e @.K q # K K e K w = @ 0 e | e # 0 # # 0 y = 0 @ e ..K 0 k K u ' ' e 0 K u K #   u ..' q e u , 0 K q ) 0   0 K K 0 O K K , , 0 O 0 u , e #   # K G G s # O 0 0 = 0 # # @ @ @ @ 0 ) u u K e # k 7 @ O = , 0 e 0 @ # X 0 # # 0 e = 0 # @ # = #   # 0 y @ = 0 , , # X     O   @ , = # # w = @ @ @ @ O O 7 O # @ q = O # # O @ O = 0 # @ # 7 # @ # = # # = = = # @ # # # # # 0 7 # # # # # @ = 4 = @ @ @ # # 7 = r 0 @ @ O @ @ O O   O O O ",
"# # 7 # 7 0 0 q 0 = 0 0 # # 7 7 7 # # # = 7 # 7 # = # @ = 0 0 = 0 u 0 7 = 7 0 @ @ @ @ # @ @ @ e ) q 0 @ # q ) 7 e e # u y y k e , # # # # e } K u f K q # 7 # q u 7 8 u q 0 e # K e u K 7 O O 0 K k f e K } e e ' ' u # 0 L u # y 0 @ 0 e ' e # y 7 7 7 8 # y # e ` _ q u K 0 ) _ e w u { ) @ # ` ..u 0 e e e e ) y = O , ) K y @ y e 0 = 0 O # e y = # O 0 H K e w , 0 e 0 y 0 7 0 0 # @ @ O @ 7 = 0 e K 0 # @ 0 e u y y 0 # # 0 0 q u 0 0 q @ = , 0 # @ = 0 @ = 0 , @ = = = # O @ @ # 7 # y 0 = @ @ 7 7 # # # @ # e 0 # 7 # # # 0 8 @ 7 7 7 7 7 7 7 7 7 7 0 y q y r 0 7 7 0 0 q q , 7 = = , 7 = = # @ = 0 # # # # = = = = # = = = 7 # = = = # e [ @ @ @ @ = 7 0 # = = 0 7 7 7 = # , 7 # # @ # # # @ @ @ @ O # # @ @   O O   @ O O O   @ @ X @ O O   O O @ 7 0 0 @ @ y ` # y y @ # 0 7 ) e # @ # @ @ 0 _ _ q K w e = O O @ y y u @.' u e K 0 f 0 u e # O O 0 q K L _ e f u # e @.K 0 o f K e e 0 = O e K ..q # y # @ 0 r = e # y @._ e u u u _ ' e = u K ` q   e ..| e e u 0 0 f e k #   e ) ) q O K k 0 # q O = e 0 0 #   # f H g g # O 0 0 # q @ = # @ @ O y ) y u K u # K 0 #   # 0 y u 0 X @ X e 7 4 0 q # 0 = O = , =   # w u # @ , 0 # @ O   O     X = = = = q # O @ @ @ X @ 7 O # @ y = O 7 = @ @ = q y r 8 8 r = @ @ * 7 7 @ @ O O O O O @ @ @ @ @   O @ O   O O O     O   O   O @ @                         ",
"7 = 7 = 7 7 = # # @ # # # = # 7 7 # # # # # = = 7 # # # @ # # = 7 0 @   O @ @ O O O O   O     0 K , = @ @ r ` 0 y q # u y 0 _ ) u y 0 7 @ q L f q u u 0 # # O 0 y 7 @ e 0 q e # K , 0 e # O # 0 e e f e e ' q q K K u = y _ u @ q 0 @ 0 y ` e @ 0 4 # 0 r = e @ e ..K 0 u K e ` ' e 0 k ` ^ @ 0 K ..u 0 e e 0 y K q # O = K K y @ y w # = 0 @ # q e # #   , K K e u 0 0 0 q u 7 = 0 0 # @ # @ @ O @ 0 e e 0 # @ 7 e u q 0 7 @ # w e u _ 0 = y # # # = = # 0 y # = , = # , 7 = # @ @ @ = 7 # = 7 # @ @ # # @ # # @ # y y = = @ @ # 0 r = 0 7 7 7 7 # 9 0 0 0 7 7 7 7 = # @ O # # = = # @ # = 0 7 4 0 = = , , # , , = = = 0 @ O O O O @   @ @   @ u [ 7 # = # 0 y y # = 0 0 w 0 0 , = y e = # = 7 # = 0 7 7 # = w 0 7 # = # # 7 7 @ # # = # = @ @ O O   O   = 0 0 0 @ @ e ) # y y @ 0 y 0 K q @ @ # @ @ = K ' q K u u = @ O @ e y y o.) y q e , K q K e @     0 u u f K q K f # e @.K q o e K e # q 0   0 f ' u @ 7 @ 7 u 7 @ e # 0 ' I w e K u K _ , = f ) @.@   e ' L e e e u , e u 0 =   0 ) ) 0 O e K e # w   # w q 0 =   # s s u s # O q 0 # q @ = # @ @ @ 7 y 0 u K u = K 0 # O # q u u 7 X @ @ u , # 0 0 @ , =   = , =   # 0 q @ @ , 0 @ # # # .   O X # = 7 # 0 # O @ @ @ O O @ O @ @ r = @ 0 7 @ O # 0 # # 7 = 7 @ @ # # 7 7 @ # # = = # # # = # # # # @ # @ @ @ @ @ @ O O @ @ O @ O O     O                   ",
"# # # = 7 = @ @ @ @ @ @ @ # @ @ @ @ @ @ @ @ O O @ @ O   O O O @ @   O   O O             O     = ) 0 = # # q K 0 y 0 @ u w 0 ) _ K 0 , 7 O , K f 0 e 7 7 @ @ @ = y = @ y e q q , K , 0 e = O @ 0 e e ) u e ' 0 q K K u = q _ f @ 0 y @ = e ' u # r 4 7 u u 0 e # u @.K 0 y ) y _ ' 0 7 u _ u @ # K @.K w e e 0 e K 0 # O 0 ) ) y @ 0 0 , # 0 @ # 0 e # @ O = K K e e e q 0 y u 7 # 0 0 = 7 0 7 # @ @ 0 e e e , @ # e u e 7 = # # 0 0 e ` q 0 0 @ # = = 7 O # q # = 0 0 @ 0 7 7 # # @ @ # 0 @ = = # @ # 7 # @ # # @ @ 0 q # # @ @ @ 0 y = 7 # = 7 7 7 0 0 0 y 0 = 7 0 0 y e e e u u K k q y y e f u K u u u e e e e e u e w 0 7 0 0 0 7 # 4 # # = k o.y # 7 @ # # # = = = = 0 0 y = @ # # # @ # , # = = q 0 4 # # @ O # # @ # 7 # # @ 7 y 0 7 @ @ @ # # 7 @ e K , 0 o # e ) 4 y q O 0 e 0 ) 0 X @ # @ # = K ' q K e k = O X @ e 0 7 ` K 0 0 e # K q u u #     = u e K K 0 g K # e @.e y @ e K q # e ,   0 K _ u # 0 @ 7 0 r @ y # 7 _ | 0 y ) u u L 0 e K K @.@   0 { L w y e f , e K 0 #   0 K _ y X q K u # 0   @ 0 u , =   X q s e s ,   0 0 # y @ = = # @ @ @ @ 7 u k u # K = # O # y u u 0 # # @ y = # 0 0 X 7 =   # , ,   X = = O @ 0 , X # # # X     @ @ = # # 0 # O O @ @ O O @ O O @ y = @ = = @ O = @ O O @ @ O @ @ 7 7 @ @ @ @ @ # # @ @ @ @ @ @ @ @ @ # @ @ = @ # # @ # e 0 @ @ @ @ @ O @ O O O O X O O O O ",
"@ = 0 7 = 7 = 0 0 0 7 = 0 0 0 8 8 7 7 7 7 7 7 7 = = # 7 7 # # # @ @ @ @ @ @ @ @ @ @ @ @   @ O 7 ) 0 0 # @ 0 ) 0 y 0 # e 0 0 K L f 0 0 = @ 0 K f , u 0 0 = @ O # y 0 @ 0 u e e , e , 0 e 7 O @ 0 u 0 u e 0 _ 0 e u u e = 0 L u # y e @ 0 e ' u @ 0 # 7 ^ k r u = y ' K 0 7 ) e _ ` q 0 K ' u @ # K | K u e y 0 0 K 0 #   = K ) u = q e e # y # # 0 y # # O # L s u e e 0 , y u 7 # q y 7 0 q 0 0 = # q e e e 0 @ # u e 0 0 7 7 # 0 q u ` e 0 y = 7 0 , y @ # w # # , 0 @ , = 7 # @ @ @ @ = @ 0 7 # @ @ = = @ # # @ @ 7 # @ # # # # 7 y r y 0 q y y u 0 0 u K K K K ) ) _ ' ' _ ' ) _ u 0 0 7 0 0 = 0 0 y K K u u f k w 0 7 7 0 y y u 7 @ = 7 7 0 ) =.@ # @ @ # # # 0 0 y q = 0 q = @ @ # = # @ # # = @ = @ # @ @ O # 7 0 @ 7 u 7 = = 7 y @ @ O @ o @ O # @ y ) 0 = X @ y ` = y y @ y y 0 K 0 # @ # @ @ # u ' e L f k = @ = # e e # e f 0 0 e # K u u K #     # K e s s e I K 0 ) @.K e X e K 0 @ e = X e u ' y # r # @ = 8 O r # 7 ) ' q q ) y e ' e 0 e u @.@   0 { _ 0 0 0 u 0 u K 0 #   = K K 0 X 0 e w # 0 X X , e # #   # s g s q < X 0 y 0 e # = 0 = X O O O @ 7 7 0 0 K 0 #   # y e y 0 0 = O = 7 = y e # 0 = O # # 7 X   # , O # , < @ # # # X   O O @ # @ # y = @ O @ = O X @ X   @ u = O = # @ # 0 # @ @ @ @ @ @ @ # @ @ = = = # # 7 # @ O # # # # @ # @ @ @ = @ @ @ @ @ 0 0 @ @ @ @ # @ # @ @ # @ @ @ @ @ @ ",
"# # = # # @ @ O @ @ O   @ O O O X O @ @ @ @ # @ # # # 0 u 0 # # # # # @ @ @ @ @ # @ @ @ @ # O 7 K 0 0 # # 0 ) 0 u y # e , , K L f 0 # # @ 7 K K 0 K y 0 0 # @ = u y @ 0 u u e < u , 0 u = O @ = e e u u y K 0 u K u u 0 e _ k # u e O 0 e ' u @ 0 # @ y k 0 u # u _ _ 0 = K e ) ` 0 = u _ u # @ K _ e e e 0 , , K w =   # K K e , 0 e y = e # # e e # @ O , K u 0 e e 0 0 0 y 7 @ 0 y 7 0 0 0 0 7 # q e e e , @ # e 0 , 0 = 7 @ = 0 e ) u 7 y = = # , y @ @ 0 # # , 0 # = , 0 # @ O @ @ # # = # # @ @ # @ @ # # @ # y 7 # @ # # # 0 y e u u u k y y 7 7 y y q y y y e u u u e e y y 0 7 7 # # # @ @ @ , e e 0 7 0 e 7 @ # # # = # 7 @ @ @ 7 7 7 u =.= 8 = = = @ # = # # # @ # # = # # 7 0 # # # # # # = 7 7 @ @ @ # * = = y 0 @ O O @ @   O O O       O # q K , = @ @ r ` 0 y 0 @ u y 7 ) K e , = # @ # H ' 0 e e y = @ @ X 0 r # # e 0 0 e # K < 0 e # O   = u w k f q L K , K L k 0 @ u _ , @ e = @ 0 e ' q @ 7 @ @ 7 r X y @ 0 K _ 0 0 ) e u @.u # e k ..@   e ' ' 0 0 0 e = e K 0 @   # K K q X 0 w =   0 X @ # u o @   # s G s q q = = q y e # # 0 = X O     O O O , , u = #   # y e e 0 0 @ O # 0 q u f @ 0 ,   # # = @ O # 0 @ # , # O # # = o O O   @ # # # = # @ O @ # O O @ O O @ u 0 @ # O O @ 0 @ # 7 7 4 7 7 # 7 7 7 7 7 0 0 7 7 = @ @ = = 0 0 # # # # # = @ @ @ @ @ o @   X X @ # # = @         X   @ o ",
"7 = 7 7 7 0 y y y y 0 = = 7 0 y q 0 = = # , 7 # # # @ # # @ @ # @ # # = # # # # = = # # # = X 7 _ 0 0 # @ 0 k y u q @ e = , K L K 0 # # @ # K K , u 0 7 # # @ = u 0 # y u e e 0 s e e u 7 X @ 0 K f u q y _ 0 u f u u e f _ u # u y @ y e ' y @ 0 = = y ) 0 y = u _ _ 0 7 ) u K ) e # e _ u O = K } f e e 0 0 0 K e , X # K K 0 = # 0 0 = q # # e K , @   @ u e 0 e e 0 0 0 y 7 @ 7 e 7 0 0 0 q = = w w 0 y , @ # y q 0 q 7 0 # 0 e e ) u = 0 7 = # , y @ X , # = , 0 # = 0 7 @ @ X @ @ @ # = 7 # @ @ @ @ @ # = # = y 7 # @ = @ # 0 u 0 y 0 = 0 = = # 7 7 # = = = # = 4 @ = 7 = y e e y 7 = 0 7 = = 7 # 0 0 = = 0 q 4 # = = @ # @ # @ @ # # @ @ ) ;.= 7 @ @ @ @ 7 7 @ @ @ O O O @ @ O @ @ O O O O O O     O O O O     O O @ O                           X 0 K # = @ O r ) 7 e 0 X e q = K _ K q < = X # s ' 0 q 0 = @ X O O 7 0 @ @ e e , e = G , , q #   O = e 0 u K y _ f # u K K q # f ' , O e 7   = e ..q # 0 @ # y u = e # 0 @._ q 0 ) u u @.e @ q K { @   y ' } q q q e , u K 7 @   = K K y X = 0 = O 0 @ @ # e # @   X u G s 0 e < , , y y @ # 0 0 @ # # @ o   O = 0 e , ,   @ 0 u e = # @   # 0 0 u ) # 0 ,   @ # = #   # 0 @ # = = O = = @ @ O O   @ = @ @ = O O @ @ = O X @ @ X @ 0 0 # @ @ @ @ 0 6 7 @ @ @ # @ @ 7 0 0 7 = @ @ # # @ = 0 7 , = 0 0 = = 0 = e 0 w y w q q , 0 , , 0 0 , = # X @ @ @ @   @ O ",
"# # 0 0 0 7 # # # # # @ @ @ # # # # @ @ # = , # , = = , , # , , , , = = @   @ @ @   O @ O O O # ) q , @ @ 0 u y e 0 @ e # , K L f 0 = # @ @ u K 0 K u = # @ O # e 0 @ 0 e e e q s K e f = @ @ = K K e e e ' u u u K e e s _ e # y y   q e ) e @ 8 # = y { y q = 0 L _ q 0 K u K _ y # u _ e @ 0 K | K e u 0 , 0 f y 0 @ # e K 0 = 7 q u w 0 # # w K 0 # O # ` e 0 y e 0 0 0 0 7 @ # 0 7 = 0 7 0 # # = 0 0 y 0 @ # y y 0 q 0 y 7 0 e e ) u 7 0 = # # , e @ @ 0 # = , , = = , = @ @ X @ @ @ # # # @ @ @ @ @ @ # = # = 0 = @ # # # # 0 u 0 0 0 0 y e u u ) u 0 0 7 0 7 r e y y e y K K K u 0 7 0 7 = = = # 0 0 e e u 0 # # = 7 # # # 7 # # # # @ @ ` A.7 @ O # 7 = 7 # # 7 7 = # # 7 7 = = = = @ # # # @ @ @ @ @ O @ @ O @ @ O O     O         O O   O   O   y K , , @ @ y ) 7 e 0 X e 0 # K L K w # = O o q ' 0 e e 7 = # O   = y # X 0 u 0 q # s , , e =   O = k q u u , K s 7 K f u 0 X u _ < @ e 0   = e { y # 0 O 7 ) u 7 u = 7 ) L e @ u u u X.u # y ) ` 0   q ' ' e e q e # q K = O   # K K e # 7 q 0 @ 0 # @ # e o o     e K e q e 0 , = y e @ @ 0 0 # 0 0 , , # O 0 u q e 0 @   0 e q , = # @ @ 0 0 e _ , 0 0 O # # , 0   @ 0 @ @ # = O = = # @ O   O O # @ # 7 @ O X # = O O @ @ O O 7 # # @ @ O @ 0 7 7 = @ 7 0 0 q = = q u e e e u f K K K _ ' _ ' K y 0 y 7 e q y e y u K K q e e u w 0 = = 0 u e u 7 @ 7 7 ",
"0 0 7 7 0 q 0 0 0 0 w u e u u u K f y y e q K e k u u u u e e e e u e 0 0 0 y q y 0 # 0 = = # 0 ) e 0 @ # y y y e 0 @ u = < K L f e # # @ # u K , u y = @ @ @ # y 0 @ 7 y u e q u K s f , # @ 0 K ) e y q ..e e u K u e s L 0 # 0 y   0 q K e @ 7 @ 7 0 @.K 0 # e K _ q 7 K e k _ e 7 e K K # = K ' u 0 u 0 , 0 e y 0 @ @ u K 0 # = q u 0 7 # @ 0 K q #   @ y , # 7 0 0 0 7 7 # @ # = 0 # 0 7 0 # # # = y e 0 @ @ y e 0 r 0 0 # 7 q e K e # w = # # , e @ O 0 @ # 0 = # 0 0 = @ @   @ @ # = = # # @ @ @ @ @ @ # # = 0 # # @ # = = 7 ) k u e K _ ` ) ) ` u 7 7 7 0 q e u u u u 0 0 0 7 0 0 = = 7 = = # @ # # 7 0 0 # # # = = # # # = # 7 = 7 0 0 ) ;.# O @ @ = # @ @ @ @ @ # @ @ @ @ @ @ @ @ O @ @ @ # @ @ # @ # e y # @ @ @ @ @ O @ O O O @ @ @ O @ O O   0 K # , X O 0 ) 0 u y @ e 0 # f L K w # # O @ w ' 0 0 u = 0 = O O 7 u 7 @ 0 K e q , e # 0 e 0   O # e e e u 0 K u q ) e e e # K _ 0 # K = O 0 u @.q @ 7 O = u k 7 u # = _ _ e X u u u ..u # e K _ @   # ' L q e < q # , K , #   @ u ) e = = 0 e = 0 # X = u # X     e K q 0 e , = # y y # @ 0 0 # 0 0 , 0 # @ , u 0 q ,   O 0 q , = = # @ @ 0 0 u ` 0 0 0 @ # # = 0 O @ 0 @ @ # =   # # # @ O   O X @ @ @ = @ O O O # O O @ @ O @ 0 @ O O @ @ @ 7 q u k e u u e e # 0 u k e u u u u u f K K u u u w # # @ @ @ O @ @ @ 0 u e , 0 0 w # @ @ @ # # = = @ O O @ ",
"u y 7 y ) k K K K K K _ ` _ ) ) K e , 7 # # 7 = 7 = 0 u K e e e e 0 # = = 0 0 0 r = @ @ = 0 0 0 K 0 # # = u u y k y @ y = 0 K H g e , # @ # u K 0 0 7 @ @ @ O # y 0 @ 0 u u q q e G s e 0 @ O 7 u K y = < L 0 e u K K e s L e 7 y 0   # y K e 7 8 # = 0 ) ` 9 @ e K ..0 = K u K K y 0 0 K ) , # K ' e 0 q = = 0 y w 0 # O e K e 0 = 0 e q # O O , K e #   @ 7 # @ # 0 0 0 7 = # @ = 0 0 # 7 7 0 # # @ @ 0 y 0 @ @ q u y e 0 7 @ 0 e f K y # 0 = # # , w # @ 0 # # , = # , , = @ @   @ @ @ # = = = @ @ # @ @ @ # # # 7 7 # @ 7 = 7 # K K K K ` _ ` e u u r # 7 0 0 u u e y 7 0 # # # @ # 7 @ @ @ @ 7 # = @ = 7 7 7 # 7 = # @ # = = 7 # 0 # # 7 7 u q.7 # = * 7 # 7 7 0 7 = 7 # X @ @ = , , # # # @ @ = # @ @ @ @ 0 , X @ @ @ # @ # # # # @ # # # # = o #   0 ) = , @ O r k 0 u q O y = # g L K w # #   O 0 | w 0 e = = = O X 7 u = # q K q q , s , 0 e 0   O # e f u u 0 K e 0 K u u u 0 L L 0 = ) #   y e ..0 @ 8 @ @ 0 ) 7 y # # ) ' e X K u k ` u X , f ` @   # ' L q u 0 , = , K 0 =   X K K 0 # @ = q # , # X , K = X   O q u 0 , e q 0 # 7 0 # O = 0 # = , = 0 # # 0 e 0 q , X O 0 q , , # = @ @ 0 0 e ` 0 = 7 @ # # = , O   = X # , = X # = = @ O     X X @ # = @ @ O O O O O # @ O # y # @ X @ @ @ 0 0 0 y 0 0 0 = = @ # # # @ # # # = # = 7 , # = 0 0 0 # # # @ @ @ @ @ = , # @ @ = 0 # @ # O O O @ @ O O @ # ",
"0 7 # = = = = 0 0 0 y q y y 0 0 0 0 0 4 # # # @ @ # # 0 q = # = q 0 # = # # @ # # @ O @ 7 = # 7 u = = , 0 y y q y 0 # y 7 0 u f e 0 7 @ # # , u 0 0 0 0 , 0 # = y r 7 7 e q , 0 q K s q e # # 0 q f u w y e 0 y e e K u e K q = 0 0 0 e y u y # 0 # # 0 k u @ # u e K q 0 e y K K , e f K K u # K K 0 u = # e e 0 y 7 # = q 0 0 0 0 y e 0 = = 7 0 u 0 # # e e 0 = 7 y 0 0 # O 7 # # 7 0 q 0 7 7 = 7 7 7 = 0 0 # @ 0 0 # 7 7 @ # e 7 y y 0 4 0 7 # @ 0 = @ = e 0 # = 7 # # = 4 = # # 7 = 7 @ # = # 7 # # # # , y 0 7 = e y # # 0 e , _ _ _ K _ ) _ K _ u 0 7 0 0 0 e y y y 0 e = 7 7 7 7 7 # # @ # r y 0 7 0 e y e q r 0 7 # = 7 = 0 7 y 0 0 = , ) I.O @ @ @ r 0 7 7 7 7 7 0 7 @ @ @ = # , , @ @ # # , # @ # # # # # @ o @ @ # # = X O O   O O   O O   X   q K = # X @ y u r u 0   e 7 # g L K w # # O O 0 } w e f 0 @   O O = u # # 0 e q q q s s e f 0 O O = f K q e , K u e K u u u q I K 0 # u =   u e ' 0 @ 8 @ @ q ` 0 0 # = K ' e X K u u _ u @ 0 K ` q   , ' I e u 0 0 = , K 0 =   X e f 0 = # 0 e , , # @ , K 0 #     e k 0 , e 0 = = = 0 # O # 0 # = = # 0 @ @ # , 0 0 = X O 0 e , 0 7 0 7 @ y e e ) 0 # = @ @ @ = 0 O   , X # , # # # # = O O     O X @ # # @ X O O O O O @ # @ = 0 # O @ # @ @ 0 7 = 7 @ = # # = 0 e 0 # = = = @ # 7 # = = = e K e u 0 = 7 = # # # @ # , 7 0 0 e = @ @ # @ @ @ @ @ O @ @ @ ",
"= = 0 0 = = = 7 # # # @ # # # 0 e e y 7 = = 7 = # = # 0 0 7 = 0 0 # # # # # @ @ # @ @ # @ @ @ 7 y 7 y y q 0 = = # # = = 0 = = y 7 7 # # 0 O O , f 0 f _ K u q k e e y 0 7 @ @ 0 0 K u 0 e 0 e K e e e u K , 0 0 0 0 ) y 0 y y = # y K { y u 0 @ r 7 7 0 O O O 0 L e K u u q 0 K f % K K y u ' q K f 7 _ = 7 K K 0 e 0 0 u y = 7 y q e e = 0 0 0 y y # # 0 K e e 0 0 y 0 0 # O 0 = @ 7 0 y y 7 = 0 0 0 = # 0 0 # @ 0 0 = = 7 O @ 0 # 0 0 7 # 7 7 # @ y , @ 0 e = @ 7 7 = 7 # # # # # # # 7 @ # 0 = # # # # # # y w 0 # y y # @ # q 0 ) K u 0 0 0 0 0 e 0 7 0 7 0 r y 0 = = # y 0 0 r y 0 7 # # 7 0 u K k 0 y k u K K k 0 9 7 = # 7 7 7 0 0 0 0 # { I.@ # = 7 0 7 0 0 = @ # = # 0 = e e 0 q e 0 = 0 , y e e e e e q q 0 , q q q w , # # = , 0 # X # # @ #   w ` y , X @ y y q e 0   y = # K L K e = @ X O 0 _ q q K 0 @   O   # u # @ = u e q w s H s f = X O 0 k ` e e 0 _ K 0 u u K u 0 L K , @ u #   0 0 L 7 @ 7 O @ q @.K 0 # 0 K ' u @ K u e _ u # q u K , # 0 ' L 0 y y , # 0 u 0 =     e f 0 # # 0 u 0 # # O = u u #     = u = # 0 0 0 0 7 = # O @ = # # = # 0 @ X @ = w e 0 X O = u 0 0 0 0 = @ 0 e u ) 0 = 0 @ @ @ = 0   O = O # , # # , , = O O   O O @ @ # @ O O O O O O X @ # @ # = # @ O # @ # = q q y 0 f f ) _ ' ` q # = = 7 0 0 ) u u k y q y w 0 0 = # # # @ @ @ @ # 7 0 y 0 @ # @ = # @ @ @ # @ = # # ",
"K ) _ K 0 7 7 = = 7 e e e e y u u u e 0 0 7 7 # # # # = = y e e = # # = = @ # # 7 # # = # 7 # 7 y 7 y y q 0 7 = # # 0 # 0 # 7 q 7 7 7 = e # O , f 0 f _ ..e 7 u q e y 0 4 # @ 0 , f K 0 e q e u 0 0 y u ) , y e 0 y ` u 0 y y # = 0 ) @.u y y = y 0 7 u # @ O 0 ' e K u e q q K K q K K , e _ e K K 0 { 7 # K _ 0 e 0 7 u e 0 0 y 0 e u 0 q 0 y y 0 = # 0 K y y 7 7 y q y 4 O # @ @ 0 0 y q = = 0 0 7 7 7 0 0 # @ 0 0 # 4 0 @ # q 7 e e 0 7 0 7 # O 0 0 @ = u 0 # 7 7 = 7 # # # # = = # r # # 0 # # # # # # # 0 0 = # q e # @ # 0 = u q 0 = 0 0 u k u u u y 0 k K K u e e 0 e y u e u u y 7 = 7 u u u u 0 0 y e u u u 0 7 7 # # 7 7 # # # # @ @ =.A.7 y u q 4 q u K u u u K K _ _ _ ' ` _ K y 0 0 = y 0 0 y 0 u K K e k e u 0 0 = = 0 y y y = @ @ 7 # 0 # q K , # @ 7 k u y u 0   y = % K H K e = @   @ 0 K 0 0 q 7 @ X O   = u 4 @ 7 k e w , q K s s 0 @ O = q ` e 0 # H u = u e K f 0 I K 0 # e #   0 e K 0 # 7 @ = 0 o.` 7 O y K ' u X k u u L s # 0 q ..0 # , ' L , 0 0 = # , e 0 ,     e K 0 # # , e 0 #     @ e u #     # # O @ 7 0 7 = # # O O @ , = # = = 7 @ @ O @ 0 y 0 @ O = e 0 0 0 = @ # 0 e e K , = = O @ @ , w O   = O # , # # # , # O O     O X O # = @ @ X O O O O O @ @ # = # @ O # # # # u u f u K K K e u u 7 @ # # # q 0 0 # = 7 # @ @ @ @ # @ O O @ @ @ O O O @ @ # @ O # O @ O O @ @ @ @ = @ @ ",
"u u u u = # = = 0 q e q 0 q 7 # = = = 0 # @ # # # @ @ @ @ # = = @ @ # # # @ @ @ @ @ = = # 0 # 7 y # r q q q 7 = @ # 0 = 0 = 7 e 0 7 7 = f # O , K 0 f _ _ f 7 u y y e 0 # @ # 0 0 e f 0 e y u e 0 y e e ) 0 0 y y q ' k 0 y y # e e ) =.u y y # 0 7 # u # @ O 0 ' u f f u u e s L s K K 0 q ' u K K 7 _ = # k ' 0 u q 7 e e 0 7 0 q e K 0 0 q y y 7 # = 0 f q 0 7 7 y q y 0 @ # # @ 0 0 y y = # 0 0 0 7 , e e # @ , 0 # # q @ # u 0 y y q 0 q 7 # @ 0 0 @ 0 u , # 7 8 4 0 = = = @ # # # y # # 0 = # # # # # = y q 7 # 0 0 # @ = w 0 u y w 0 u q y 0 q e K u 0 e e 0 0 0 0 , < # # # 4 = = = # # = # # # @ @ # # = = 7 # # # # # # # 7 7 = # O # { =.k 0 y 0 # 0 y y q e e u u u K u u u e e = @ @ @ @ O O @ @ 0 e y = 0 0 0 # @ # @ # = # = X O O = @ = # 0 u # @ o = u u y u 0 @ y = , K L K e , @ X @ = f e = 7 # @ O     # e = @ = K e 0 q e L s q 0     @ 0 K e , , e y 0 K e K K q L f , # y # O 0 q K 0 # 7 @ @ 0 ) k @ O y u _ e @ u u e _ q # e e ` q = # _ K 0 e # = , 0 0 0 = @ O w e , , # 0 u 0 = @   # e e ,   @ , = # O = 0 7 7 @ @ @ O # 0 0 7 7 # 0 # # @ @ = 0 , X O 7 q 7 # 0 #   = 0 0 e e = # = @     , = O X , # @ = # @ # # # X @ O O X # @ @ = o @ @ @ @ X @ # 7 @ # # 0 = O @ = 0 # f K _ _ ' ' ` f ) u = @ 0 0 0 k k u u y y = @ @ @ # # @ O O O # 7 = = @ 7 7 0 0 = w = # O @ = # = = = # @ ",
") k K y # = 0 0 y u y y 0 0 = @ # @ # # @ @ @ @ # = # @ # 7 7 0 = 0 0 # @ @ = = = 7 = # @ # @ 4 r # e q 0 0 0 7 # # 0 = 7 = 0 y 7 7 7 0 K #   0 L 0 K _ _ K 0 e q u u 0 # # # 0 0 0 K 0 0 0 e 0 0 e y y K 0 0 e w 0 ` K e y y # u K ` =.u u y # = @ @ 0 = @ O 0 ..e u K u f s e f u K g 0 e ..e u K 0 ) # # u ' 0 u u 0 u e y 7 0 q e K q , q e e 0 @ # 0 u 0 0 7 = r y e 0 @ # # @ = 0 q q 0 7 7 7 0 7 0 e e 7 O = 0 = # e # # e 7 y e q 0 0 0 4 @ 0 0 @ , u , # 7 0 # 7 = # = @ # # # y # # 0 7 @ @ # # # # r y # # 0 y # # = 0 , 0 # 7 7 0 7 7 # @ @ = = # 7 0 = , 0 0 = , # # # # # = # @ # # # # # # # , 7 0 q 0 # # # @ # # 7 7 7 4 7 # e ) *.7 @ # # # = @ @ @ # @ # # @ # 7 # = 0 0 y 7 # # # @ @ @ @ # 0 = @ @ = , # @ @ O O O @ @ O @ @ #   @ X 7 r # 0 0 0 0 = = # # # 7 = % 0 e 0 = # @ = @ O = e , e u L K = 0 y e y 0 7 7 @ X 0 0 K u , e , q e y u u y K 0 = , y # u u 0 u y 7 # = u ) ) 0 u = O 8 * = 0 @ @   # K , e e 0 0 , u _ , q I u q K u < _ y 0 f O 8 u u , e # 0 y y # # 0 0 w e # # 0 # e 0 = @ @ u u y 0 @ 0 0 0 =     0 X @ 7 0 y q # # = = , = @ = = @ O # = # @ 0 @   , = = 0 7 # # # = O @ w # O 0 e = O = 7 # # @ @ @ @ X # @ 7 @ O = # @ # @ # @ @ = u , = # e 0 O O # y 7 ) _ f e y e y y u 0 = 7 0 # = 0 = # = @ 0 7 # = = = @ @ @ @ @ 0 y q 0 # y y 0 e q , # # @ # @ # = 7 u y 0 ",
"q e e 0 7 7 0 = r y 0 q 7 0 0 # # = 7 # @ @ # # 0 y 0 7 7 y q y q 0 = = # = = # 7 0 y y 0 y 0 y y # q q 0 q 0 7 # # 0 # 7 7 0 q 7 7 7 0 K =   q _ 0 K K u e 7 q y u K 0 = # # = 0 0 I u y 0 u u 0 0 e y ) q 0 e y 0 K f u y 0 O e K ) :.) u y # = @ @ 7 @ @ O 7 ' e K K u q e e e s u u = e ..e u K e K # # q ' e K u = e u y 7 0 0 k ) e , u e e 0 @ # 7 u 0 q = 0 e y y 0 O # 0 @ 7 0 r y 0 7 0 0 0 7 0 e q # @ 0 e , # e # # u 0 y e q 0 7 0 7 @ 0 0 @ = u 7 # 7 e 7 # = # 7 @ @ # # y # # y 0 O @ 7 = @ # y e @ # 0 r = 0 = 0 = u q e y 7 7 0 e w q u u y e u e u f K K K K K L K e u e u k e y 0 q 0 0 y y e e 0 0 7 7 7 7 @ = 7 # @ @ @ # ) q.0 q u e f u 7 7 = 7 # # 0 7 7 0 , y k K k y 7 7 7 # # # # # 0 = 0 0 e = @ @ # @ @ @ @ # @ @ @ @ O @ O 7 r = e q 0 0 = # X @ , # , # # q 7 7 = O 0 @   , s q u K ..K 0 y u 0 e 0 7 # @ O 0 = K u = e 0 u f 0 , e q ) 0 , 0 e # f k 0 0 0 = @ @ u ' ` 7 u 7 @ r 7 7 0 O     0 ' e f s e q , u _ , e L q , L K 0 _ 0 y _ @ 0 ) K % e = 0 u q # = y 0 q e , , 0 # y 7 # @ @ e e w 0 @ 0 0 0 7 X   = O @ = 0 q 0 # # 0 = = # # = 0 @   # , # @ 0 @   7 = 7 0 0 # # = = X   w # O , q # @ = = @ = @ @ @ O @ = O = @ O = # @ @ @ @ X O # 0 = # @ y 0 O O @ , = q y 7 # = 0 e e y 0 , # = e u e q 0 0 # 0 0 y y e y 7 = @ 7 0 u k K u = y k k K K u 7 7 # # @ 7 = @ @ # # ",
"e e 0 0 7 = 0 0 y 0 = = # 0 0 0 q y 0 7 = # 7 0 u u k q 0 k u k K k 0 7 7 = # 7 7 # 7 = # = # 7 u 4 e y 0 q 0 0 @ # 0 = 0 7 0 y 0 7 7 = f #   , _ 0 K _ ) u # y e u _ e 0 = @ 0 0 0 I u y 0 u u 0 0 u y K 0 0 q y 0 u K u e y @ f ) K @.u 0 q = 7 @ 7 y = @ O 7 _ e f K e e f q e s , g 0 e ..f f _ u ) 0 # e ' u K f 0 u K u 7 0 q f K 0 # e y y y @ # 0 k 0 q 7 0 e q q q @ , e # # 0 y y 0 7 0 0 7 # = e 0 # @ 0 e 7 # 0 @ @ e 0 y y r 0 7 0 7 @ 0 0 @ = k 7 # 0 y # # 0 0 q @ @ # # y # # 0 7 @ # y 0 = # q e @ @ # 0 # y 7 = # u e e 0 y y q q 0 0 u K u u k e u u u e q u 0 0 e u u u e e 0 = 0 q 0 0 0 = = 0 7 0 7 7 7 = = = = = @ # @ 0 K q.k ) ) ) _ k 7 # # = , 0 k K u u e 0 0 0 0 0 7 # # # @ @ @ @ @ = 0 0 0 @ @ @ # # @ @ @ # @ = # # # = @ 7 r # e q 0 0 = #   @ 0 # , # = y 7 = 7 @ e =   , s 0 q L ..K , 0 u y u y = @ O @ q = s f , e q u u 0 0 e 0 ` 0 , y e = ) K q 7 y 7 # 0 e ..' 0 e 0 # y = # r @     = s q e s e e 0 e L u f L q , L K e _ y y K @ 7 K K , e # # u r 7 = 0 q y u 0 0 y 0 e 0 # # # y e 0 7 @ 7 q q 0 @ O # O O = 0 0 0 # # 7 7 = # = 0 y # O # , # O 0 # O 0 = 0 y 0 , , 0 = X   0 # O 0 e = @ # # @ = # @ # O @ = O 7 = O = = @ X @ # @   = 0 # @ # y 0 @ O # 0 = < q , q y 0 e e u K K e 0 u u q 0 0 q < q , 0 0 q 0 , 7 = = 7 y , 0 = X # = , = 0 7 @ # @ @ @ @ # @ @ @ @ ",
"e e u K u q y f e e 0 q 0 q 0 y e e y 0 7 7 = w e y r 7 # 0 0 y q q 7 7 = @ # # # # # # @ # O 7 k 7 e q q y 0 = @ # 0 = 0 7 0 0 y y 0 # e # O 0 _ 0 _ ' _ u # u e f K 0 q = @ , q q _ s q 0 u ) e e u e K e e 0 0 = y K u u r @ K { k { u e u = 7 @ 7 y = @ O 7 _ K K K u u K e u K 0 L 0 0 ' K u L f ) 0 @ u _ u K K , 0 f u 0 0 q u K 0 0 u e y e # # 0 e 0 y 0 7 y 0 0 0 # # e 0 # y e q 7 # 0 7 7 7 # e y # # e K 0 # q @ @ 0 = e e 0 0 7 0 0 @ q y # 7 K 0 7 0 e 7 # = = 7 X @ # # y # # y 0 # # 0 0 7 # 0 u = # 7 e 0 e 0 0 7 u s _ K ` ) ) _ K ) K f K K u u f K ) ' ' | _ L K K K f f K e 0 y q 7 r y 0 0 0 7 = # @ # = 7 # # # # = @ @ K q.K _ f e f y @ @ = = 0 e 0 0 = 7 # O @ @ @ # # O @ @ @ # @ @ O @ # # # O = @ @ O @ @ @ @ @ = @ @ @ # X 7 8 # y 0 0 0 = #   @ 0 # = # = q 7 = = # s <   # K e e L _ ' 0 0 e y u y = @ @ X q , q g , 0 0 e q , e e 0 ) q = y e = _ ) e = y 7 # K u { ' y u 7 @ = O @ y @ O O 7 _ e u K u f f u s e e I e = _ K 0 K e q u O = ) ) , k 0 0 u q 0 = 7 0 y K 0 = 0 0 y 0 # # = e w 0 0 # 0 0 0 q # O #     7 0 y 0 # # 7 7 7 = = e u # O # , # @ y #   0 0 0 q 0 , 7 0 = @   0 # O 0 e # @ = 7 # = # @ # O X # O 7 # O = = @ O @ # X   = e 7 @ # 0 0 @   @ 0 7 = # = 0 0 0 # # # = , # # 0 , # # @ # X X       O O O             O O O     O # # # @   O O O @ # # @ @ # ",
"= # = 0 0 # , 0 , , # = # # o @ @ @ @ # X O @ @ @ X @ @ @ @ @ # # 7 # @ @ @ @ # # = # 7 # 7 X 7 u 7 y y q q 0 , # # 0 7 0 = 0 q q y r # f # O q K , K L _ u # u e K K w 0 = O 0 e u ..f e 0 u ) u u K u K e u 0 7 = u K e q 0 # u ' K ' e 0 u 0 0 # 7 0 # @ O 0 ` f K K e u K u e } q } s = _ K e K f e y O y ` u K K 0 , e e 7 0 y e u 0 0 w q y e @ # 0 y # q 0 # q 0 0 y 0 q e y = u e y 0 7 q 7 7 0 # y e # @ q K e = 0 @ @ w 7 y y y 0 4 r 0 @ y e # 7 f , 7 = 0 = # 7 = 7 @ # , = y # # e , = @ = , 0 = 0 u 0 # 7 w 0 u y e 0 u 0 e q y 0 e u f e y e e u e e e u u e q w 0 0 , , , % = 0 0 0 7 7 = = # # = 0 7 # 7 @ # 7 # # # # # = @ @ ' S.e ) u K K 0 # = 0 0 u k u u y y 0 @ @ @ = @ @ O @ O # 0 = 7 @ 7 y w 0 0 w , # O # # = = 7 q = = # = = 0 0 # e 0 0 0 = = @ @ , # 7 = = 0 7 = # = s #   X K u u _ K ) 0 0 0 y f e = @ @ O 0 , 0 L 0 0 , e e 0 0 u 7 K e 0 e e = f _ u q 0 # @ e K ....u k 0 @ # O O = O O   = _ e u K u u e e 0 e q K < , _ K 0 K e e u O = ) ) , K y , e e 0 7 7 0 e K q # y y q 0 @   # y , 0 0 # 0 q 0 e # O @ # O = 0 0 0 = = = = = # # q e # O # q , O 0 4   0 0 0 y q , # 7 = @ O 0 = O , y = @ = q # # # @ = O O # O 7 #   0 7 @   @ # @ O # e = O @ 0 , @ # # 0 = % , 0 = # = = = # = , , # 0 0 , , 0 e q e s e u e , 0 , , 0 , , # # # = 0 0 0 y e 0 = # @ # # @ # # @ @ X ",
", = # = 0 # = 0 , , < 0 0 , , 0 0 0 # = # = = = # # # # # , 0 q q 0 7 4 # # # # = = # @ @ #   7 y 7 u e q y 0 0 # 7 0 7 0 = 0 y 0 y q @ K , O , K 0 L ' K e # u y u f 0 0 0 @ # 0 u K u e 0 e K 0 u ) K k e e 0 7 # y K u e 0 7 0 K ) ) y 0 u q 0 # 7 y # O O 0 ` f K K e e f e e | q I u # ) K u _ K e e @ u _ f K K u , y e 0 q e u g 0 0 0 q e u = # 7 u 0 u 0 0 y 0 0 y 0 y e y 7 y y q 0 7 q 0 7 0 @ y e 0 @ 0 K 0 = q # @ 0 0 e e y 0 # 0 7 O 0 y @ 7 K , 0 , e 0 = , # 0 # @ = 0 y 7 = 0 0 0 # # 0 0 = 0 u 0 # # = # 0 0 0 = y   # 0 e 0 y q y 0 w y 0 = # # # = = @ @ # # 7 , # # 0 # 7 = 0 q 0 7 7 # # = 7 0 0 0 0 0 = 0 7 = 0 # # # 7 ..;.7 0 0 q 0 # 7 = = = 0 = @ # @ = 0 7 7 7 0 # @ @ # = 0 u u y = y e w u e y # # @ = @ # = = 0 0 0 0 7 = y 0 # y 0 0 0 0 = X # = # = = 0 y , # # # s #   X K u e _ K f = 7 0 y K K 0 = @ O = , q ' e e 0 u u 0 , e 7 K e 0 0 e 7 u f u u 0 = @ L K { @.y y 0 @ = X @ 7 O O   # _ e e f e q e e 0 K < f q , ' _ 0 K K e ) X = u _ q L y , e u q # 7 y u ) 0 # q q 0 y @ @ = e 0 0 0 @ 0 y 0 e # @ = 0 O = 0 0 0 , # 7 = 7 # = e 0 @ O # q ,   , #   0 q 0 y q 0 = 7 0 @ O 0 # O = e # @ 7 e # @ = @ 7 O O @ O 7 # O = 0 X O = , # @ # u #   # # = # 0 @ 7 # , e 0 = = # = = = 0 u u e e e e u u u e , q , q u , y w 0 e 0 = , 0 0 = 0 # = 0 , # = = = # # @ # # @ X O ",
"= = , q u e y e e u e u e q u e u e q e e e e q 0 0 0 0 0 0 0 0 q 0 7 = 7 7 = # # 7 @ @ @ # @ 7 u # y q q q q 0 # # 0 0 0 0 0 y 0 y y @ K 0 O < H 0 L | K q @ K u u K q y 0 O @ 0 0 u u 0 0 u ) u K _ u K u e 0 = = e K e 0 7 y = f ' ` u 0 u 0 0 7 7 y = @ @ u ' f f K q e f u e | s L q @ K K e L K y e @ q ` u u K u = e u 0 0 k K s % 0 q e u K 0 7 0 y 0 u q = y 0 0 0 0 y e y 0 u y 0 0 7 y 0 0 q = e w 7 O 0 s < 7 y # @ 0 0 e e u y 7 y 0 @ # e # = K , 0 0 u 7 # 0 = 7 @ @ # 0 0 0 = 0 = e 0 # y 0 7 0 u 0 @ # = 7 0 0 0 # K q e 0 0 # # = 0 e q q 0 , 0 q e y 0 0 e f K K K K e u e e 0 q 0 # # = = 0 e e q 0 = = = 0 y e y u 0 0 0 0 X...y y u u e u y # y u k u y 0 , 0 0 e e e u 0 7 @ = 0 e u u u = 0 u u f f u 7 7 # # # 7 = @ @ @ @ O O   0 r # u 0 0 q 0 , X # 0 = , = , 0 y 0 7 @ e <   X K e e ' _ K 7 0 e e ) f < 0 @ O 0 < 0 I u q = e K 0 0 u 0 u e 0 0 0 = 0 K u k 0 0 # ' K ` ' y e 0 @ 7 @ = y @ O   # _ u K K q e u u , K < s s = _ ' 0 K K e ) @ = K ) 0 I e = q f e # 7 0 u K , # q y q e # @ = e 0 0 0 @ 0 q = q = @ = e X # q r 0 = = 0 = # # # q w # O , s 0   0 #   , 0 0 e 0 = # = 0 @   0 = O 0 u , # = q @ @ = # q   X @ X 7 # O = = @ O , , = # # u ,   @ = = # 0 # = # < e e u k u u e q e k u f e u e e u e f K H e u f f f e e e w = 0 0 0 = 0 = # = = # # # @ @ @ @ @ @ @ @ @ ",
"f u e u K u u e e u u e u e e u e u e u u e e 0 = 0 0 0 , 0 = = 0 = 7 = = # # # # # # = @ # @ 7 y = y y 0 0 0 y 0 7 0 = 0 7 0 q 0 y 0 # L # O , H , K } K y # K K e K e y 0 @ = y 0 u u 0 0 u ) e u ) K k e 0 0 0 0 e K e 0 8 0   0 ) @.u y ^ u 0 7 # e 7 O O u ` u f K q e K u e } K I q = _ K e K u q e @ 7 ) u u K f # u u e = u ) s # y q u u ) 0 0 0 7 = y y 7 y 0 0 0 = y q q 7 y y r 0 = q 0 7 7 0 u e , O 0 s q 7 e = @ 7 0 u e u e 7 0 0 @ # u # # ) e 0 , 0 = # 0 7 0 @ @ # 0 0 = # 0 = e 0 # q e y q u 0 # = 0 0 0 y 0 @ ) _ K K ) L K ) K f f K H K s u e e y e e e q e u e e u y 0 0 y e u e y y 0 0 y u e q 0 0 = = q 0 7 = = = 0 K ) = 0 0 0 e K K 0 e u q 0 , 0 , , , # = # 7 = = # # # 0 = = = O @ # # # # = O @ @ @ @ @ @ @ @ @ @ O O   y r # u q q q 7 =   # 0 = , # 7 q r y y @ u %   # K e e | _ K 0 q u e ) u , 0 @ O 0 0 u } s e , u ) u u f u u u e 0 = # 0 K e e 7 7 # | ) ) ` 0 u y @ 7 O = r @ O   7 ` K K K q e f f 0 _ e g L X K _ e f K y k @ @ f ) 0 L u , , u e = 7 y y u 0 0 e e 0 e # @ = y = 0 0 @ q 0 = 0 , # , u # # e y 0 # # q = = 7 X w 0 @ O 0 K u @ 0 #   # 0 7 e 0 7 # = y @ @ e 0 O 0 u , = = 0 = @ = @ =   O o # 0 # O 0 0 #   # , = # @ 0 w # @ 7 0 0 y = q 7 < e f u k u K ) K f e e u u e e f K K K L H f f e e u q , e 0 0 = , # # 0 # # = = # @ @ O @ @ @ @ @ @ @ @ ",
"u K f e e u f u u u u u K K I L f f e e e q u q 0 7 0 # , 0 = = 0 = # # @ @ # # # @ # @ @ @ @ 7 y 7 y y q y q y , 0 0 0 q 0 0 0 0 y 0 # f # O , g , K } K e # f u 0 _ e 0 = @ 0 u y u f 0 0 f ) e u ) f ) u w w 0 7 y u 0 0 y y 0 = ) ..k y u y 7 7 # u 7 @ # k { u K L e u K e 0 _ K _ u # K K e ) f q e @ 0 _ f K K u # u u u @ e _ e O q e e y ) y y 0 7 7 u y # q q 0 q 7 y 0 0 7 y e y 0 # 0 7 = 7 , u e 0 O , e < = y # @ 7 0 e y e u 0 y y @ # y # = ) e = 0 0 7 = = # 0 # # # 0 , 7 @ 0 = e 0 # q y u q e y 0 , q 0 0 y 7 # ) f u 0 0 q q e e 0 0 e q , q u u e q y e 0 8 7 7 0 0 0 y 0 0 0 q 7 @ X # 7 e u e 0 7 = # # # 7 7 = 0 = = q ' ` # = @ O X # #   # , # # @ # # # X O O           O O O   O     X @ @ # 7 7 @ O   O @ @ # # # # = @ @   y r = u q q 0 = = @ = 0 = , = 0 y q q r @ u ,   # s q u .._ K 0 0 e e ) u , 0 # O = e K I e y = e K e e K K u e q , # # 0 K f e 0 0 # u ) ) ) 0 e e 0 7 @ # 0 O   O q ' f f L q u f u , ' e K I # u _ e u _ w f #   f _ e K f 0 # e y = 0 y y s , , , 0 0 e # @ # q = 0 y X 0 0 = 0 0 = q e = 7 y q 0 = # q # 7 7 O 0 e #   # s u @ w # O = 0 7 e 0 7 # # 0 @ X y , O 0 u # , # 0 # @ = # = X @ # = 0 = O 0 , = @ X = , 0 @ w e # @ # = = e , 0 7 # # 7 0 , = 0 y e 0 0 0 0 0 0 , = 0 , = # o o # @ X   o X # # 0 # = # # # @ @ # = # # = # # # @ @ @ @ @ O ",
"0 q y 0 0 q 0 0 0 0 0 0 0 = = # # # # @ # # , = 0 = = # = # # # = = # 7 # # = # # # @ # @ # @ 7 Q 7 y y q q 0 0 # 7 0 , 0 0 0 q q y 0 = f # @ q L , K | K e # K e 0 ' e 0 0 0 # u y f _ u e f _ y 0 k e ) e e e q 0 y u q 0 0 e e # u ) k 0 0 0 7 = @ 0 7 O # u ..K K ) u e K q 7 K K L e @ K _ u K K q q X q ' f K L e 7 u K u # 0 ) y   0 q y y K y q q = # y y = 0 q 0 0 # 0 , r 7 y e y 0 # 0 0 0 7 7 e e e # = q q 7 e = @ 7 7 e e u K y y y # @ e = = K 0 0 0 0 7 # # # 0 # # # y = 7 # , = e 0 @ , y y 0 u 0 # 7 y 0 7 7 # 7 ) f ) K u u u K K u e e e e u e u 0 0 e y y y e e u 0 q e q e e e q q q y y y e u e 0 q w 0 e u 0 0 q , # y _ ` = = 0 0 0 y e , 0 w 0 q e u u s f G K H q y y 0 q q 0 , = 0 = 0 y y u e 0 7 = 7 # # @ # # @   O O O   0 0 7 u q y q 0 7 @ 7 0 = = # 0 y 0 y y X e <   , f q u | _ f # = K 0 f u , q #   @ q e f e 0 0 e K e u K K u u e 0 # # 7 K f y 7 0 # e K _ ) 0 y y 7 7 @ 7 y @ O O e ' s s K q e u u 0 } s s H O u _ e K _ e u = O u _ e K f q # q y = 0 u u s < 0 0 y e k 7 # # y 0 q e @ q 0 # 0 , = y y 0 0 e 0 0 = # y = 7 0 @ 0 0 = O = s < # y # O = 0 0 e y r 7 # r @   = 0 O 0 u # , = e # # # # # O   @ 7 , 0 # , = = 7 O = 0 0 @ q w # @ @ # @ 0 = = # @ @ = 0 = = # = 0 = 0 0 = o X # # # # @ # = , q , , = < , = # , = # # # # @ = = = 7 # # # # = 0 , = 0 # # ",
"# = 0 0 0 7 = @ # # # # @ @ # 0 0 0 = # 0 = 0 = 0 0 # # # # # = 0 7 7 7 7 = 7 0 0 0 0 0 # 7 # 0 y 7 e y 0 0 0 0 = 0 = = 0 0 0 y q e y w I @ @ g H , u ' K e # u e e ..u 0 0 0 @ e y u ' K e f ) 0 0 u e K e 0 e y e y u e 0 q q e q ) u ^ q 7 y 7 7 # 4 8 @ 7 f @.K f _ f u K u = u K _ s @ f K e K K q q O q ` f f L e = u K e # 0 k 7   0 y 0 y u 0 y e 7 = u y 7 q y y y # 0 7 y 0 0 q r 0 # y 7 7 # = y q q # # q e 0 u 7 # 0 0 e e u u e q q = @ y 7 7 u 0 7 = = 0 # = = 0 # # # q = 0 @ # # e 0 O = e e 0 u 0 @ , 0 # = # # , K K f u K f f K K 0 e w y e e 0 e y e k 0 u e f f u e u e u ) _ ) u 0 k ) ) K L ` k 0 y 0 @ = = # = # # @ 0 u { 0 0 0 , , y K e e u e u u u y , , , , 0 , y 0 0 q 0 = = 0 0 = 0 # # = , = = = = # # @ # # @ @ @ X # O y 8 # u q q q 0 0 @ = 0 = 0 = 0 y 0 y y O K ,   < g q e .._ u # = _ q k K 0 q #   @ 0 , e u 0 q u _ u u L f f u 0 0 # 7 0 K u 0 7 0 # # ) ` ` = y u y 0 # # r O O O u ` s f _ q e u u 0 ..K K g   u _ 0 u K q e #   e ) 0 f K u # u u 7 = u K s # 0 , e u ) 0 7 = 0 # 0 u # 0 0 7 7 , = y y 0 7 e q 7 7 # q # 7 7 = e 0 =   = s , # y #   # = 0 e e y 0 # r # O = y O 7 k = = = y # @ = # # X O @ 0 = 7 O = # 0 y X = w 0 # y 0 = @ @ = = 0 0 0 @ u e u q 0 , , 0 e e q q q , q e e 0 0 0 e f e u K K e e 0 y 0 , 0 = 7 = 0 = , 0 w 0 = = = # # 0 0 0 0 = , ",
"q e e e e q 0 < y e q y 0 y u u u K f e u q e 0 0 0 , = 0 0 0 0 w q 0 7 = , = 0 e 0 0 0 = 0 # 9 y 7 y y y q 0 0 = 0 0 0 0 0 0 y y y q e Y # o s s # s | K e = u e y | e 0 0 0 @ e y 0 ) u e _ ) y 0 y u ) u 0 e e u 0 K u 0 e , u 0 u y u 0 0 0 # 4 @ = 7 @ 0 K ` K u K K e g f 0 e u ' e O u _ u u K 0 q O q ) K u K K q f k u # 7 k 7 O e e 0 q u 0 y e 0 # e e 7 0 q q e 7 y 0 0 8 0 e y 0 7 e 0 7 7 7 u u y = # 0 e 0 u = @ 0 q e u y e u q q = O y 0 0 0 0 = = 7 0 # 7 # 7 7 = # 0 = y # @ , u 0 O 7 e u 0 e 0 # 0 e = 7 7 7 = ) g e 0 u u u f f f K f f K K K K e 0 0 @ 0 0 u u e e q 0 0 u u u y = y w 0 e f u y = 0 0 = # # @ @ @ @ O # u @.u K _ K K K u f f u e e f u ) L _ I K K K K K K K u 0 0 y 0 = e 0 # = , = # @ @ @ @ # @ @ @ @ @ O @ O r r = e q 0 0 0 y = 0 0 # 0 = 0 0 0 y 0 O K ,   % H < q ..L s = 0 L q u K < 0 #   , e 0 u u , 0 u ) e u _ K K u 0 0 = 0 , K e 7 0 7 =   e ` @.0 u K y 7 * = u @ O O u { e s K q e K u , ' K L K X e _ e u K 0 e = O u _ q f f e # f u 0 X u _ u   0 0 e y ) y 0 0 # # 0 k @ 0 y 7 0 # = w 0 0 7 y q 0 = # q # # # = e 0 ,   # e < # y =   # 7 0 e y e y # y = O = y O 7 K 0 # = 7 # @ = # 0 @ O @ , # =   # = , e   # w y q y 0 = @ = , = 0 0 7 O e K K u K g f K s e u s s e u e 0 0 0 0 q 0 0 , 0 0 0 q 0 0 , , 0 0 0 # , # , 0 q q = 7 7 # X # = # # = # ",
"u f u e u s u q u q 0 w 0 0 w 0 , 0 0 0 0 0 , 0 0 y q 0 = , 7 0 e q 0 0 0 4 # # 7 7 # = # 7 # 7 r 7 y y y 0 0 0 7 q = 0 0 0 0 y y y u K g @   s H , f | K q 7 K e 0 ' e 0 0 y @ e e 0 ) K , K K e 0 u u ) e 0 e e u 0 K u # 0 , u y u r u k k 0 @ 7 7 q r @ = u _ k e K L K u K ) 0 e _ g @ w K u e ) q e # 0 ) ) u K K q e u k = 0 u # @ e u 0 y u y 0 q 0 7 y u 0 y y y e 0 q 0 0 0 7 e e q 4 y 0 7 7 0 k e 0 , @ = q q e = # 7 y y u y e u y 0 0 O y 0 y q 0 = = 0 # # 0 = 0 # # @ 0 = 0 # @ = u 0 X 7 0 0 = q 0 = q u y q e y w ) K K f _ ) _ _ K ) K K u K ) ) K u u u u k K K e y y w 0 0 0 0 0 # = # = = , 0 # @ O O O     O     O       u =.= 0 e u e e e u s u u u u k K q q u e q q 0 < , < q , = # = @ = # # = , # @ @ O @ # @ @ @ @ @ @ X @   r r 7 e y q 0 0 0 @ 0 7 = 0 0 0 0 0 y 0 @ K <   , I , q | L e # 0 u , u _ , 7 # O , u e ) K 0 e f _ u q K K K K 0 e 0 0 0 f q = y = u # q ) { y 0 y 0 @ 6 @ y = O # y ) u f _ e q K u # L K I H O e _ u K _ q e = @ u ' u K f w = K f e X y _ e O , q e q K y 0 q # @ 0 K # 0 0 7 0 7 7 0 = 7 7 y y 0 7 @ 0 # # # = e q q X @ , q @ w # O # 7 0 y y u e = u 0 O # e O 0 f 0 # = 7 = @ # @ 0 @ X @ 0 # = O # , , e   # 0 w 0 0 y = # 0 0 = 0 0 # # u e e 0 = , , q q , , < % # 0 e e q 0 0 0 7 = = = , = = 0 = = 7 0 = # @ @ # 7 e e q = = # # # = , # # = # ",
"0 e e , 0 , , 0 e e e 0 0 w 0 7 7 0 0 7 0 0 0 7 0 q 4 # # # = w u y 0 = = = # = 0 7 # 0 = 7 # 7 y 7 y y e w q q 0 0 = = 0 q 0 q y u u e H @ @ g I , q L s 0 7 K e 0 _ e = 0 y @ q K u K K 0 u K e 0 e u ) e 0 e y u 0 K u # 0 = e y u 0 y u K r @ # 7 7 e @ = e ..f 0 K K K e K _ 0 K | _ 0 , f u u _ y u 7 # f ) u u K y q y u = 0 u # # e u 0 e u y q y 0 7 0 e 0 e y e u 0 e 0 0 y 7 e y 0 7 y q 7 7 y u q 0 , @ # q e e # # 7 y e e y e u q q 0   0 7 y e 0 # = 0 # = 7 # 0 # 0 = 0 = 0 @ @ 7 u q O = 0 0 0 e y 7 y u e 0 y e u ) K ) f K f u y e e w q 0 y 0 0 0 0 q 0 0 7 = = # # # = = 0 = 7 7 @     O @ X @ @ @ @ # @ # # # # 7 # @ @ # k :.# 0 0 0 q 0 q 0 , = # # # = # @ X   @ X O O @ # @ # = = , 0 = = @ X @ # = 7 0 = = # # # # # @ @ O @ O y r = e y 0 0 0 0 # 0 = # 0 0 0 q 0 y y # I & O , T 0 0 | _ s = 0 f , K ' 0 7 y # = u 0 K ' u e f ) 0 , u e ) u 0 u 0 y , u e 0 0 , f = y k ) y 7 0 0 O = @ 9 7 O = u -.K K _ e < K e X e s L K O y _ f e _ y q # O k ' e L H q = k u e @ 0 ) 0   , w y q k 0 q y 7 @ 0 k # 0 0 0 q = @ 0 = 0 7 0 y 0 7 @ 0 = = # # y < q @ X , e = e = O # 7 0 e y e e = q 0   @ e X 0 u , # , # # @ # # 0 # # @ 0 # 7 X @ # , q   @ , e 7 0 q # O , 0 = = # @ = s f _ K K f u ) K e e e q u e 0 e , 0 y 0 e y e u u 0 , e q u u u 0 0 w e u e q e K y 0 0 , = 0 0 = = = # ",
"u ) K e e q q e e 0 0 0 0 y 0 e e u u 0 0 e q u u u q 0 y e u y e u u 0 q 0 , 0 0 = = = # # @ 7 y 7 y e q e 0 q 0 0 = # 0 0 w q y u y e I # # H H q q L f 0 0 ) e q _ e 7 0 e X 0 K ) K f # u K u 0 u e K e e u y u 0 K k = y q 0 0 u 0 y u u 0 @ # 7 7 ) 7 @ y @.f q K K K u _ _ 0 s | L 0 @ u u e K 0 K 7 0 _ ) u f K 0 0 q e # 0 u # 0 0 e 0 q u y y e 0 = 0 0 0 e y u u 7 0 0 0 y 0 y y 0 = y 0 # = e e , 0 0 # # 7 u e = # 0 e u u y u u y y 0 O 7 # 0 e e # = 0 0 , 0 # y # 0 = 0 0 0 # @ 0 u q @ 0 e e q y q = = 0 0 0 0 u ) u # # # = o # # # # @ X # X O O O O       O X   O O O @ # # # # 0 y 0 y 0 q 0 0 0 q q y 0 y y 0 q e 0 # # = u A.@ o # = 0 0 0 , # o = 0 0 = # = q e u e u q q < 0 0 0 0 # @ @ @ @ = 0 0 , # # # # = y w 0 y , q 7 0 = y 8 7 y y 0 0 0 0 # 0 = = 0 0 q y y y e w | # O < I , 0 I L u = 0 u 0 K } 0 = q # # u 0 u ' u e K ) 0 7 u y ) e , e e k , u u 0 0 = u , e e u e = 7 r @ 6 O # = O , u @.K K K K e g f # e e L H % q _ f e _ e e # O e ' e g K e = u u e @ = k =   0 q 0 0 e 0 0 e 0 # 0 K 7 0 q 0 y 7 # y # 0 7 7 y 7 = # y = @ # # y 0 0 # @ , e , e 7 O = 0 0 e e q f 0 0 0   @ e @ = y , # = # = @ # # = @ @ X 0 # 0 @ O # 0 q   @ , e 0 0 y # X 0 = O # @ @ = s s u e u u u u 0 0 q 0 , e q 0 q 0 y w = 0 q u u u u e w , u ) ) u , 0 u f u K _ K y 0 0 = O X X O @   O ",
"u u 0 q q 0 0 e 0 e y 0 y 0 0 e u u u u e q 0 u K ) u 0 y u u u K ) u 0 0 0 @ @ @ @ @ @ @ @   # y = 0 y y y 0 q 7 7 = # 0 y e q u y 0 0 L # @ u q s K } e 0 e _ e 0 ` e 0 0 u O e K ) ) K e L K u y u u f e e u 0 u 0 K u # 0 0 0 w e = 0 0 0 8 # 4 7 7 @.7 @ e ` K , u f K K K ' q u | | e @ u u 0 _ q ) 0 0 _ _ u f f y 0 q u = e u # 0 , w , 0 K u 0 y 0 0 0 0 0 y y u u 0 e 0 # y 7 y y y 7 e q 7 7 y e , q u 0 # = e y = # 0 e u u q u f u y 7 O 7 7 0 e e , 0 0 # = 0 # q # # # 0 = 0 @ @ 0 u e @ = e u e y e 0 0 e e y y u _ y O q , = @ # # # 7 4 # 0 0 0 , e y e u q e e 0 y 0 0 0 q y u e u u K K K u K K K f u f K K f f s k y 0 = # K 9.e f g K f u s s s e u e 0 y 0 e s e e u e e q q q 0 0 0 0 0 0 q 0 , , e y 0 0 0 = # , 0 0 = # = # #   0 8 0 e e q 0 , = = 0 = = 0 0 q y y y y u T ,   q L , 0 | _ u 7 q f = K _ 0 # y = # u 0 q _ u q _ _ e 0 e y ) u 0 w q u 7 u K 7 0 , u 0 y 0 y y y 0 7 O 7 X r = O , w ' u e K K s f f e 0 0 K H , 7 K K 0 _ q y # @ q X.e f K u 0 u u e @ , u 0   w e 0 0 u q 0 r 0 @ 7 K , 0 0 0 y 0 # y # 0 7 0 e 0 0 # y = # = = u e < # O # q 0 e = O # y q e e 0 e 0 0 0   @ e # 0 0 , # # # # @ # @ 7 @ # O 7 # w @ O # 0 q O @ 0 e 0 , 0 # @ w 0 # = 7 4 7 u u 0 q u u f f K f ) K f K K ) K e , , @ = 0 u w q 0 0 = # 0 y e 0 # # , = = , e , # @ # @ @ O O   O   O ",
"K f f K K K u ) u ) u 0 0 = 7 0 e y q y 0 7 = 0 q y , # = , , , q 0 7 # # # @ @ O             @ y = y q y y q 0 0 0 = = 0 y e q q u y 0 _ # @ s 0 e s I e 0 u _ q 0 ) q 7 0 u O e K ) _ _ | | ) K e y y u q y e 0 u = q q @ 0 0 0 y u 7 7 0 9 r = 7 7 = ^ 7 @ u { ..u f f K y u { u q }  .f # u u 0 _ y K 0 # _ _ u f K q 0 y u 0 e f # 0 , 0 0 4 k u 0 y y 0 0 7 0 y y u u 7 e 0 0 e 0 r y e 0 y 0 7 = u f , q q 0 @ 0 u e 0 # 7 y u u 0 u u e y 7 O 0 0 0 e y = 0 0 = = 7 # y = # # 0 , q # @ 0 k u @ = u u e q K e y K e q 7 = u k K ) u K K _ K e f L K L _ ) ) _ ) _ ' _ ...._ _ _ _ K K K _ ' K K L L L K K K f e K f u u u e u u e q 0 , _ S.% 0 e e 0 0 q e q < u e e 0 0 0 0 0 = = = 0 0 0 0 , = 0 0 # # # # = q e 0 # 7 = @ @ @ = # # # # @ 7 X 0 7 = y y 0 0 0 0 = 0 # = , 0 0 y y y u K H o   < Y , 0 } L e % e K = f L 0 # y 7 # u e 0 ) K , K K w 7 u e ) e , w q k 7 e K # # # q e u 0 r e ) u = O 7 @ u 7 O # K { u 0 K L f e K ) 0 e Y I # @ f K 0 _ e e 0 X 0 @.e u u u 0 y e u @ 0 e @ O e e , y k y 0 0 7 # 0 u , q y 0 y q # y # q 0 0 u q 7 # y 7 # = 0 K e q = O @ 0 q q = O # y q e y , u e , 0 X X y 0 0 e , o # = @ @ = # 0 @ # @ = = = X   # q e O @ , , # , 0 = # e e e , e 0 y s _ ) _ _ ` K K f u u e e u u u u u u u y e e u 0 7 , = , 0 # # # @ X X X o @ @ X                   O     ",
"K u u e e y e u u u u u u e e e q w 0 0 , , 0 = = # # @ @ # # @ # @ O O O     O   O @ X O @ X , r 7 q y y e q 0 0 0 # = q y e y e u y # K # @ s 0 q K _ f 0 y ) e 0 u 0 = 0 f O 0 K _ ) f u f ) ) f u e u y y e 0 k 7 y e # y 0 0 0 y # 7 0 7 0 @ 7 7 @ ) 7 # y ) ..K f f _ y e _ u 0 } @.K = y e , ) 0 u y # _ _ e f ) q 0 y f q y f # 0 0 w = # f k y e e 0 0 # q u e u e # q 0 # u 7 0 y u 0 0 q 7 7 u f 0 q q , @ 0 e e , # 7 e u u 0 u K e e 7 O 0 0 0 q e 0 0 0 7 7 0 # 0 @ @ # 0 = e = @ 0 K e   # u u q q K y 0 K 0 q 0 # w _ ..X.' ....X.' | ' ' _ ` _ ' _ _ ) ) L _ _ _ I _ I L K K f ' _ H f K K f e e e u u K s f e u u e q y 0 # , ' S.0 e e K e q 0 , , 0 u e q 0 0 0 0 0 0 0 0 0 = 0 0 0 0 q 0 # = = = 7 q e e , , , = , 0 w , , = , # = O 0 9 7 e y e y 0 q = , # = w y 0 q y u y e Y % O s  .q # f K q # u K 0 K K 0 # 0 = o u ) u ) K = K K e 0 u e ) e 0 e 0 k 7 u K # = , 0 0 u q r r k u 7 O 7 O 0 u O # y -.) 0 K K f e L { 0 s } ' 0 @ e K , _ u e e   y X.u u u u 0 0 q y @ q u @ # q e , 0 u q 0 y 0 # = y = q e y u q # e @ q 0 = e 0 7 # e 7 @ # y u , 0 = @ X # u e = @ # 0 y y y 0 u e 7 0 X   7 = 0 q , @ = = # # # @ 0 @ 7 = 7 , = @ O @ 0 e O X = 0 0 , e 0 # 0 y q = 0 y u u e e e e q 0 , = , = = , , # = # = # 0 @ @     X X X @ @ # # # = @ X X X X o X X @ @ @ @ # # # X # = @ X ",
", = = = # = = = = = # # @ X X X   X @ @ @ # # # # 7 # # # @ # # # # # # # = # 7 = = 0 = @ # = 7 r 7 y y e u 0 0 0 0 = , 0 q y y u u q @ I # @ e 0 q K | K q 0 K e q K q 7 0 ) @ f ..' ' K u f ) K k u e y 0 y u y k 7 0 e 0 y 0 0 e K 7 0 0 7 r = # 7 @ 7 @ @ u _ @.K e u K q u K u q | | f = 0 y 0 _ 0 e e @ _ _ u K L e 7 0 f e q u 7 = 0 q 0 0 u u 0 y e q 7 # 0 y e u u 7 y 0 # y 0 0 y u 0 0 y 0 7 u f 0 0 0 0 @ 0 u e 7 # 0 0 e u 0 e K u e 0 O 0 0 0 q q 0 0 0 7 = 0 = 0 # # # 7 = e 0 @ 7 u y O = k k 0 = e = 0 K u u 0 @ 0 ) f ) f K u f f u u u u f u u u e q u e f K K K f e e u u u e e q e e e q 0 0 0 , , , = 0 # # , = # # # # # K :.e e u K e 0 0 0 q u 0 q 0 0 e y 0 u e f u e 0 u 0 K K K k 0 y u K u u K ) u 0 q = # , = # # # @ O @   0 9 = y y y y 0 q = , # # 0 y q 0 e u r 0 I ,   s d e q L K 0 # k f = K ) 0 # q =   e K K ) u o u K u 0 u u K e e u 0 u = u ) 7 0 y q , y 0 7 0 u y 7   4 @ e ) @ @ y @.) , K g K u K ' q q }  .u @ 0 K , K e e u   u { u u f f , 0 e e X 0 u # = 0 0 0 0 f y 0 e 0 # # 0 = q e y u q # y @ 0 0 7 y 0 = # e 0 @ # e q # 0 q # O # q e = @ # e e u e e f e 0 q X   = # 0 e 0 @ = = # = = # 0 # = # # # 0 @ O # 0 u @ @ 0 u q 0 y = O , = 0 = y u K # O .     O     O                     o     O       O @ @ @ # = 0 q 0 0 0 0 0 0 y 0 0 0 y y y w , q 0 = o ",
"    X @       O O O           @ # X # @ # # # 7 7 q 0 e e y y y y w e q e u u e q q q 0 # # # = y = 0 0 y e q 0 = 0 0 = 0 q y e ^ Q e = _ 0 O 0 0 u s _ g q 0 f e f ` u 0 0 ) X K X.| ..K e e K u e 0 y 0 7 u k q y = 0 y q u e 0 k ` e u q 7 0 # # r @ 9 7 @ y K { K f f _ u K u e y } | K = = e 0 _ q u f @ _ ` u K L e = 0 f K w q = # 7 q 0 0 K u q y e e 0 7 7 y u u y 0 y 7 # u 0 0 y u y y e y 7 u f 0 0 0 q @ 7 e e 0 # 0 0 0 u y y K e y 0 O 7 0 0 q q 0 0 0 4 7 7 7 q = # = q 0 0 0 O = u e # = K K q 7 u 0 0 K e 0 0 # 0 K 0 e e e 0 u u y 0 q q e e q 0 0 q 0 0 0 e w 0 0 0 0 q 0 0 0 0 0 0 0 0 e 0 y e e y q 7 0 7 0 y w e 0 0 0 q _ @.0 e u u u u u u e f e u e , 0 = # q e e e e w y = e u ) u 0 , u e y u K K y = r = @ X X O O O O   O   0 8 # y q y q 0 0 7 7 # # 0 e y q u u r , _ #   e < e g I L 0 , ) K = f K 0 = y 7 O e ) K _ L I } K f 0 e u u e y u , u = e u # = 0 0 = e 0 # 0 7 7 7 O 7 @ 7 ` O @ e ..K , e s K e f ' e 0 ' @.f @ = ) , f u e k   u ' u f f f < 0 q u # e u @ 0 , 0 = # K u 0 w q 0 0 = # 0 y y u q = e @ 0 0 = y y 0 7 y 7 # = e e # q u , + # w q # @ # y e u 0 q K e y 0 X   0 # y q 0 # = = @ # # @ 0 # X X = = 7 @ O # e K @ O , u y 0 e y # q q y , y e ) = # 0 O   # # % , 0 , 0 q e 0 0 0 0 0 q e , 0 e e 0 q q w y u e e e u f f e s K f f u f u u u e s u u q , ",
"f f f q 0 0 0 q q e y y y u f y u u e e e e e u u u e u f K e f s f f u f u u u u u e e , = # 7 r 4 7 0 y e e 0 = 0 7 # 0 0 y e u u u e L #   0 q e u u f q 0 K u _ ' u 0 0 ) @ q ..} ..K e u ` f 0 7 u 0 y u u 0 y # 7 e e f e 0 u K e u 0 = 0 # @ 8 @ 0 7 @ y u ` _ u f ' K ) f e e _ | _ = 7 u K ' e u f @ K ) u K K u , 0 u K 7 = # # = 0 0 0 K k y 0 e u q 0 7 y u u y q y 7 # u 7 0 y y r 0 y y 0 e u 0 # = 0 O 0 e e 0 # 0 0 q u y q u y y 0   7 = 7 0 y = 0 0 7 0 0 0 0 4 7 7 y y y 0 X 0 e u 7 # u u 0 # y 0 0 K y 0 0 # 0 K 0 y 0 y 0 q q 0 q y q y e e q 0 q q q 0 0 7 7 0 7 = q 0 7 0 q 0 q 0 0 e y e e u u e e u e 0 w e e e w e e u -.f K ) K ) K K f f _ K ) k q y 0 0 e e e 0 e 0 0 = 7 0 0 0 @ # = # = , 0 # @ O @ O O           O   O   8 7 = y y e e 0 0 = = # # 0 y e q y u y = ' #   f < < f H K 0 , ) K , u u 0 # y 0 O e K ) _ K } ' ) K e y 0 u y y e 0 u 0 0 e # 0 w = , u 0 @ y = 0 8 O 7 @ = ) @ # u ....e K f _ 0 e _ u , L #.g , = K , K f 0 k @ 7 { f u f u , , q u , e u @ , , 0 # # u e 0 r 0 0 0 = = q y e u 0 = u @ q q = y y 0 = 0 0 # = u f = 0 < ,   # e e 7 # # 0 y u 0 0 f e y q     y # y w 0 # 0 = @ = = # 0 # X X = = 0 # O = e k @ O 0 u w 0 e K , e e y = @ = e ) f _ _ _ K g L _ _ _ ) ) _ K _ _ ) _ ' ' ' ' _ _ I _ K K f _ _ L f K L H s f K u e u K u u q e q < q 0 , ",
"' _ L _ _ K _ _ ) _ _ ) _ ' _ } _ _ L I K K f K ' K K K H g s f s u u f e u e u e q q 0 0 0 , 0 y 7 0 q e u e 0 , 0 7 # 0 y e e u e y q L # O 0 0 u u q f e = e u ) ) e 7 0 ) X e | L ' ) u f ' f 0 0 u 0 q y u 0 u # 0 e y u 0 # e ` e u 0 # y 9 # = @ 7 7 @ e K ' _ q K ' u u K w q L } _ 0 4 e K ' q e f   u L f K f u q q u f 7 0 # 0 # 0 , q f u w 0 u u y 0 = y u u u e y 0 # e 7 q e y 0 0 e u w e f e = = 0 # , u e = # q q y ) K y y 0 e y O = = 7 0 q # = 0 0 7 = 0 0 @ # # # = r 0 @ 0 u K 7 # u u u 7 u e e K y y y # 0 K q e q e e u u u u e u K u K u u e e u e K f u u u e f u u e y e y 0 0 e y q w 0 e e e u e 0 , = # @ @ @ # f S.' u u e u y e w e e 0 0 0 e e y y q 0 0 # = = = , # # # @     O O X           O     O   O @ O O   # X 0 9 = e y e y 0 0 0 , # = 0 q e y u u y @ ' = O f 0 , K L L q = u f 0 e u = # e e 0 K L _ ) u u u ) K K K e u 0 y e 0 u , = u = , q # , e 7 O q 7 8 8 O = # X u O # u { @.s f s ` 0 e ) k , L #.K 0 # K # f u # k   e | f u K K 0 = q u 0 y u @ = 0 0 # @ u K r y y 0 7 # = y y e u 7 # y X 0 0 # 0 y y 7 q 0 7 = e s , q < =   = e q = @ # 0 y u q 0 K f q 0     y @ 0 0 , , 0 7 # 7 = @ # O @ X # # 0 = O = e u   O w u 0 = e y # e e 0 w # # 0 _ ..' ' _ ` _ K _ L K K K ) ) K f f K K K L L L L g g s K u K L f s e s u u q q , q e u q q , q q q < , , ",
"K f K K f f f K f f u u f s K K K K f f e f u f f u u e u u q 0 0 , 0 q q 0 0 0 0 0 , 0 = # # 7 r = 0 0 e u e 0 0 0 7 # q y u u u u e q L % O 0 q u u 0 s u # e f ) K y 7 = ) X e ' k _ ) u u { f 0 = e 7 0 y u 0 u = 0 u u u 0   q ) y y 0 # 7 = # # @ 7 7 @ e u ` ` 0 ) ..k k ) 0 e K } ' 0 # 0 u ' u e K # u ) u L s u 0 0 u _ q 7 @ # 0 0 0 q K k e 0 e u 0 q # y u u e 0 y 7 @ y 0 e y q 8 7 q K e e K e @ # e , 0 u y 7 # q 0 y ) ) e y 0 y y O # 0 0 e e 7 7 0 0 0 = y u 7 7 # @ 0 y q @ y f f = @ u e 0 @ e 0 y K e e y @ = _ K L K K u K k f f u f f e e q e u e q e f K f f u u f f K e e e e f f u e e , # # = = 0 0 7 , 0 = = # # q K 9.7   @ # # o @ # o o X X X X                 O @ # # # # # = # # # # # # # # = 7 0 7 # = 0 0 # X X = o 0 7 = y q u e 0 = 0 , # = 0 q e e u u r   L q   0 < q f I L e = u u 0 f u 0 @ u u @ K X...' K e k ) k u e e q 7 y u 0 u = = u 0 q e 7 w K u # e # 7 8 O = 7 O 8 O @ e K #.f s u K 0 u K u , _ @.K 0 @ e # u f # ) O # ..u u K K q # 0 f e 0 u # # , q = , u u 0 0 e q 7 @ # y y u u 0 7 y @ 0 0 # y y y 0 0 0 7 7 u u = , , 0 X # e e # @ # 0 0 u w , u f e y O O y # w 0 0 , 0 = @ # = = = @ @ O # # 0 7   # y u @ X q K 0 = 0 y   q f y e # @ 0 u u u u e e u e u e q q u q e q 0 q q e u K s f q 0 , 0 q 0 , < < 0 0 0 , , # # @ # o @ o @ X X # o O X @ ",
"e y q 0 q q q q q 0 0 0 0 q e u e q 0 0 0 0 0 , , , 0 0 0 0 = = # = , # # @ @ @ # # # # # = # 7 0 4 q y u u y 0 , 0 0 # q e u y e e 0 0 L , O 0 q s u < u e # u K _ K y 7 = ^ # u { y ) ) u K @.K r 0 k r e e y 0 k = 7 ^ K k 0 O 0 ) y y 0 7 7 7 @ # # 7 7 7 e K ` ' q K ' u u ) 7 g L _ _ 0 # 0 0 _ u y ) # u K y _ u u 0 , e ) q 0 # # 0 e y y e K u 0 u u r y # q u u y y y 7 @ y 0 y y 0 r 0 e u 0 0 u u # = e , 0 e e = # 0 0 y ) k e y 0 u e O = y 0 e u 0 = 7 0 0 0 y y = 7 # @ y e q @ e f k 7 @ u e y @ y 0 0 K e u e # @ K 0 e e f 0 e 0 q e y 0 w q e u u u u u e u K u u e y 0 0 q y q q e u e e q y q 0 , 0 = 0 0 0 q q 0 0 0 0 , _ -.#   X X o o       O   O # # O X @ # @ # , 0 = # = 7 0 0 y u y e e e u u u u u u k u e u q u 0 = X #   0 9 # 0 q u e q # , = 0 # 0 q e u Q ^ u , L #   , 0 q K K L e = u f f ' ) 0 # e u @ f | | ..k q f ) u w 0 e = 7 e K 0 y = 7 y y e u # e K k y y = = = O # 7 O r @ @ u ) @.K f f ' f K u 0 , L | L 0 @ e q g K , ) O # { f f K g q @ 0 f u = 0 @ @ # 0 = 0 f u y 0 u e 0 # @ 0 y u e q 0 w   0 y # q q y 0 e y 0 = u u = # , 0 X # q q 7 @ = 0 0 e e 7 u e 0 y @ O r @ q y 0 # 0 = # = = 7 0 @ # # 0 0 0 7   @ 0 u # X e K 0 = 0 e # e u 0 , # @ 0 q 0 u 0 0 e u q 0 0 0 0 q 0 0 , , 0 = , , 0 , = 7 , , 0 0 , , < , , , 0 e 0 0 q q e q , 0 0 = 0 y y e 0 0 ",
"q w 0 0 0 0 y 0 0 , , = = , , = # = 0 = 0 0 0 , 0 , 0 , 0 e y e u e u e 0 y w q e e u e e e 0 7 0 7 y y y u y 0 0 0 0 # y e e u u u q , L #   0 q s f q s u = e K _ K e 0 = k 7 e | u ) ) u K ..K q 0 u e u e e # k # 0 ` ` k y O = ) r r 0 7 7 # @ # @ 0 u 0 u ) _ ..u K ) u u _ 7 g I _ _ e # 0 y _ u 0 K = u u 0 _ K f u 0 K ' e = 7 # 0 e = y u K e 0 k u y y # 0 u y e y q 7 @ y 0 0 0 0 r 0 e u y u f e # # 0 = = q q , # y q y ) k e y 0 u u O = u 0 w e 0 7 7 0 0 7 0 y # 7 # O q e y O 0 K u # # y 0 w @ e r 7 ) q , 0 # # ) f K I ' ) ) f ) ) K K K f K K u u f ) K ) _ K K K k u e 0 e y q 0 q 0 0 q e u u y y q 0 0 0 , = = = = # @ } o.k u f u u f e u u f f K K f K L L s K u K K f u u K K K f s K K K f K K K s K u u u e u e q 0 0 # , o q 9 # y q e u q # , = 0 # 0 q e u u u u q I %   , q q f q K u , e f f ..) e = e u O K ' | ..K e K _ f 0 7 u = y e u 7 e # = e e e u # e k u y 0 = 4 7 O @ 7 @ r @ @ e u { K q f ' f K K , 0 L | ' 0 O e f _ K # ) X X _ e f L s e # 0 f u # = # @ # , = 0 f u y 7 e y q 0 @ 0 e u e 0 0 0   0 y # y 0 q 0 0 y q , e u 0 @ # , O # e e = X = 0 0 e u 0 e 0 0 e @   7 @ 0 q , # 0 = = = = 0 0 @ # # 0 0 0 0 O # 0 u 7 O q k q = , y # e e 0 0 # # 0 0 = , = , , 0 = , 0 0 0 0 e 0 0 , 0 0 0 , = # # 7 # # , , # = 7 = 0 = = 0 0 0 q q q u q q q 0 , , , , , = ",
"0 , 0 0 0 0 q e e 0 y 0 e y 0 0 , 0 , = 0 0 , = 0 , 0 , 0 0 0 0 0 0 e u e e 0 0 , = = = # = = # 0 7 y 0 u u y 0 0 0 0 # q y q u ^ k e # L q O q q L ) q u g 0 q f { ` e 7 7 u y e ..K ) K f _ @.) 0 0 u K k u u # u # 7 u { f q   = ` y 0 0 # 9 7 @ 7 7 u ) 0 k ) _ @.) ) K f u ) = f K _ ' u # 0 e _ K 0 u = K u , _ L K k 0 u ` e = q @ e e # 0 q k e 4 y y q 0 # y u u e 0 0 0 O y q 0 0 0 0 q f s q f f y @ @ 7 7 7 y q = @ 0 0 y K u e y 0 u u   # u 7 e u q 0 0 7 0 0 y y # 7 7 O 7 e q O 0 K f # # 4 = e @ e y 0 K 0 = 0 # @ ..$.9. .X.` _ ) ` K K _ f u e e e e u u u e e e u e e e y 0 u y y q 0 0 = # , = 0 0 0 0 = # # # # = # # # @ | { ' ..| ' ..| ' ' ' ' _ ' _ _ ' _ ' } ' } _ _ I K f L | I L K H K K s f u u e K e u q u e q q , 0 # 0 # y 9 # y q u k w = 0 = 7 # e e u y u e q 0 _ %   < e e u 0 f u , 0 u f ' f 0 # u u @ ' _ _ ' K e K ' f 0 7 u = 0 e u = u = 7 u y e e o 0 ) u y r = 7 r = @ @ O 8 @ @ u K { _ e K ' e u K < q f | ' q @ 0 e L K # ) @ @ _ u K K e u , e f f # = @ # # 0 = 0 f u 0 7 u u q q @ 0 u u u e 0 0 X = q # y 0 0 7 7 e u , u f y # # 0 # # u e = X 0 0 0 u ) e q , 0 u X O 7 @ 0 y , @ # # 7 = # 0 0   # O @ = 7 0 X , w K 0   q K y = 0 u 7 u u 0 e = @ 0 e u u e e u u u u e u f K f u e e e 0 q e f s f f u e f f e q 0 q q 0 0 0 0 0 0 , , 0 0 q u y # # #       ",
"K K f e f ) f f e e q e 0 0 f K K K K f K K f u q e 0 0 0 y 0 q 0 = , , 0 q e , # = @   O O   @ 7 7 y q u u e 0 0 0 0 # 0 y q u k u y # K q O q q H L q u f 0 y f | ) e 0 = u 0 q ` K K ` ) ) =.) 0 7 f u k u e 0 k 7 7 K ` K q O @ u e r y @ 7 7 = 7 7 u ) 0 e ) _ .._ f ) u u K 7 f L _ } K # 0 e ) _ e u 0 K q = _ L K u , y ) e # 0 O y k 0 q y k u 7 Q u e y # y u k u 0 q 0   q q 0 0 r y e u f 0 f f q # @ 7 0 0 y e = @ 0 e e K K u u y u ^ @ = ) q u u 0 7 0 # q 0 e q # 0 0 @ 7 y y @ 0 ) ) = = 7 0 ) y e 0 0 ) 8 # w # O ) #.@._ _ K u u K e q e u u y e e u y q y e e e e e e q e y y 0 = 0 0 y 7 7 7 = 0 q 0 0 7 7 7 7 7 7 0 0 0 0 | ) u f g f f f u f f f f u u u u s K K K K s u e e u e s u u e e e q 0 , , , , 0 , < , , , = # # =   @   0 7 = 0 y u u 0 # 0 = 0 # u e u u y u y 0 L ,   , q q s < u u = 0 K K _ u 0 @ e u @ _ ) u ` ) u K ' K 0 = u = q y u = u = = u k u e O 7 ) u r r 7 @ 7 O @ @ @ 0 @ @ e K ' _ 0 K ..k u _ 7 q g | } e # 0 q L L = _ 7 # _ e K K e u = 0 u _ , #   @ , 0 0 q f f e 0 u e 0 q # 7 e u q y 7 0 O # 0 7 u 0 0 7 = e f , y f 0 X # q , # u 0 7 O 0 0 0 u ) u y = = u @   7 = 0 e 0 # 0 # 0 = = e e # = @   0 0 0 O 0 u u ,   0 0 0 @ = y , u f 0 u = O # K f f f u u u u e q e u e 0 0 < 0 q 0 0 0 e e e e q q u q u e 0 0 e f f e e 0 , o @ o # # , = @ # = # @ @ ",
", 0 0 , 0 0 , , 0 , 0 q 0 0 0 e 0 , , , 0 , q e 0 0 u K K f e q # @ @ @ @ @ # # 7 0 0 0 = 0 , 0 7 7 y q e u y 0 0 0 0 # 0 0 y u u u y @ s %   q q I _ q s u 0 q K ..) e 0 0 u e 0 _ ) ) ` K K ..` 0 0 K k k u k e ) q 0 u ` u 0 @ @ u y u u # 0 8 4 7 7 0 8 # , K ) @._ u ' k e K @ s L L | f # 0 u K L s e u ) e 0 _ I K f , e ) u 0 y # e u # 0 y u u 4 u e u e 7 r u k e 0 q y @ e q 0 0 y e q e f 0 K u 7 @ @ 7 q 0 y y 0 @ 0 K u K k f K e u u X = k 7 u u 0 7 r # 0 q u y = 0 e # 7 u y @ 7 ) _ 7 0 # = f 7 7 # 0 _ 0 = e 0 X u I I u u e e f f u u y y y q r y u e u e e u u K k e 0 0 y q 0 0 q r y y y 0 q q 0 0 0 0 7 7 # # 7 0 0 = 7 K ^ e 0 e 0 0 0 0 q q 0 q 0 , 0 0 0 e u q w 0 , 0 0 0 , % # , 0 0 0 , # = , , , o @ # # # = = = # = = # O r @ 0 q e u u 0 # 0 = 0 # e e u u u e 0 < I <   < q e g % u e = 0 _ K _ e 0 @ y u @ ) ) e { K u ) @.K 0 0 k 0 u e e # f 7 # k ) u u O # k k 8 r 7 = 7 @ O @ O 7 @ , u K ` ' 0 K ' u u _ # f L _ | e # # 0 K ) , K 0 # _ < f K u u # , u ) 0 0 # O 0 q 0 y e k u 7 u u 0 y 4 7 e u y y 0 q   # q 7 y 7 9 0 7 e u = 0 u y @ # 0 # = e 0 = O 0 q 0 u ) q q = 0 k #   0 q , e 0 # 0 # 7 = = y 0 @ = @ O 0 0 0 O # f u 0   0 e e @ # y # e e , e 7 O O 0 0 e e q e 0 0 q e 0 0 q q e u e e e u e u u e e q q q 0 0 0 0 0 0 e y 0 0 0 0 0 = 7 = = 0 0 0 , , , , # ",
"e e u u e e e e K f f u f u f K f K u e e q 0 0 0 7 0 0 0 , 0 0 y e y q 0 0 w q 0 0 = 7 # # , = 0 7 r 0 u u y 0 0 0 = # 0 e u e u u e @ s < X q q I _ e u u = 0 K ' ) e y 0 u e 0 ` _ _ ) u e { ' 0 0 K ) k y u e ) y y u ` u r # @ u u e y # 0 r 7 0 0 @ @   7 ) ) ' ' u ..K 0 ) @ K } I ..f 7 0 e K | K u K ) q 0 | ' L K 0 K K u 0 e , u u # 7 q u u 7 y e e e 0 y u u e 0 y y @ e 0 0 0 y e q q f = f f 0 # # 7 0 0 e y 0 O # u u k u K K u u ^ @ # u 0 K e 0 = y @ 0 e u w # q e # 0 u q @ = ) _ # 0 # 7 u O # @ 0 _ = # e 0 @ u q u e u 0 e f ) ) ' { ' ` ) ) ) ) ) k u u e q e e w 0 y 0 0 = 7 # # # # # # # 0 , = 0 0 r q y 0 y e e y 0 L ] e 0 q 0 0 0 0 0 q 0 0 , 0 = , = # = @ # , # 0 0 , , < 0 , 0 , e y q u e f f q e e e e e e u y e q 0 # 0 # 0 r e u u y = , 0 = # y e y u ^ u q # _ #   < q e L q u u 0 , f ) ' u 0 # q k # ) ` u ' ) f _ @.f 0 0 f e e e e # u 7 = u { u u O @ u u 7 0 = @ 7 O @ = @ u y 0 u ` _ ..u K _ u u _ # s I _ } f # = 0 K _ 0 u e = ' = u _ g K 0 q K { 0 = 7 @ e y # 0 e K u = u u 0 q # 7 y u q 0 0 q O # 0 7 0 7 7 0 0 u u 0 u u 0   @ , # # 0 0 = @ q e 0 u K q y = y k #   7 0 , 0 q # 0 # = , = q 0 @ # @   = w w   = u f # O 0 0 e @ = u @ e f # , # @ 0 K K L ' K K K K ) f K f u e k u e u u f u K K K K u u y 0 , y 0 0 0 0 , , , 0 e e 0 0 0 7 , = = # # @ @ @ ",
") K ) f K K e y e e q y u e u u u u e e y y 0 e e e e 0 0 0 0 q y y 0 7 = = # # # @ @ # @ @   # 0 4 y 0 u e e 0 q q # # 0 e e e e u y O K , o q 0 K _ e f u = e L ' ' u 0 7 e e 0 _ _ { | K y _ _ q 0 K K u 0 e y u 0 7 u ` u e 0 = e k y y # r 0 4 0 0 @ @ @ = ) ) ` ' e | K 0 ` @ K } Y #.f = 0 f f | L u u f 0 y | L K K 0 u K e 0 r = u y # 7 q u ) 7 u u y y q y u u k y y 0 # q 0 0 0 r e q u _ 7 u u = @ # 0 0 y u e 0 @ 0 u u u e k K e u ] @ # u 0 ) y = 7 y # 0 e ) e # 0 u = 4 e e = 7 { ..7 u y u K 7 7 @ 0 _ # @ u 0 X K 0 e u u = 0 0 0 7 0 q r q 0 q q e q 0 0 = , 7 = # = # y u e 0 0 0 q 0 q q w 0 y e q 0 e y q 0 0 0 0 0 0 7 f ] q 0 0 0 0 , 0 e u u e e e e u e e w 0 0 w , 0 e 0 , , 0 0 0 = 0 0 0 0 0 0 e e q q 0 , = # # o @ @ #   # # 0 y y u u y 0 , , 0 # q e q ^ ) ^ y # L #   < u K } q u g q 0 f _ ..k 0 # q K # u ` f _ K K ..@.K 0 , K K K u u # u = = u @.) e O X y K 7 y = @ r @ @ 9 7 ] u 0 u ` _ @.K K ) K e ` # f g L | f # 7 0 K ' e e q = ' @ K I L K e 0 u ` 7 = , O y y # = 0 u e @ e y 0 0 @ 7 u u y 0 = y O # q 0 7 0 8 q 0 f q 0 f u 0   O # # # y 0 # O 7 0 = u K y u = q ) #   y q q e e = 7 0 7 0 , y 0 X 7 =   # 0 y O = f K # X = # e = # K 7 e e @ = = @ O $.5.3..._ ) K ) K u K f f q 0 0 q q y e y e e e q q y 0 w , e q , , , = # # # # # = # = # # @ # # # # @ # ",
"u u f e u f f e e u q u 0 y 0 0 0 0 y e e e q 0 0 = = = # @   @ @ # = 0 0 = # # 0 7 0 = = 0 = 7 0 4 0 0 u e e y e 0 # 7 e e u u u u 0 @ e 0 , e q K | e f q 7 f _ ..@.K 0 0 q u 0 ) ' ' @.K e ` ' u 0 k f y 0 u 0 y 7 7 k _ u y 0 # q u k ) = 0 7 4 0 r = # @ 0 ) _ _ ..e ' L 0 ` # e T H 4.K # 0 ) u K L q e f 0 y _ f f u 0 u K e 0 7 # u u 7 = e K ) = u u 0 0 q r u K k e 0 q 0 0 0 q 0 0 e y u K = u u # @ # 0 , e e q 7 O y e q u k K ) u u k @ # u 0 ) u 0 7 0 @ 0 u ` e # 0 u = # y y # 0 k u y K 0 e u @ 0 7 7 _ = # u , O e @ y f u K ) K ) u u u e y q y e e q u u e u u u u u 0 e e q 0 0 0 0 , 0 7 , 0 0 0 0 0 0 = = # # = , 0 0 0 u ` f K K K K f ) ) u u e e e 0 0 q f _ K K K f K K K f e y e e e q q q 0 = # , , , y y = # # @   O   @   4 @ 0 y y u u y , 0 , = # w y y k ) u q o g q   < u K } q u s q 0 f _ ' u 0 # 0 u # e ' u ) ` K ' @._ 7 0 K u k y u 0 f 7 # u ` K y O   e K 0 u 7 @ 0 @ @ 0 7 ) y , e ' _ @.K u _ u e K @ K H _ | s # = y k ' e e q e _   u _ H f y # e ` 0 # = O e u = 0 y u u @ k u y y # , u u e 0 # y X # q 0 4 0 r y 0 e q , f u 0 @ @ # 7 = 0 0 = O 0 u w u K e f q y ) 7   0 u r e y = 0 = = 0 0 e 0 O 0 0 O # y y @ = u ) 0 @ = # f y 0 0 # e u @ # 0 @ O #.| } K f e e u e 0 0 q e q 0 0 0 e 0 0 0 q w 0 e e y 0 0 q 0 = # 7 0 0 = # # @ # 0 , 0 , = # # @ # = = 0 ",
"q u y 7 # 7 0 # # # 0 0 7 0 0 y q u e y , 0 0 0 0 0 q y u q 0 0 0 q 0 0 0 0 # # @ @ # # 7 4 @ # 0 # 7 0 u e y e e q # 0 u e u u u u q # 0 , 0 u e }  .f u q = f L ' @.L u 0 q u # K ' ) _ K 0 _ | u e ) K 0 7 u # 0 7 0 u ) K u 0 , e ) ` ' 7 0 7 # 0 q # @ O = K ) _ @.u ' } 0 ) 7 e | d 3.K = 0 ) q K L q u u = 0 u e f f 0 u K u y 7 y k u 0 @ 0 ) K 0 k u q 7 0 0 u k u q y e # 0 0 y 0 0 y y e u 0 u e # @ = 0 0 e u y 0   e u y K ) u ) u e k @ @ e 7 k y 0 7 q # 0 e K y # 0 u 7 = u e # q 0 7 0 u 7 w u 4 y 7 = _ e 0 0 # O u @ 7 0 e y u u k u e u u y q q q q q 0 w w 0 q e u 0 # # 0 0 y u y q = 0 = = y = = # # = # # = # = 0 0 0 r u { f , , , < , 0 0 = , 0 0 q q q 0 w e , 0 , = 0 , 0 y y 0 u K K f e q 0 # # @ @ X # # # 0 0 0 0 = = w # 0 4 0 y y k u y = , 0 = = y y e u ) u y   g # O q q H | u s s 0 < f _ | K 0 7 y ) = u ' K ` ) u ) ..` 7 , ) K K u u u ) y 7 u ) k y =   0 k 0 ) 7 O 8 @ # 0 = = = @ = ` ) -.K u ' u e K @ f H H $.K # # e f _ K q y K ) # e } L K y 0 u K y , q # u y @ 0 y u u # e e y e 0 = u k e 0 = u # = w 0 7 0 y e 0 u e 0 K e #   X = 0 0 q 0 7 O # u u K u e K e e ) =   e y 0 u 0 # = = @ 0 0 e 0 # 0 q @ = u y @ # u _ 7 = #   e 7 # @ # K u @ 0 w # O e K g e e e e f u e y 0 y y 0 0 q u q e y e e u K u y , = , 7 , 0 0 0 w 0 0 0 = q = # = # = # # o @ = , = ",
"e K K ) _ _ K f u u f K u k u u e u u u y 0 0 7 # 7 # # = = = # # 0 = # = = 0 0 = , 0 0 0 0 , 0 y 7 0 0 u e q e u 0 # 7 y e y u ^ u q 0 , , a u u I #.f q q # e g _ #._ u 7 e f 0 K @.f ` ) 0 ) ' u 0 ) f 7 0 u 7 0 0 7 u K K u 0 , 0 k ) ' 0 7 0 7 r 0 7 # O # K ' ` -.K | | , ` # e | H  ._ 7 0 ` y ) ) q u u @ y u q f f 0 e u u q @ y ) k y @ 0 f u # u u y y y 0 u u y 7 0 y = 7 0 r 0 y y e e u 0 g u = # 7 0 0 e e e 0 O q u y u K u _ K u ) # @ e 0 ) u 0 7 7 # 7 0 w , @ = y # 7 u y # 0 0 0 0 y 7 y e 0 u 0 # f u 7 7 # # k e e 0 y 0 e y u e e y q 0 7 q 0 0 0 7 q e q e e e e e y e y e 0 @ # = 0 0 = y 0 0 = # # # # # @ @ @ @ @ @ u o.) u u u f u u K u K K K K u K f K _ K ) K u u y 0 0 0 = 0 < , # , 0 e e e q 0 0 0 y 0 0 # # @ # X = @ 0 4 7 0 0 k e y , 0 0 # = q e u u k k y O H ,   q u L | u u u , = K _ ..K 0 0 y ) = f X.) ' ) e f .._ 0 0 ) K u y u e K e 7 e ) K w # O 0 K 0 u 7 # y 7 7 0 =   @   0 ` K ..L e | K 0 K O g T L $.K = # e u ' _ s u _ K # f  .I K e 0 K K 0 0 0 , u y @ # 0 u u # y e 0 y 0 0 u k e q 0 e # # 0 7 0 0 q e 4 u u # f e 7   @ = = = e 0 7   # e e K y e K e q ) 7   w 0 0 K 0 # , 7 @ 0 y u 0 @ q e # # e 0 X @ e X.= = = O e @ @ O @ K e O 7 e # O u q u e 0 q e f f ) { ` ` ) f K K ) k u e q 0 0 q 0 0 = 0 = = @ # @ @ @ # @ @ @ # = # # # 0 0 0 0 0 0 0 0 ",
"0 q y q e u e e e e e e q 0 , = # 4 = # # # 0 0 , 0 = 7 = 0 7 7 = 0 0 , 0 q q q 0 0 0 y 0 0 7 0 0 # 0 r u u 0 e u q # 0 q e u u u u 0 y = , s g q } @.K u q # e L ' ' K y # e ) 0 K -._ ..` e _ X.f = K u 0 0 e 7 y y 0 ) e k k 0 # 0 u u { y 7 7 7 y y 0 7   @ K .._ X.L } | 0 ` = u +.s } L 7 7 _ e ) ) q u y @ y K 0 u f 0 y f e 0 = q k K e # = u e 7 k u q 0 7 0 u k u = # u e 7 0 0 0 q y y e f 0 K K 0 # 0 , , q e 0 = O 0 e e e u e ) u u ) # # k 0 K u 0 = = 0 0 0 0 # @ # e # 7 y 0 @ 0 y e 0 0 7 y 0 = u y = u u 0 y # O u 0 y u K u u q e q u u e 0 y e e u f u K ) K ) ) ) ` ) K K u ) K e u u u k y y y u e 7 0 0 7 = 0 0 = # = @ u @.` _ ) ) ) K ) u e q e q q e u e u K e u e e w w 0 e u y e 0 0 0 0 0 0 0 0 = = = # # # @ @ @   @   O   = # 7 r y k e y 0 q 0 @ = y u u e u u 0   H ,   < q s ..u u s 0 0 L _ .._ e = 0 u 7 y .._ X.| u u { _ 0 0 K K e 7 u y u 0 7 y ) K e 0 @ 0 K 0 k = 7 r 7 7 y 7 O @   0 _ K ..' u O.K 0 ) # f | H 6.K = = u u _ I e q K e # K _ L K e 7 f K 0 , 7 = u q @ # 0 k ) = u u 0 0 q 7 u u u e 0 0 # # 0 7 0 0 q e q K K # f q #   # 0 , 0 e 0 0 O 0 u y u y u K e q ) 0   q 0 e K 0 # 7 7 @ 0 e K y @ 0 e # @ y y # # u ..0 0 e 0 _ = # @ @ K y   = e = O e 0 u e # 7 = 0 , # # 0 = 0 = 0 0 0 0 # # # # # # # # # 0 y 0 0 = = 0 0 0 0 0 , 0 e 0 0 0 e 0 0 # # 0 = = ",
"e e w 0 0 q 0 0 0 0 q 0 0 q 0 0 0 0 0 0 , q u 0 0 = = = = = 0 0 , 0 0 0 0 , , = # # # # # = # = 0 # 0 0 e u 0 y u 0 # 0 w e u y ^ u 0 y = 0 u L 0 | X.K f q # q _ _ _ u 0 @ e ) 0 ) ..) @.' e ) | f y ) K y 0 u 0 u y 0 ` e u u 0 O 0 y u { f y 7 7 y 0 y 0 O # ) @._ _ _ | | 0 _ = u #.s } L 0 = ) q K _ s _ y O 0 ) 0 e e q u K u 7 7 0 u ) u 4 4 y u y ) u q 0 0 y u u u 0 # y y # 0 y y e e y u f 0 K K , # 7 , q e e , = # K e u q e u _ f u ] # # k 0 K u q = # w 0 0 e 7 # # u 7 @ 7 0 @ y e e = q 7 y q 7 u e 7 K u 7 0 # # ) f k K ' K K _ ' ' ' _ ` _ _ _ ) ` ` ) ) ) K f u u f k u u 0 0 0 0 0 0 q y 0 = = 0 0 e e u u K K u y 0 0 = f @.) u u K u e u ) K e u e e e q 0 y e 0 q q e q q q 0 0 # # # # @ O     @ = 7 0 0 # # = 7 = 7 # 0 = 0 # w = 4 0 q k e y e q 0 @ 0 y e u u u u 0 X s , , e q K X.s u e , e ' ' #._ e 0 # u 0 y { _ | X.u u ..| w 0 K k y 7 u 7 y 0 = u ` K q , @ 0 f u ` 7 @ 0 # 7 y 7 @ @   0 ` K | ' e ..K 0 ) # q | s 4.K = # K e K I e , K 0 # K L f f e 0 f K q = # # k y = # e K ) = u u 0 = 0 7 e k k e 0 , , # 0 0 0 0 q y y K u # f 0 @ O # 7 = y y 0 =   0 u 0 u u u ) u y u 7   q 0 e K 0 = = = @ 0 u ) q @ 0 q # o 0 y # 0 u u q f 0 , K # # 7 @ f e O = 0 @ O # 7 K u K ) u u k e e y y 0 0 0 q y 0 e u y e u e u e , y 0 0 0 0 , # # # # = , , = # # # = @ @ @ @ # # # ",
"u u u e e e y 0 0 0 q 0 0 q 0 0 q 0 e e # = , 0 0 q q 0 , = 7 # 0 = # # # # # # # # # 0 0 e e 0 r # q 0 u u q y u 0 # = 0 u u u ) ^ 0 q , , s _ q } #.K f q # q ' .._ u y @ 0 K y ) ..' @.' e ` _ f f { _ y 7 u 0 u y 0 ) 0 e k q O 0 y u @.) u 0 7 r 0 u 0 O # u ' _ _ I } | e ` 0 0 _ g } } e 0 ) q K _ s _ u @ 0 ` e e e q u f u 7 0 0 e K u 7 # 0 w u ) ^ y r y y u u u 0 0 y 0 7 0 r 0 u u e e K q f f 0 # 0 , q e u 0 # # ) u u y e k ) k u ) # @ y e ) e 0 = @ 0 y 0 0 0 = @ 0 7 @ 7 q # q y y = y 7 y y y e y 7 _ u 0 0 7 @ ) K _ f K f K K u e u u u f u e e e q 0 0 0 0 = = # # # # = = 0 q q q y y e f u k K u u e y u u e u e e f u ) =.K 0 e u 0 = # = , # # # 0 0 0 w y y e u u e , , 0 w 0 0 y e k e y y 0 0 0 0 0 = = # @ O O # # 7 @ @ X 0 # # 0 q u u 0 u e 0 @ y y e u u ) u 0 # , % q u u K 2.f q q # e _ L #.| k e # u q 0 ' _ _ ` e u _ | e e ) k 7 7 u # 7 8 7 u ) _ u 0 @ 0 ) u { y # 0 @ 7 0 7 @     # ` K ..X.e | _ 0 _ = q  .s 3.I = = ) e f _ e y K 7 # u e e f e 0 f K y 0 # q ) e 0 X 0 K K = u e 0 7 0 = y Q u q 0 e 0 @ 0 0 0 7 0 y y u u = g 0 X O # = 0 y e q 0 O 0 u 0 u ) e ) u e u 7   0 = y u 0 7 = # O 7 0 u = # 0 e # # e e # , 0 @ 7 u = = u # 7 q O u K 0 = # O @ = @ 7 0 0 y y e e y e e q , 0 , 0 0 0 0 0 0 , 0 0 e = # # # 0 y e 0 , = # # @ 0 # @ # @ @ @ @ @ # @ # = = ",
"q q e 0 q 0 0 0 0 0 0 0 , = , , 0 0 0 0 , , 7 0 0 0 = # # = = # 0 = # # @ @ # @ # @ @ # @ # @ # y 4 0 0 u u y e e 0 @ = 0 e u ^ ) ) 7 0 = % s L q } #.f K < @ q } @._ f 0 # 0 ) y q @.' #...u .._ f K ..) y # e 0 u y 7 u 7 e k 0 O = y u @.K y 7 # 8 8 u 0 @ @ 0 K _ ' } ' ' u ` u 0 _ L ' _ 0 = u 0 K L f K q @ # K u u u e e k u y u 0 u ) e 7 @ 7 q e ) k e q 0 y u k u e 0 0 0 = 0 q q q k u 0 f e f f 0   0 = 0 q u 0 # = _ K u y y u K e u ` 0 # y y ) u q 0 @ 0 e 0 0 0 e = 0 7 # 7 r 7 e e e 7 e 7 e k u y 7 7 ) u = 7 7 O u 0 q , 0 0 0 0 # # 0 # # # # # # # # 7 0 q y y y q e u u e e u u u u u y e y 0 0 q 0 0 7 = 7 7 # 0 7 0 0 q q ;.u 0 K ) _ ` ' _ _ K K K ) K K K K u e u K u e 0 0 = # = # # # # # # @ # # # # # 0 = = , = w 0 u 7 0 , u = 7 r y u e 0 u e 0 X 0 y u u u ) u 0 , # # s s u I 3.K q q # 0 L L #.@.K 0 0 K e 0 ..' K ' u e _ ..e e ) f 7 0 u = 7 7 = u u K K 0 # , u e { y @ 0 = 7 y 7 @ O   @ ' _ ..#.K  .' , _ 7 q  .s  .L 7 # _ e u ' q w K # 7 u q q K e = u f e 0 @ y ) u 0 O , u e @ u u q 0 0 7 y u e 7 # e , @ 0 0 0 7 0 q y e e 0 K 0 # X = = 0 e e y 0 O 0 e 0 y ) y ) K u ) 0   0 , e k 0 7 = # @ = , 0 # O # 0 @ # e y # = = = 7 e = = y # q u O y f 0 = # O @ u q q 0 = q 0 e q 0 0 0 7 # 7 0 = , 0 # 0 0 , 0 0 q 0 0 0 y 0 0 < X o # , 0 # 0 = , = X @ @ @   O O O O O ",
"0 0 0 0 q 0 7 # 0 0 0 0 0 y e u e u u u u e u e u e 0 , 0 q e 0 0 q y 0 # # # @ @ # # @ @ @ @ 7 u # 0 y y u q e u q # 7 w y u u ) u 7 0 # # e L q | X.f L 0 @ 0 ' | _ f y 7 0 ` e q .._ ..{ k .._ K _ ..` y 7 k k K y 7 u y u u =   = y K ..u y 7 4 7 9 u u # # y K _ } } L ' k ) ) 0 K I } _ 0 7 ) u L } K K u O q K f u K e y u K u e 0 e ) e 0 @ 0 e 0 K k u q = e u ) Q u q q 0 # 0 y y y k u w f u f f 0 # 7 = , e K y # = ` K u e 0 u ) e e ` 7 @ y 0 K u y y # y e 0 7 0 e 0 0 r # 7 y 0 0 0 y = 0 7 y e 7 0 7 # u e # , y @ u e e 0 q y y e y y e 0 0 0 q 0 = # 0 y y e u u u e u K K e y y 0 0 y e q q 0 0 0 y q 0 0 7 = 0 7 0 0 0 = 7 u ;.0 # 0 q q y e u u e e e e e 0 0 = = # # # # @ # q 0 0 = = = = 7 7 0 = 0 0 0 0 0 e q e 0 = 0 , 0 # 7 = y # 7 y e k e , u e 0 # 0 0 u u u ) u # q = , s H q I $.K u q # 7 _ _ .._ e = = ) u 7 ....' =.K u { ..w 0 K u 0 7 e = y y 7 ) e u ) 0 @ # u 0 @.u = 7 # 8 y 0 0 @   X _ ' ' | g | ' = ` 0 u X.s } I 0 # ) e u { q 0 u   # u u 0 K e 7 u u y = # r ) K r X = u e = u u 0 0 7 7 u u u 0 X q u # 0 7 0 0 q q 0 u e 0 _ u ,   0 # = y q , #   = w e 0 u 0 f f e Q q   y q y k 0 = @ # 7 = 0 , @ O # w @ # w = O # 0 e # 7 # 7 0 @ 0 k @ y f q 0 7 O O u 0 u u e e 0 0 0 y e e 0 0 0 e e u u u K K f K ) K ) K f K u K u w w u e k 0 0 0 e y = = = = @ # 7 # # @ ",
"u f u K f u u u f u K K K ) K K K ) K K K u u q y e 0 0 q q y 0 # = 0 0 0 0 0 q 0 e w 0 = = # 0 u @ 0 u u ) e e u e = 0 0 q u u k u = 0 , 0 e K 0 |  .K K 0 @ q | X.X.f y 0 0 f e q =._ _ K q { ) u K ' ) q = u K k y 7 y y u K q O # u ) | u 0 7 7 8 7 u e @ = 7 k ' .._ L } u k _ y f |  ...u 7 _ f _ L u K u @ 7 ) K y K u y u k q y = y ] u 7 @ q k y k k u q = q k ^ ^ k e y 7 @ 0 u u e ) u q K u f f 0 # = # = 0 u e 0 # ` ) K k y f K e y ] 0 @ 0 y u u 0 0 @ 0 e 7 # 0 y 0 0 y = = y q 0 y e 7 K 0 0 f = q 7 # u K y y e @ u e u 0 y e y e q y e 0 q q y y q q q e e y y e e y y u u e e y 0 0 0 0 7 7 = = = 7 # # # # @ # @ @ @ @ @ @ ) o.u e e e y 0 y y 0 0 0 0 q 0 w 0 0 0 q 0 0 q , y u y 0 # = = = = = , , 0 0 0 0 , 0 = # @ @ = # # # = @ 0 @ 4 y y u y , u e , @ y 0 u Q u ] u = q = , s L < | 3.L s u = 7 ' _ ' K e # # K u 0 { ..' -.K u { ' u y ` K y 0 u 0 u y = ' u y u , . @ u 0 { K y 0 # 8 y 0 u @   @ ) @._ ' Y | | , ` # u #.s Y I u @ K e u ..s L K @ @ K u , u y 0 u K q # = = k K 0 @ # y u y ^ u 0 0 7 0 e u u 0 O 0 e # 7 7 q y e y 0 u e 0 K e = X = # 0 e e = # X e e e q e e K K y ) r   e w y u w = @ # w = 0 y # O @ e # X = 7 O 0 y e # 0 # q 0 @ 0 K # e f 0 = # # # K u k _ K f K _ _ _ _ ) ) ) _ K ) _ ) ) K K f u u u u u u y , 0 , = # = 0 q # # @ # = 0 q e u e f f e 0 = ",
"K K f f f K K K f u u u e e e q 0 0 0 = 0 = 0 # = 0 7 7 7 0 0 q q 0 e y e e e u K f u e q e y e r @ r u Q ) u 0 u e # 0 e y e u u u 7 q 0 e u K e | X.f f # @ q | @.@.f 0 0 0 ) u 0 =.{ ) u 0 ' f u u ' ) y 7 u u u r 7 u y u K 0 X @ q u .._ u 7 = 8 7 r y @ = 7 u ' K f L } u u ` e K | } _ e = K u K K e ) u   # K K u _ ) u u K e y , u ] ^ 7 # 0 K q u k y q 0 u k u k ^ u y 7 O 0 e ^ e K e 0 L u f e % # = # 0 s e e 0 # ) f K K e u u w e ) 0   0 e u u y q @ 0 q 7 7 y e 0 7 y 7 # q q 0 e u = _ q 0 ) e u 0 = u ) k y 7 7 y , 0 # 0 0 0 0 0 0 0 e y q 0 e e e e e y 0 7 # # # # # # # # # # # 0 y q q q q 0 0 0 0 0 7 7 7 7 7 7 7 # # ) *.0 e u u u e e e q 0 0 0 0 0 q q 0 w e w u 0 # = , , y e e q = = = # 0 0 # # # # # # @ # # = , 0 0 u # y # 7 y y K e , u u , X 0 q u Q K ] u , 0 # < g I < | 4.L g e = # ' | | K u = @ u ) 0 ' | | 9.K u ..K f K ..K y 7 u 7 u y = ) 0 y K 7 O # e y @.{ ^ y 7 7 y 0 u @   X ) ..L } Y | ..0 ' = , ' s } ..u # K e u | s K _ 7 @ ) K , e y 0 u K y = 0 # u K y # @ 0 0 e ) u q q 0 e u u u q # 0 w @ 0 7 q 0 e u 0 u u e K e = @ 0 # q q u , @ @ y u e 0 y e ) K r ] y   0 0 u k 0 0 @ @ q 0 0 0 , #   = # O # 0 @ 0 0 q @ q # 0 y 0 0 y @ u f 0 = 0 # # _ K f f u u u u y e e u u u e y e q 0 , , 0 # # # @ o @ @ # # = 0 7 0 0 0 q e e u u e e e 0 y e e e e e e ",
"0 0 # # , = # # = # # # # = = 7 = , # # = 0 0 , 0 q y y y y q e w q q w 0 0 = 7 0 = 0 0 , 0 e u y # 0 y y ) u e u e # 0 q q u u ) k 0 e 0 u q u e  .X.f f # # 0 } @.#.K , 0 0 ) u 0 @...{ K y _ u e u ' _ K = u u u 0 7 ) e u K = X @ 0 e ) ) u 7 7 y 0 r y O = 7 y ' f K K _ u u ' u K X.} _ e # ) K _ _ e u u @ # K k e _ K f u k e y 0 ^ ) ^ 0 # q ) y k k e 0 u K u e k ^ e e 7 O 0 e ^ y u e 0 K u f u = # = # 0 K u e = # ) u K u e e u y e ) y O y u K f e y # 0 q 7 = y e = # y 7 7 y y y k K # K 0 # e 0 u 0 # e e 0 7 # = 0 # 7 0 q , 0 0 0 7 = 0 0 4 0 0 0 = 7 4 = 7 # # 0 y 0 0 y y u u u u u u u u u K u y e e u u y y u e u u u e K [ 0 0 y e e q q 0 0 0 0 = 0 0 , = 0 0 0 = 0 0 , , 0 0 7 0 = # # # , # 0 0 # # @ @ @ # @ @ O @ @ @ X # O y 7 = y y ^ u q f e 7 O 0 0 u k ) ] u = y # , g L q  .3.K _ 0 X # | X.X.K e 7 @ u ) 7 { @.| ,._ f -.K ) ) X.) 0 # u 0 u r # u 0 e K 0 O @ q 0 { ` e 0 @ 7 0 0 k @ O # u _ L | Y } | u ` e = ' L I _ 0 # u e e _ s s ) 7 O u K 0 K u q u K u 0 y = u k e # O , 0 y ) u e q = y u u u e 0 = 0 @ 7 0 q 0 e f 0 e u e K e # O 0 o 0 0 u 0 @ @ e f u 0 y y K y y ) 0 O = 0 u ) 0 0 # @ 0 = 0 # 0 0 # = #   # 0 # y 0 e = e # 0 k u y 7 X f f 7 X 7 @ @ q 0 0 # 0 7 , # X # # @ @ @ @ @ @ @ @ # , 0 0 0 0 7 0 e e q w e y e u e q 0 0 , , 0 0 = = # # = # # = = = ",
"0 0 7 0 0 # # # = # @ # , 0 0 q e u y e e k e y 0 q q q e 0 0 0 0 # 0 0 7 7 # # # = 7 7 7 = , 0 y @ 0 u u ) e e e e # q q e u K ) u 7 q 0 u u f s | 3.K K , 7 0 | @.@.f = 0 y ` u 7 ' { .._ 0 ' k e u ' | ) 0 y K e 0 7 u e e K 0 X # y e u 0 0 7 # 0 0 y y O 7 = 0 _ u f K ) u u ` e e X.} X.K @ K K L ' f ) u # @ K u u ' K K e u y 0 = ) ) u 0 # 0 K y ) k e q k k k e k k e y 0 O 0 e u y e u q K 0 f f = # 7 # , K e e = # K e u u e y e y e ] 0 @ 0 K K u w q @ 0 q 7 7 q y 0 7 u = = e q e K _ 0 _ q @ y 7 f y @ 0 0 = 7 @ = q # 0 = 0 = = # @ @ O # @ # # @ @ @ # @ # @ O O = @ @ , y q e y 0 0 4 # # # = 7 = # # = # # # @ @ , 0 0 0 y y [ u e 0 0 , 0 0 0 # % 0 0 0 0 0 e u u u u f K K e u u e u 0 = w 0 u 0 0 0 e q = # # @ O O @ @ O @ O @ X u 7 4 u y ) u 0 f e 0 X 0 q e u ^ ] e # 0 # # u I q @.#.f _ #   # ' | X.K u 7 # f ` 0 ..X._ -._ f -.u _ ) ..) 0 = k k K y = u q e u 7   X q u ..) y 7 @ @ 8 0 ^ 7 O @ y ) ' O.T H ' e ) K 7 L _ } _ u @ K f f ..K u K =   e _ q K K y e K u 0 e # k k e # O 0 0 0 k u e q # q u ^ u e q # 0 O 7 0 y 0 e f , e u u K u =   0 o 0 q u q @ # _ K u e , y ) e e K q O 7 0 e K q w # @ e 0 = = 0 w # 0 0 @ = 0 , 0 0 y @ 0 # 0 u 7 7 7 O e u = O 0 = @ e q 0 , 0 0 q 0 0 q 0 # = # 0 = @ # 0 0 0 0 e e e y e u u 0 0 0 0 0 0 q 0 0 = 7 = 0 0 = = = # # # 7 7 7 = ",
"q q q q q 0 0 0 q 0 = , 0 0 q 0 e 0 y y e k y y 0 0 = 0 0 7 7 = = # 7 # # # # # # @ # @ @ @ @ @ r @ 0 u e u u e e y # 0 q u u ) k u 0 q 0 u f f s #. .f K 0 , 0 | | X.f 0 = 0 ) u q ..) { ) 0 ' u u u ` ) ] q y K q 0 0 0 0 y K e @ = e K ) y 0 7 O 7 7 y y O 7 7 0 _ q f _ _ K e ` e 0 X.K ' u # f K K _ K e e @ @ K u u _ K _ u e u 0 # u ) u 0 # 0 u u ) u e y u K k u u k e y y   0 e u u e u e f = K K , @ 7 0 0 K e e 9 # K e u k u e e e u ] y X 0 f K u 0 q O 0 y 7 0 e e 0 7 e # # 0 0 u _ ) , ) u 7 y = K u @ y e = 7 # 7 e u u , q 7 0 0 0 7 0 y e u y y r u y u u y 0 0 0 # # # # # # @ @ = # @ @ @ @ @ @ @ @ @ @ O @ @ # u K K u e q *.K f f K K K K K f K f K K _ K _ _ _ K ) _ K _ k K e e e 0 0 0 q e 0 # = 0 0 0 0 0 0 e 0 e q 7 = # = # y # 4 k y ] K 0 u u 0 @ y 0 e u u ) u = 0 , 0 e ) q +.#.K _ # O 0 } | #._ e 0 @ e ` 0 ` @.K ' u u =.u K K | K 0 # u K u 0 # u e u K 7 O   e f ..k 0 7 # # r = ^ 7 O = 7 ) } | L } } u f ` 0 K } | X.s # ) K K ' u u ) =   e ` q u K e 0 K e 7 0 # u ) u # @ y u 0 k u e q # 0 u ^ k k e 0 0 O # 0 u q e f , u f u K e , # # X # 0 e e # # ) ) ) u 0 e ) u 0 u e   # 0 y u 0 0 # X e 0 # @ 7 0 # 0 y @ 7 0 0 , 0 q = k 0 7 k # 7 7 O y f e = e 7 @ e e 0 0 y q 0 0 0 y 0 0 0 0 0 0 7 0 0 0 0 0 0 0 0 0 w e e q e 0 0 = 0 0 # = # # # # @ @ @ @ X X O O O     ",
"0 0 0 0 0 0 0 0 0 q q 0 q q 0 0 , # # # = = = # = # # 7 0 0 = = # = = 7 # # # @ # @ @ @ @ @ @ # 0 @ 0 u u K u u u e # 0 e u u ) Q y 0 0 , u f f g  . .f K 0 0 , | | X.) q y 0 k u 0 @....._ , _ f e K { ` { u y K q 0 y u e u f e @ = K k ) 0 q r @ 0 7 r 0 O = 7 7 ` q K ' _ u r ` u 0 ' u _ K # u K f ' ) u k 7 # _ ) u K u _ u e K r 0 u ) u q 7 0 u e ^ u y y K K K k u K u e y O 0 u u k u u e u 0 K L y @ 0 = , s e u 9 @ u e K ) K e e q u ) y @ 0 K ) k y e @ w e 0 y e u 0 7 y # @ 0 y e K K , f K e y 0 ) u # e y = 7 = 7 e e u 0 y q 0 q q 0 0 0 7 7 0 8 7 0 # # 7 7 # = # = 7 # @ @ @ O O @ % , , 0 < , #     O # = # # = e K K u u e ;.u K K K K K K ) K ) f f u f e e e q 0 0 0 = 0 , 0 # # = = # = 0 q e 0 0 q e e u e u K K K u e e 0 u y y @ 7 ~ y ` ) 0 e u 0   y e u u u ) u = e 0 u q K q  .#.K K # O 0 | X.9._ 0 y # u ' 0 { -._ ) q e ..e u K ..) y = e k u 0 = u y e ) 0 O O 0 e { ' f 7 @ = 8 # k @ O 7 = ) ' g f ' ' e u ' y ) | Y } e X K f K _ e u K @   u ' q K ) K e ) u 0 y 7 ^ ) y # O y k q k u e 0 0 y u u u u u 0 0   @ y u e u K = u f u s , @ o # @ 0 u 0 q # # u K K f e 0 K e 0 K q O @ q e k e 0 # @ y = = # 0 w # 7 y @ # 0 0 = y u # K e # ) q e r O q K ) 0 y = # , = # = 0 = 7 = 0 0 0 0 0 0 0 e y 0 u q 0 = # # @ @ @ # # @ @ # @ @ 7 0 0 = = = = = = = # # @ @ @ # # # # ",
"7 0 # # , 0 7 7 0 0 0 = 0 # # # @ # 0 # @ = # 0 q 0 0 q e y y y e y 0 y q q 0 0 0 0 r r 0 0 q q 0 @ r ^ Q ) u u e e # 0 u u u ) ] e 7 q , f L f f  .I u K 0 e 0 | ' @.K 0 e 0 ) u 0 ..@.X._ 7 _ f q K { ) _ u u ) r q e u e u K e # , K u ) 0 0 r @ r 0 y r @ 7 0 7 ) q K ) K u 0 K K e { f _ _ # u f K | _ u u # @ ) ) u _ u ) u e e # 7 u ) u q # 0 u y ) u 0 0 K u K K ) ) K u q O 0 u u k y u u u u K K 0 @ = = 0 s u u 0 # K K k K u e y 0 u _ q @ y u ) u q e @ e e 0 y 0 q 0 = u # @ y 0 0 f K e K ) u e 0 ) k # e 0 # 7 = # 0 0 e 0 y 0 = 7 7 # @ @ @ @ # # @ # # @ @ @ @ @ @ 4 # @ # # # # 0 0 0 0 0 0 e u e e e u u f f f K K K K u q u [ u 0 0 # # 0 = = # = = # # # # = = = , = = # # 0 0 , 0 y y e e y y e e y y e 0 w , 7 0 7 = 0 , 0 , u q y # 7 u y ] ) 0 e u 0 @ e e u k ^ ] u = e 0 f 0 K H +.@.f K # X 7 ' @.9._ q 0 # y ` 0 ` -.| ' u u ..y u f ..` u = e K e 7 = ) e u ) q O   0 y ) _ ) 0 = 7 r 7 k @   0 @ u _ u K _ _ u u ..y K X.Y _ u X K K K ' e e K #   e ' 0 ) _ K u u u 0 y 0 ` ] u = @ w k q k u y = e u k q u u u 0 0 O @ e u e e u , e u e f q @ X # X , K e e # @ f e u u u y u 0 q K y O X e u K e y = @ e 7 = # e 0 # @ y @ = w 0 0 u K @ f 0 O e 0 u y @ 0 e y , = # # # # = 0 , = 0 = # # 0 , # = = 7 = = # # # @ @ @ 0 = # = 0 0 q y q y e e e y e k u y y y y q 0 0 0 y q q y ",
"# # @ @ @ # @ @ @ @ @ # @ @ @     # # # @ e y e e q 0 0 = = = 7 q 0 0 # 0 , 0 7 # # = 0 0 0 0 e 9 @ y ^ ^ ` f u e e # 0 e u e ) ] u 0 q , f _ u g  .L K f e q 0 ' } #._ 0 y y K K 0 @.X.X.' 0 _ u 0 ) { ) ) e e ) e u k _ K u f q o # u u ` q q r O 0 0 7 = O = 0 # K q K K K ) r K K = { f ) _ # e K K .._ u K # @ ) ) u ) u _ u u u @ 7 u ) u 0 # 7 u y k u e y K K ) ) ) ) k u 0 O # e y k e f f u f f f 0 @ = 0 0 s u u 0 # _ ) u e u e y y u ) 0 # y u ) K y y @ q e = q = 0 0 = u = # y 0 e K K e K ) ) e = e k # 0 = @ 7 = 4 0 0 y 0 y q 0 0 0 0 0 q y y q 0 0 0 7 0 q q e e e e 0 0 y e e e e e y e e u K u u u u u K K K K k u u K ) y K [ 0 = 0 0 7 0 # # @ # # @ @ # 0 0 0 y u e e e u K e e e q q e e y 0 0 7 = 0 0 0 = # # # # # 0 = 7 # 0 = r @ 7 Q y ) u e e e 0 # e q u u ) ) u , q 0 K u f s  .3.g ) = = = | @.5._ 0 0 = y { # f @...X.u u { q u K =.' ) 0 e ) e = 7 k y u K 0 X   0 e k 0 0 7 @ = 0 7 k @ O 0 O u ) u K ) K e u ' 0 e X.} X.u O K K K ' u u K #   e _ 0 K ) K f q u 0 0 7 ) ] u = @ w k y ^ u e 0 u ) u e u u u , q O @ u u e e u 0 u u 0 K y # O 0 X < g q q #   f e u u y 0 y y q ^ y X @ e ) k 0 w #   w , # # y , = = e @ , y 0 0 K _ 0 ) q O 0 @ y u @ 7 7 # # @ # # = = , 0 = # @ @ O O @ O O O @ O O @ O O O     O @ @ O , y q e q 0 , # @ # # # = # # @ # # # # @ X o = = , ",
"# # # @ 4 7 7 7 9 7 7 0 7 0 7 # # # @ @ X = # # # @ @ @ @ X X @ O @ @ O @ @ @ O   X , e e y q e 7 @ y ) u ) u e e u 0 0 e u u ) ) u 0 q 7 e | f K | H K f e e q _ _ #.| 0 e y ) K 0 @.X.X._ 0 _ u 0 ) ` K ) e e K e u _ _ K e e 0 X @ 0 u ) 0 0 0 O 8 8 = 7 O # y = K u K ) K _ 0 K ) = ' K f ) = e _ K X.` u k # # _ ` u ) u _ f u u @ 7 u ) e q 0 0 k y k u u y K K f ) u k K u 0 O = u u k u u f e u f K q o 0 q 0 f K f 0 @ K K u u K u e y u K 7 # y u ) K 0 y @ y e 0 y = 0 w = u 0 # r 0 0 K K e K ) u u = y K q q q # = # 0 7 = 0 7 0 0 0 7 7 7 0 7 0 0 0 0 , 0 u K K K K ) _ f u u u K K u K K K ) _ _ ) K u u y q q y e u k y e q 7 7 e ] e 0 e q e e 0 q 0 0 y 7 = 0 0 0 y y e e y e u K y y w , = 0 0 0 = = # # 7 = # # # @ # @ @ @ @ @   @   0 @ 7 u y ) u e e e , # e e u k ] k u , e 0 K f f g 4.2.s L , 0 , ..X.#._ f = # e { = f .._ ..u u { e u K ..) ) 0 u ) 0 0 7 0 0 y f e X @ 0 k ` y = y @ @ 0 7 k #   0 @ u K q f _ _ k e ..0 0 @.K | K # u g f ' K e u =   q ' 0 f ) K ) 0 k 0 7 7 ) ) y =   0 u e ) u y 0 k k k u e u e 0 e O @ u e u e e q u e 0 L e # O 0 # < g q e = @ k 0 u u u 0 0 y u ) y @ o u K K 0 0 # X e = = = u 0 = 0 e O @ = 0 u _ ) = f u # 0 # e f @ 0 q = # # @ = u 0 = = # # # 7 @ # 7 0 q y 0 0 0 0 0 y 0 = , # @ @ X # # @ @ @ @ o X   O   O O O O O O O O       # u k e ",
"0 q 0 0 0 q q 0 q 0 0 7 0 0 0 0 0 7 # 7 # @ @ @ @   @ # # @ # # # @ O O O O O O @ @ e K K u u u 7 @ y ^ u ) u u e u 0 q e u u ) ) k y q = e | f K | L _ f q e e _ _ @.' q e 7 ) ) 0 ` #.' K , _ f q _ ' ) ) u e K u u ) K K u K e @ @ 0 k u 0 y q @ r 7 7 0 O = u 7 ) e f K ' ..0 ) { 0 ) ) u ) = q _ f | _ u u @ @ _ ..u u u K u u u @ 0 u k 0 0 0 y k e K u e 0 k K ) ) K k u k 0   # e r u u u f e u f K y # 0 0 = e f f 0 @ k ) k u K u e y u K 7 # y u ) u 0 q # 0 y 0 y = 0 q = y 0 4 y 7 w K K 0 K K , e 0 f K y = K e 0 0 q 0 7 q , q 0 0 0 0 0 y y e u u ) _ _ | #.@...@.@...) u u u e u y e e y e e u y 0 , 7 7 0 0 0 e e 0 7 = 7 @ # 0 ` 0 = 0 0 0 0 0 0 0 0 e e q 0 e w 0 = , # # # = , # # = # # = 0 , = # = # # = # # @ @ @ @ @ X X O O @   0 O 7 u e ) K u u u 0 # e u u k ) u e = 0 0 K K f s +. .f K # q , | ..#.| e y 0 e ` 0 ` 9.' X.u e ..0 u ) ..) ' q y ) , 7 r y y u K u @ # f u ' e = y @ @ 0 # y @   0 @ u ) q K ' ) e q ..0 0 ..u _ ) @ e K u ' _ e K 0 O u ..e K K K ) 0 ) y 0 0 ^ u u 0 @ 0 e y k u 0 0 K K K u u k u q u O O u e k u u e u q 0 _ q = X 0 # < f q e =   e y u ) u e 0 0 e ) y O # e K ) 0 e # X u , 0 0 u 0 = # 0   # , , e K K # f K q 0 = u f @ 0 y = # = # = u e 0 q 0 0 q q 7 7 0 0 0 0 0 7 7 7 @ # 4 = = = # # @ X O O O O     # # @ % # #               O # , u ) u ",
"# 7 # @     O O @ O @ # X O O O   @ @ # @ @ @ @ X @ @ @ , , , 0 q , = # = q q 0 q e e u u e y 0 7 # y ^ u k f f e e 0 e q u u ) ) ) e q 0 e _ u g X.L _ f q q u _ L | } e e # u ) 0 ' #.' ) 0 ' f y { { ) ) u y ) u e ) ) K e K u @ X 0 u ) y y r @ 0 7 7 y O = u 0 ) f f L } | u k ' q f f e K = q _ K ) ) e u # @ f ..) y e u e u u # = u u 0 0 y e k u ) u e 0 u K ) K u u k k 0 O # u q u u u u e u f _ q # = 0 q f f s 0 @ ) ' ) u f u e e u K 7 # y K ) u 0 0 # 0 e 0 q = 0 y 0 u q 0 y 0 e K K 0 K K 0 0 u f K K = K u e k k q 0 u 0 u u K K K _ | ` { -.....' ) K K K u K ) ) f u u u u u y 0 0 7 , , 7 # @ @ # # = # # # # @ O X # # # 7 [ y # 0 # = , w 0 , , 0 0 0 0 , = = @ @ # 7 # X = # , 0 0 7 q y e e 0 u y q y q q 0 0 7 0 0 q , r 7 e , 0 @ 0 ^ u ` K e u u 0 @ y u k K [ ) e = 0 , H L f H 2.} f K < e , ' | @.' y y 0 e ) 7 ) 9.| #.e 0 ..0 u ) @.K { w u ` 0 0 y u e u f u o # f e ) 0 # u # 7 r 7 y #   0 @ y K q _ _ ) u = _ e 0 ..f _ _ @ q f f | ` u K 7   y ` e K K f K 0 K , @ 0 ) k u 0 O 0 e y K u 0 0 u u u K k ) K u e   @ u y u u e u e e u _ f , O , @ < e e e = @ f k K K u e q 0 e K y O = e f K q u # @ u 0 0 0 0 0 = = e O # 0 , 0 u K 0 K K u y 0 u ) 7 0 q @ @ 7 # @ 0 0 0 0 0 # # 7 @ O O   O O @ O X #       O O O X # @ O @ X X @ @ @ # , # 0 0 u 0 = # = 0 0 e e u u u u e ",
"= 7 # # 7 = 0 0 0 7 0 0 # = 0 0 0 7 , 0 = , 0 0 0 q y 0 0 0 0 e e u f u k K K K K f u u u k y = # @ q ) ^ u K K f 0 7 w e u u ) ) u 0 0 = 0 K u K ..L K u 0 e e _ _ | | g q 7 u ) 0 ' ..' ) 0 _ f y ) _ ) K u q ) y e ` _ K e u u O @ u ) ` u u r @ y 7 0 y O # u 0 k e K K ' #.e u ` e K _ f f 0 q L f K _ u K 0 = u ..) e e u u e k @ 0 ) K 0 q e u u K ) u e e u ) K K u u ^ Q 0 O # y r u u e e f s f ) u e 0 e u f f u 0 @ K ' _ K K e e u u K 7 # e K ) K y q @ 7 e 0 q # 7 y y y q # e 0 q K K 0 K _ e u _ u e K 7 k e 0 f u 0 f K u _ K _ f u f ) ` .._ ) f u f u K f u K K u K ) e y 0 0 = = 7 7 # # = # @ @ # @ @ # @ @ @ @ # # = # = u ` y # # @ @ X # @ @ @ @ @ @ @ O O @ O   # = # # u e u k e q q 0 0 0 0 y q 0 7 , 0 0 0 = # = q 0 e 0 e 0 7 @ 7 / u { ) e u u 0 = e u u u ` ) u = w , L _ s K X.L f K q e 0 | | X.X.0 w 0 u _ 0 k #...#.e y ..0 e ) @.K _ 0 e ) e u k ) f u K q X X e e ` u = e @ 7 y 7 0 @   0 # 0 K q _ g K ) 7 _ f q ..f _ ' # e K f | ' u ) 0   e { e K K f _ 0 K , O y ) k e 0 @ 0 e q k e 0 0 K K K ) K ) u u q     0 q u e e f u u K K u #   , # < s f e , # I K u q e e 0 0 e K e O 7 e K ) 0 u # @ u , = = = 0 = # u @ # 0 0 q f K e K K K 0 , 0 K # # = @ # = # @ q 0 0 0 0 = = = # 7 7 0 0 0 0 7 7 # # = 7 0 0 , 0 0 , , 0 0 0 0 e q , 0 0 0 e e u f u u K K K K f f u u u ",
"7 7 # 0 0 0 q 0 , 7 = # 0 e u u f f u e q e u u u e u u u f K K u e y y 0 q y e e y u y y 0 7 # @ @ y ^ u ) K ) _ e 0 e u ^ k ) ] k e q , q K e f | _ K 0 q e q _ _ @.#.K y # e ) 7 _ ' .._ 0 ' K 0 ) ) ) ` ) y k y e { ) ) f u K 7 # K { { ) _ r @ y 0 0 u O # K u _ u K K L @.y e ' u K ..K K 0 0 L g _ { k e 0 0 f X._ e 0 f e e ) # q ) K = = y u y K ) u y u k K k ) K ) u u 0   @ q y k u e e u f f ) u , # q u f f u 0 @ f _ ) k K e q u K ) 0 7 e K ` ) u y @ 0 u 0 y # , e e y y # y 0 0 K K e K ) q e K q 0 q @ r = 0 u q 0 e u 0 u u k u e u u u u e u u ) ) _ ' ` ` _ K f K k r = @ @ # # # @ @ # # = # # 7 , 0 q y 0 q 0 y y 0 = = q { 0 X # @ @ @ = 7 7 7 7 7 7 7 = 7 = @ @ #   X X 7 # = = @ @ X O   O O   O X O   X O   O   @ 0 q y 0 e 0 # @ 0 ] e ) ) e u u 0 0 u u u u ) ] u , 0 , K | f L  .L L K q u , L | X.@.e e 0 k ) 0 f @.| X.K 0 ..7 u ) { K K 0 e ) y K ` ' K e u 0 O   0 u ) e # e @ 7 r @ 7 O   0 7 0 _ e _ K _ ) 7 _ K 0 ' f K ) # q _ f ..{ u ) 0 # e @.u K f K _ q ) 0 O q ^ k 0 0 # , u y k u e 0 K K u K u k K u y O   y r u e u u u e f K u ,   0 , < s K u # @ K K u e f e q 0 e u y O 7 w k _ y y # # u 0 0 = # 0 = = u # # 0 , 0 f K e K K u e = = K 0 = 0 = @ # # @ = = = 0 q 0 7 = = 0 7 0 0 0 , , # # 0 u u f K K u e e e u u f e u u e f K K ) u e y 0 0 0 0 y e e u y q 0 ",
"# # # , = 0 0 0 0 e f f _ ' _ _ ' _ ) u u e e u e e e e u u u q y 0 7 0 0 7 7 0 e y 0 0 = @ @ @ # @ y u u k u u u q = e q ) u u ^ Q y 0 0 q g q f | I f , q 0 0 _ L | | f q @ q K = _ _ ' _ , _ u 0 ` ) K ) ) 0 K 0 q _ f f e K ) = = e ` ' _ ) y @ y 0 0 k @ # u ) ) K ' _ _ ..y q ' u f ..L _ 0 0 K K ' { K u 0 0 q _ ' e q ) e y K @ q ' f , = e f y ) ) u 0 u ) K e ) ^ ^ u u y O @ 0 u ) k u e u f u ) u = @ 0 e f f u 7 @ e K K K u y e u u K 0 7 q K ' ) u e @ # u q e # # q y 0 y # q 0 q K K u K K 0 q u 0 0 u = e 0 y u 0 q q e = q q f ) _ _ ) ) k e y y y y 0 0 7 7 = @ @ # # 0 0 0 7 0 y y y q y 0 7 0 q e e u u u e u y y 0 e = 7 u { y 0 y y 0 y y u u u e y e y 0 e y 0 0 0 = 7 @ @ O O O O @ # # o # # o X       O   O     = K ) ) e K e # @ 0 ] u ) K u u u w 0 q u K k ) ] u w 0 % g | f L #.L _ f 0 e q _ | @.X.s u , k ` r K #.| ' y y @.0 K ) ..u ) y e ) y K _ _ f e f e X   = u K 0 7 e @ 7 0 @ r @   y 0 y _ q L L ' ' # ' _ , ` K u ` = 0 _ f ' { e k 0 @ e ' K u e k f 0 ) 0 O y ) u = 0 = q u e k e y 0 u K K ` K k u u q O O 0 q u e k u f q f f f 0 O 0 % , e f u = O u K u u K u 0 0 e u 0 O 0 e K ) 0 q # @ w , 0 0 @ 0 , = y # # 0 # q K g , f K 0 0 0 u K e @ e e # # 7 # = 7 = 0 , # # # # = = 7 0 0 e u u K ' X.' ..' .._ f u e e e u y e e e u u q 0 0 7 # 7 7 = 7 0 q # 7 = # @ ",
"0 q u u u ) ) ' ' .._ _ _ _ ) K L ) f e e q q y 0 0 = = # # # # @ @ @ # = # = # % @   @ # @ @ @ # # u ] ^ ) K u f e 0 u e ) u Q ) ] y e q q L q f | | L 0 e 0 e _ L ' X.K e # e ` 0 _ ` { ) e _ K e { ) K { ` q K y q _ _ K u K ) # # u K { ) ) y # r 0 # 0 O 0 u k u u _ ' L ..u e { K u ` _ _ q 0 K K _ { u u e = # _ { u y K e y K # q ..) 0 0 u f , u ) u 0 u ) K e ) ) ) k u y O # q u ) u e u f f e u K 0 # , e f g u 7 @ f ) _ ) f u u u k K 0 # y K ` ) e e @ q u 0 u 7 = e y 0 y = y e 0 f K k _ ` K u K u e ) 0 u y e e q u f K e ` K u u e 0 = 7 7 # # # # @ @ @ @ @ @ # @ @ = 0 e K y y y u u K K u u u u u u u u e w 0 7 7 = 0 = y K *.^ # 7 = @ O O O   O O     O         O O @ @ @ O O O O O O @ , , , q q , # @ O , 0 , , 0 q u e u 0 e 7 @ # r ] u ) K f u u 0 0 q e K k [ { ^ q 0 = f } u L  .L } K q e e _ _ | @.f f = y ` 0 f X.| ..y e X.q K _ @.K _ e y ` e e K K f e K f 0   = u ) e y y @ = 0 @ u @   y y y _ e L g +._ q _ ` 0 ) K e ) # 0 _ f K { e K 0   0 ) ` e q k u 0 ) 0 O 0 k u # y 0 e u u k e y , e K K K e u u k q O O 0 0 y u k e u e u K f ,   , , < f f u 7 @ K _ K u u u 0 e e K 0 X 0 e K K 0 0 # @ y 0 0 0 X 0 7 7 e # , y = 0 K K , f K , 0 y e K f = e K 0 e k 0 0 0 0 e e e e e u _ k _ ..| ....` _ _ ` K K _ _ ) u e e 0 0 y 0 0 # # # # # @ O X @ @ # # # # # @ O     @ ",
"u u u f _ | ..) K e q e 0 q q q e e q e u e y 0 0 7 0 4 = # # # O O @ @ @ @ X O O X @ @ # # # = # @ e ^ ^ ) u u f 0 0 e q k u e u ) q 0 , , q q u I _ e , 0 # e L L ' | f 0 O y ) 0 K ) _ ' e f u q _ f f ` ' e u q 0 _ _ K u K _ # # u u ` ` ` w @ 7 0 7 r @ @ u u u f _ _ K L u 0 K ) q _ _ _ 0 q K f _ { u f K e @ ) { u q K u q K # 0 K K 7 , e u , u _ u 0 e _ _ K ) K K u u 0 @ @ e e u y w q u f e q ) q # # e u f e 7 @ u K ) ) u u e u k k q # 0 u { K q e @ 0 e 0 y 0 = u 0 = 0 # q e e f K u L ' _ u ) u y e # 0 7 0 0 0 y @ # @ 0 , @ # @ # @ @ # @ # # = # = 7 0 0 q e e e K K k K ) k u u e e e y e e u e 0 y e e 0 = 7 7 0 0 0 y _ =.u # 7 # @ # # = 7 7 7 = 0 7 @ = # = # # , 7 # 0 7 0 0 0 w = 0 0 0 e e u u u u K ) K _ K K K u K u y @ @ @ q [ u k K K f e = 0 e u ) ^ [ ) u , 0 # u L q L X.I I u 0 e e _ _ ..#.f u # y ` 0 u ..| ..u y @.0 u _ { K ) q y ` 0 u ' _ K e f f X O 7 K ` u u u @ 7 y @ u @   y e q ) e _ g @.#.0 K _ q f _ u K , 0 _ K f ' e ) 0 # 0 K ` e 0 u u 0 K 0 O e ) u # y e e u ) ) e e y u ) f k u u u ) 0 O O 0 0 y e u q u f u K f 0 0 0 q u f u e # @ K ' _ k u e 0 e e k 0 O 0 k K K q y # X e 0 0 =   , 0 0 y 7 = y = 0 g g , f K 0 0 f u w K 0 q u 0 u u 0 e u u K K K K u K _ { =..._ f u q e q e e q u u e u u u y 0 , , = = = # # # @   O @ O O O O     O O   X X ",
"u 0 0 q q e e e e u ) K ) _ _ ) ) f u k y = @ X   X @ X O O @ # @ @ # # # 7 7 = 7 = 7 0 0 = # = # # u ] ) ` K K K e 0 f u ) ) k ) ) e q 0 = u f K | | g 0 0 = u _ _ X.| K q @ y ' 0 ) ' _ @.u f K q _ f K { -.u K y 0 ' K K u ) _ 7 # f ) ) ` ) 0 @ 7 7 7 y 7 7 ) K e ) ..' f L _ y u ) e ' _ ' 0 u _ K ) X.K ) _ e # ) ..K u K e q K 0 = K ) 0 0 u K 0 f _ K y 0 _ ' ) ) ) K K u e @ X q e u e e u ) K u u _ y # 0 e f f e 0 X u K ` _ K u e k K ) e # y ` @.K e u # 0 u 0 e 0 # u q 0 y 0 u u u f K e K _ K f K f w u # 0 u e e 0 q 7 0 # 0 0 0 0 7 0 0 q e w e e u u u K K K ) _ K f f k u u e u u u y 0 0 # q 0 y q , # = = = = # = # = # 7 u ;.) = 0 = 0 y 0 y q 0 0 , = # 0 e 0 u g f u e q u u u e e u u u f K K u u e e 0 e e u u e u e y u 0 0 O @ @ 0 ] u ) ) K { f 0 q e u ) Q [ ] u y 0 , u L q L X.L K 0 q y q _ ' X.3.K e # e _ r u #.' ..u y =.0 u ) ' K { u 0 ) 0 u ' _ K f f f 0 @ u K @.K ` u @ 7 q @ u #   y K u ) e _ f | | 0 ) ' u K ..K K 0 , L g _ ..u f , 0 0 ..{ K 0 u u 0 K e @ q _ u # , u e e ) ) u y e u K u K k k u u q O O 7 y u e e q u u s K K 0 = = e u f f u = X f _ ) k f e 0 u u k 0 @ y u ) ) u e @   y 0 0 , O 0 q q y 7 # 0 = 0 s f 0 K K 0 0 ) e = q X , 0 @ u u , u u e u f f u % 0 q q u e e u K _ ) _ ' ` _ ) K f K u = # O O O O     O O @ @ @ X @ # # # 7 # = # = 0 , # ",
"e u ) K K K e q 0 y y 0 0 0 0 0 7 7 # = 7 # 7 = = 0 7 0 = 0 = # = = 0 0 y e e e e y q 0 0 = # = # # y y u e u e u q 0 u e y ) ) u ^ q # # , g s L | +.I e 0 0 K | | #.} f q # 0 _ 0 ) ' ' =.f K ) e ) u u ` ..0 u 0 0 K _ K K f K 0 @ u ) _ K K 0 @ # # # 0 0 # K k 0 K ' ' s K _ y e ) u ' _ f , q _ K f X.u K _ q @ ) ..f u u e 0 f # # ) ) 0 0 u f 0 y K K 0 = u ` K u u u u e u 7 O , e e e e u ) f e 0 K 0 X , y u u e 0 O u u K K u 0 0 u e u 0 @ 0 ) _ e 0 e @ = e 0 u 0 @ e 0 = = 0 , u e u K q _ K e u e e 0 f # 0 u = q < u f ..) ` ' _ ) K u K K ) K K u K u u K u u u u y 0 0 0 # # # 0 0 0 q q 0 7 0 0 0 0 q 0 = = = % # = # , # 0 u =.u # @ @ # # = 0 0 0 q e u f K ' _ ' | ' K f e e e K u u u k u ) K K u y 0 0 0 7 0 0 e u y 0 , =   @   @ @ 7 ^ u ) k u K u 0 q e u ) e ) ) ^ q 0 < u K 0 K X._ g = e q 0 _ _ | #.K u # = K 0 e X.' | u y ..0 u ' ` K { K w ) 7 e ' K f u K e # # f ' .._ { u # 7 u = K 7   q ` K ' f | K | ' = u _ u K ..K ) 0 , K g _ ..u u , 0 0 _ ..f 0 u u 0 u q O e _ e # = u e 0 K ) e 0 u K k y K u u u u y X O = y u u e e u e u u ) 0   @ w u f f e #   e K K k e q 0 u k K y # 0 k ` ) u u #   q w 0 w O = 0 q 0 7 # 0 = 0 K f u K K 0 , K 0 = e # 7 0 , e q o 0 # # # 0 e K K _ _ ) K e y y 0 q 0 0 0 7 w 7 0 # = 7 = # # # 7 = , = = = = # # # 0 0 y e e 0 e y q 0 0 , ",
"q e e 0 7 7 , # # # # @ @ @ @ @ O   O O # 0 e q 0 0 q e u u y q y y y e e e q 0 0 = , = 0 , 0 0 0 0 0 0 # # @ O   O O @ @ # # # @ 7 # 7 0 0 y q 0 q y q 0 0 = y e e u u y e 7 y u y ^ u u ) K f ) e k u u ) ) y u q 0 u u K u u ) 0 0 u K ) K K 0 0 0 y 0 0 0 # y k e ) _ ) u K K q e K K ..| | 0 0 L L u @.u f ) = # ^ ..f K K u e _ 0 7 K ` y e e e e y ) u y 0 f ' ) u u k u u u @ X 0 K e e u K _ K _ f ' , @ = y f ) _ y @ u K ` ` K e u K u u e # 0 _ _ u e k @ = e u ) q = e 0 0 7 0 0 ) u K ' y K _ K u e e u ) = y u # e q e ) ) e e K ) K K K K f ) K u u e e 0 7 # # = # # # = # # # = # # # # # # # = 0 = 0 0 0 0 q e u u s g H K f e =.u 0 y 0 u f _ K ) _ ....' ..@.@.' _ | ' ) u u e q q 0 , , = , , , = 0 = @ @ # = = # 0 # @ @ @ #   @   @ @ y [ ^ ) ) f f u 0 e e u ) u ) [ ) 0 q , u L q K @.| I , q 0 u ' _ } $.K u # 0 ` y u X.' { u e ..0 ) { ) K { ) 0 ) 7 e { K K u K u # @ e K { _ _ e # 7 r O q @   7 _ w ) u ..K ' ..0 u ' u f | _ _ 0 0 K K _ ..u K w # @ u @.K 0 u f , K q O u ' u # 0 f u , K ' e 0 u ` k y K ) ) K e q X O = e k k e e u f u e _ u # @ 0 u f g e #   k K ) ) u e e u u u 0 @ 0 f _ ) u e # @ e 0 0 w   , 0 q 7 0 # e , 0 f f u K K f e K e 0 K 0 0 u , e e 0 ) u u u ) u k e y 0 7 0 = # # # # @ @ O O O O       X 7 e y 0 0 q y y u u q 0 w e y q e y q 0 0 # = # 0 0 ",
"@ # # @ @ @ @ @ @ X @ @ # # # 0 0 q 0 q e e e u u e e y e e e y u u e e 0 e e 0 # # = # = = 0 0 0 0 0 = = 7 = 0 = 0 0 0 y 0 0 0 7 0 0 0 0 y y e y e e u e e e u u e u u e u e u u ^ e y y u K K ) K K k k ) ) u K ) ) K K ) ) K _ ) K K u u K ) f ` ' X.) ' _ ) u u f ) ) f _ ` { ) K e q u y u 0 q u u e ) f K ) f e ) u f u e q y e 0 = e e 0 0 0 0 q y k u e u u u u e e u e e y = @ = y q q y u e e e q f = # # 0 u u f 0 # e K ) K u 0 y k e e e = # u f y e u # @ = y e = # e 0 0 = 0 7 K u f ' 0 _ ..) u ) u u @.q f K 0 u 0 0 e e 0 e K K f e u e q q 0 = 0 0 0 0 0 0 q e q q e e y y q y e e u e e e e u u e u e K f K s K f s f G G K e { K K K f ` { ..-.@._ ) u q q 0 0 0 0 u u e u u u e y 0 0 0 7 = # # @ O O @ @ O O O   O O       @ X # # # @ 0 ) ^ ) K f f u , e q u ) u u ) k < 0 , 0 e q s | } g = q # e L K _ @.f e X y _ y y | ) @.) q { 0 K _ f f ....0 K 0 u { _ K u K ` @ o u u ` ) ` u # 7 r @ 0 @   = K 0 ) u ..K L _ e e ) u e ' _ _ , 0 K u ) ..u u K e @ f | f 0 u f 0 u q   q _ u # , e e # f _ e 0 e ) ) u ) K f u y y   O = e u e 0 0 e g u = u u =   , q e s q # O f K ) ) u e e y u u w   , f _ ) e e # @ u 0 0 e @ , 0 , # , @ y 0 0 e f e L _ _ u f u 0 u # # 0 # 0 0 0 , # = q 0 # # # @ O O O O O O   O X @ @ @ = 0 0 0 q e e e u e e 0 y e u u u u u u e e q e e 0 # # # # = , ",
"# # = = # 0 0 7 0 0 q q e e e u K u u e u u u e e u q q , = # # 0 0 0 # # # = # = = 7 = = = # # # # , # , = # # = 7 = 0 0 # # # # = = 7 = 0 0 0 0 0 0 q q q q e y r q 0 0 0 q y e 0 e u u u u u u f u e 0 u ) K K K K f ) K u e e e q q 0 e u u q u K K u e u K e e e e e y e q q 0 e e u k u u y e f K f K f u u K u e 0 # # # # # = , 0 u f k u e u K k f K f K u e u e e e u e f f e u e e q e e e u u u u e 0 y y e = q y y y , 0 @ # , 7 5 0 q y q 0 u u u K f u u f f _ f k f u u e u q K e u u 0 e e 7 = 0 = # u = y e q e 0 0 0 0 # q 0 e 0 7 = # # = e u K K K f f f f K f u u K K K f K K ) _ f K L _ L g H L L K K K K _ K K e e e f e [ f K t # 0 q e f u u u ) _ _ ' { ' ` ' K ) K e = # X   O O O O O @ @ @ O @ @ @ # = # # # # 0 # = # # = # @ r [ ) [ ) f ) f 0 u u K ) u ^ ) ) 0 q , # u u L @.| s , q # u _ _ | @.K q @ 0 ' e e X._ -._ 0 ' w K ' f K -.@.e K 0 e ' L K f ) ' @ @ u K { ) o.y @ @ 0 # y 7 @ q ` 0 K ) #.L K I K 0 K K u ' _ ' 0 e _ f ) #.K u ' u # 0 ..K u K f 0 u e X e ` u # 0 f u 0 K ' u 0 0 K { _ ) ) ) K u u =   # e e y q e K K K , f K 0 @ y u s f q = X u K ` _ u e e u K K e @ 0 f .._ e u = @ u 0 , q   , 0 0 # 0 # e e e f f q K K K u K u 0 e # @ e , 0 , # # @ @ @ # # # # # # = 0 = 7 0 0 q 0 q e e u K u f s u K k u u k e q 0 = # @ , , 0 0 # @ # # # # = # = 7 # ",
"u u e q e u u q u u u e u K u e u e q 0 0 , # # 7 0 0 y w y , 0 0 0 0 0 0 # # # # o @ o # @ # # # 0 0 q e w 0 # 0 0 0 0 0 0 7 7 0 7 = 7 = 0 0 0 q 0 7 7 7 # = = 7 0 0 0 7 7 8 0 0 = q k k u K K K u u ) ) ` ) f u e r 7 y 0 0 q y 0 7 7 7 7 0 q = 0 0 q q 0 0 0 q 0 0 0 0 0 0 0 0 0 e u u u u f u f f e 0 0 , = = 7 = # # = 0 y e e u K ) ) K f u u u ) ) K u u f u ) f e e 0 , , 0 0 = # # # @ @ # @ # # X @ X     @ @ @ # @ # # = 0 e u ) K _ ' _ ' ' K ) K K K K K f f u e q e 0 e q 0 e y y 0 q q q q e q u f f f f e e u u u f K K u 0 q e u u e e u u f K K L I I K K L ) ) L ) ) ) L L K I L K K K L f u f u s e K K f u k e w q 0 # , = e ] q e u f _ ` ` K e e e u y u y e e e 7 = 0 0 0 # @ @ # = = # # # = # # # = 0 0 e e y e e e q 0 0 @ # # # @ 0 ^ k ` u K ) K 0 u f ) { ) ` { ) , , # , L s } 3. .H q 0 , K | X.3.X.f e @ = _ u u X.) =.' e ' e u _ q ) @.` 0 K 7 0 ) _ _ f K _ = X u ) ` K ) u # @ 7 @ y y # q ' 0 e _ @.K f K K 0 K ) u ' _ f # 0 _ K u ..^ K ' u   q X.f u u u # u y O q ) k # q u u % e ) e 0 # u _ u u u u e y e %   # 0 w y y e u f u , s u ,   , q u e 0 # O u u ) K u 0 0 e e u y X 0 f { f , e #   y 0 0 y   = 0 0 # , # 0 u e f u q _ K q u e e 0 u = # K = 0 , 0 _ _ K K u e f e e e u f e e e u u u ) ) f u K u q q 0 0 0 # # 0 0 y e w 0 = w 0 , 0 , = # # @ X X   X X X ",
"u u e u u u f u u e e q 0 = # # # # @ # # # @ @ # @ @ @ @ @ X @ # # # = # , , 0 q , q q e e e q q q 0 0 , , #   # # # # # # # = 7 0 0 q 0 0 = = # # @ # # = 7 # 0 0 0 # 7 0 0 q 0 0 = 0 0 0 0 0 0 0 y y e q 0 , 0 = = 0 0 0 0 y e q e e r q y y q q q 0 0 q q 0 y q q q e y e e u f K _ ) K q u < q 0 = # # # # # # 0 e e u f K u u u u e e q q 0 0 0 0 7 = # = = 7 0 = @ # = = , 0 0 0 % , 0 0 , , # , 0 q q q q 0 q q q q 0 q 0 0 q q q e u q q 0 e e e q # # # = 0 0 0 , # # # = q e q e e e u e u f K L K K K ) ) _ ) ) K f f f K f f u u e K L L L K L g g L g L L I K f q e u 0 q 0 , # # # = # # # , # # # # # # , # @   O O     O   O # u ] k K K f y 0 0 y , = 7 7 = @ @ O @ @ O     O @ 0 q 0 7 y y y e e y , 0 q e e e e 0 y 0 0 0 , 0 0 = 0 , 7 0 0 y = 0 # # O     # @ = 0 0 = 0 0 # = = , u 0 u K f u q 0 , y u u K f y e # 0 ) u e ) u ` ' u _ u k ) e K ` k 0 u 0 0 k L L u k ) q O e ) { ) ) 0 @ 7 7 @ # @ O # ) r u _ ..K f K K , u ) ) #.| f , , _ L u X.K u _ 0 O y @.K f f f 0 f e X y { ) 0 u q f 0 y ) k 0 0 K ' ) e u u u u k #   # e u y e u K _ L e f f @   0 e f f f 0 X u f ) ) f 0 e u e e y @ # f ` u , k 0   q q u u @ = 0 0 # = # 0 K e f K 0 L K e e 0 0 0 K = # K @ 0 w 0 ` ) u e ) ) K u f u f f K K K f e q 0 = # = = = @ @ @ @ @ O @ @ @ @ @ X X X @ # @ # # # % = , < < < < u q ",
"q u u u y y q 0 @ # = # # # # 0 , , 0 0 0 0 0 0 0 0 0 0 0 0 0 0 0 0 0 q q e u u s s u u s s g u s s s u q q 0 # 0 0 0 0 0 0 0 y y y y y q 0 7 7 7 = 7 r q y 0 q y q q 0 q 0 y y u e y e e y q y e y u y q q e e y e u ^ u u k ) ) ) ) [ ^ u ^ u k u e e u k ) e u e e u K k ) K ) K f e q 0 # , # q q 0 e e e u u u K ) _ ) K ) ) ) ) K e e q y 0 0 y 0 0 0 0 q u u f ) K ) _ ) _ _ _ _ ) K _ _ ) K K ) ) K u u e u e u e e u u u e y 0 e u e e 0 0 0 0 7 0 0 7 0 0 y e u u u u e u f K K ) K K _ K _ } | _ | | X...| { { | _ _ ) K f f K L L g g K g L L } } | | |  .X.+._ f 0 e e 0 e e u u u 0 0 y 0 7 # # @ @ O O O = # # 7 0 7 7 0 0 0 0 y e u y # = # # X @ @ O O O O   O O   @ # = = , q e e u u e y e e u K K k f u f s u K u e = # # # # 0 = < 0 q 0 = # # = = # # = 7 0 0 0 0 , = = 7 0 q e y u y y y y y y y y u e e u u e u e u ^ ^ y u y u K f ) k u K ) ) ) e e k K k u k u K K { f u K u u K K e K ) ) K K K u e K u K ) K f ) _ _ f u u e k K u , q K f q ' K u ) u q u ` ) f K u e u u # 0 y e , 0 # y 0 q u u 0 y u u u e e u e e e @   @ y q 0 q u u u s e f 0 X   # 0 f _ s # O e ) { _ u 0 u ) e u e = # u ) e 0 u #   = 0 e e   , q 0 @ = = 7 K y f _ 0 L _ ) e f e e { q 0 K = q 0 # u e e 0 f f f f f u u e e = # = # # @ # # = = , # 0 , 0 , = 0 , 0 , = 0 , 0 0 0 , < 0 e u u e e u e e s s ",
", , = # @ X # q e u u u e e q e u e y e u w e q e f K u u f f K s s s s f s e e K s e e e e e u q u q e q e q # y q 0 , , 0 # 7 # # # # # # # , 0 0 q q e y e y e y e u u u k ^ k u u u k u u e u e u K K ) ) K ^ ^ k u u u ) ^ ) ^ ) ` u ) ^ ) u ^ u e k ^ ) u ] u u u u u K f e q = # 7 0 q e e u u u f u u u f ) u f u e e e y 0 0 0 = # @ @ # y u u u ) ' _ ' K K K f u u e y y q e q q 0 q q q 0 0 0 0 0 0 0 0 0 q 0 0 0 e u e y 0 0 , 0 0 q 0 q e e e e u u f u f u f f f u f f u f f f f f f K L L K L K f e q u u e q 0 0 0 0 0 0 K X.| X.X.X.} | Y Y } H g s u u q 7 e e 0 0 0 q u u u e q q 0 0 0 0 , # @ = # q q e e u e e e w 0 0 e 7 Q 0 @ @ X # @ # 7 # # 7 0 0 0 0 q 0 u u u u f K K K k ) k e q , 0 = 0 0 0 q , # = = = # , = , , q = 0 # # # = # # = # # # 7 0 0 0 # # # # = = = = 0 0 y q y q e e y y e u e e e y q y e e u e e u u u u f K K K e 0 u ) ) _ ` ' _ _ _ _ K u u u e e e u K u u ) ) ` _ K K ) u e u u u u u u u u u e q e e u e q u f K K _ K ) _ ) ) u e 0 = # # # @ @ # 0 0 e 0 0 0 y e u u u K u e 0 q 0 0 q 0 0 e e 0 q q 0 0 0 e e u u u u e , 0 q e e e u q 0 e q q = = # # , # 0 0 , # 0 e q e u q 0 e u K f q e u u 0 e 0 e K u f K 0 u u q , e 0 , f 0 0 K y u q @ , # = 0 q e 0 , , # @ # , q e u u u e q q q e u 0 e q q 0 q e u K e u u s f f s s s s s e e u f s e s e s ",
", , 0 0 0 q u e f s H g f K K K K K f K K K L K _ K K f K K K f e e s K f f e f f q q 0 , % , , # # @ = @ X   O , q y 0 0 0 0 7 0 # = 0 0 0 0 0 0 q y 0 q q q 7 0 7 q q 0 q y u y y q q y y y y u e K K ) K K u q y q 0 0 0 e y y q y e q e u u k ) e u y e u u K u u u u u f u e 0 0 e f ) _ _ ..` _ u K u u e e e 0 0 = = # # @ @ @ 0 e e u u u K ) ) f u u u u 0 0 0 q 0 0 q q e u f f L g K K ) K _ K K K K _ _ _ ) _ ) _ ' ' ' _ ) K K ) K K K K _ _ K _ _ ) K f ) K K K K K K K f K f K u u u e e q q 0 0 0 0 0 e e e u u u k u u e f L e y q 0 0 q 0 7 @ @ @ @ @   O @ o @   O O   O         X @ # = 0 0 q q u k K k u u K u K K k e e e 7 ` _ u u w y e u u e e e u u u ) _ K ) _ u e e y 0 0 7 0 y e u e y 0 0 q 0 q 0 # # # # @ X O O         O # 0 e 0 e w , 0 q q 0 q y q 0 0 0 0 0 0 0 q q 0 q q 0 0 0 0 7 0 0 0 0 0 0 0 0 y q 0 0 y K K k K K ) f K K K ` { _ ) u e q y e e y y q = # = 7 = y 0 , 0 q y e q q e q y q 0 0 0 q 0 = = 0 u f u e f u u f f u e q 0 0 0 0 = = @ @ # 0 0 0 e e K ' ` ) K u ) ` ) ) f f f u f f u u e 0 0 q e e = , 0 = # 7 7 = 0 , # @ @ @ @ # # @ @ # # # # # 0 0 e e u f ) _ _ K f ) ) ) ) K K K f u f u K e e q 0 e q e q 0 7 0 # = # # = 0 0 0 0 , 0 0 0 0 0 e e 0 = , 0 0 0 = , , , 0 u K g L L K f K K K ) K f K K K L _ ' ' L _ L ) K K K s K K _ K K s K K 0 0 q , , ",
"q f f g s f s s u u g s f f e 0 e 0 q 0 0 , # # # , , # 0 # # # , = # , = # @     O         O O         O       @ @ # # @ # @ @ # , q q 0 0 0 0 0 0 0 0 , q q 0 y y y e e 0 y 0 0 u u u u e e e u u u y q , 0 0 e f f u u u q e y e e e e e u e y q 0 e q 0 0 0 0 0 q u K ) u y 5 # 0 q e y 0 , 7 0 0 = = # @ @ @ X X @ # # # = 0 0 0 q e u u u e e e q 0 0 e q e u u f f K f f L _ I K L L f s s s s s u e q 0 0 q 0 0 0 0 u s K f K u K _ _ ) K K ) f u e e u e 0 0 u e u u f u e q e q q 0 0 q q w 0 q u u K ) _ _ ' ' ' _ ) K f f u e u e 0 , 0 , 0 # @   O @ @ @ @ # # = # = = 7 0 0 w q e q e u u k K K e u y q 0 0 0 = = = = = = = # # # 0 [ { K K f f f f K K ) K K u e y 0 = 0 0 = # # # @ @ O # # @ # # # @ # # # # # = # # = , < < < q e q q , 0 0 0 0 , = X   # @ @ @ @ @ X @ @ # # # = , = = = # # @ @ @ # @ @ = 0 7 = 0 # 0 7 = = 0 0 0 e q e y 0 y u k u e 0 q 0 = # = 0 # 0 q q 0 0 0 0 y q 0 0 0 0 0 0 # 0 # 0 , 0 , 0 0 0 0 w u u f f f q u q 0 e % # @ @ O O O @ # , 0 e u u e q e e q q , # , = 0 y q 0 = 7 0 0 0 q = # # X @ @ # # X O O X   O O O O     @ @ @ o # # # , # # # # , 0 e e u e u u u f u e 0 , = 0 0 0 0 0 = @   @ @ , 0 , 0 0 = 0 0 0 q u u u f u K _ K K u f u u u f K f u 0 0 q f f g g s g g f g e g K g g f u u u e y e q < , # , , , # # # % , = , # , 0 # # O O             ",
"q s s s g g H I L I _ | _ L 0 , 0 < 0 0 q 0 0 0 = , , # @ @ X     O   @ @ @ @ @ # @ # = # = 7 , # # # o @ # # 0 = @ # @ @ @ @ # 7 q 0 , 0 0 0 q e e u u e k u u u u u K u e q , # 7 0 0 0 7 = = 0 q e u f f u u q q 0 0 4 # @ # # = = # # # = 0 = # = , 0 = = = # @ = q y e 0 y y y e y q = = @ # # % = 0 0 q y q u u e e e u K ) ) _ ) ) ) u e e u u u u u K f u u f u e e u f f K s u g L K f ) ) _ _ ' _ _ ) ) f u f u f ) f K u e 0 0 0 0 0 0 0 q 0 0 0 , q e e u f e u f e e y e u u K K ) ) ) ) ) K K u u u q y q 0 y u f ) ) ) ) ) _ _ K q # @ @ , 0 0 0 0 0 e u u e u u y e 0 = 0 # @ # @ @ @ # @ # # @ 7 0 0 7 0 = # # # @ # 0 7 = 7 0 # { _ f K f K f u u e 0 = 0 = # @ @ # = # = # 0 = = = # , = = = = = = , , , 0 , q q e q s s u s s H G s e e e u q , 0 # @ 0 7 , 7 0 0 0 y e u u k e e , = 7 # # 0 y q y 0 y y y 0 7 q 0 q y e e 0 0 y 0 0 q y q e y 0 0 0 0 0 r q e e e e u Q u u ] u e u u u e e q y u f f y u q y u K u K ) ) K K f s e , < # , q % 0 0 0 , q e u u K ) K ) K ) ) ) K K ) u u y 0 y = # # # # , 0 q y 0 0 e u u K f f f u f K K f f u u f K K K f u u f u u u u e e 0 q q u u e q 0 0 0 0 0 0 = # @ # 0 0 e e 0 0 0 0 u f u f f s K g K L ' L L _ _ ' _ ' _ _ _ _ K K f f f f s s s s g g g s g g g I H L T } } g 0 , 0 0 , 0 , , = , o # # # X O   O         @     O X   X # # # # ",
"d } _ I _ L I L g s e e u 0 , u e 0 0 0 e e u e e e q 0 0 0 # # X @ @ # 7 0 q q 0 0 0 , = , 0 y 0 0 0 0 0 u e e y , 0 = 0 0 0 y k K u e y u y e q q e e e y y 0 0 0 = 0 = # @ @ @ @ @ # # # # = 0 0 y 0 0 q 0 e e e 0 0 q 0 q 0 0 # # @ # # # # # # # @ # # # 4 = 5 q q u u e e u u e y e e e e u u f k u u f u u ) f K ) ` k e = # 0 0 0 0 u g _ _ _ | ' K f e e f ) _ _ _ _ ) ) K K _ _ _ ) K u u e 0 0 e K u u u u u u u K K ) _ ) _ ) _ _ _ _ _ ' ) ) K K _ _ _ ) _ K ) _ ) K K f K K ) f u e q 7 # @   O           # @ # @ # 7 7 0 e u u u 0 u K K L _ _ _ | _ u q 0 # = 7 , y 0 y u e e q q 0 e f u u u u k u u u e u e 0 q 0 , w y 0 0 , 0 o.e q 0 0 0 = = = 0 0 w q e 0 0 0 q e e e 0 u q y e q u e K e e e s f s f s s s s f s s s s s s s s K s g K K s k K 0 = y 0 0 7 = 0 = 7 = = # # # # # # 8 7 0 y e q y q y y q e e e u u k u u u u u u e e e e u u u u f K u ) ^ ^ u ) ` ) [ ] [ o.{ ) ) ) ) k y e u k K K e u u y u K u ) f f e q = # # # < , 0 u e u e u u u f ) K K u K K K u e q , # X O O O = q q e e f f ) ) ) _ _ ) ) K K f f f u u u u u u u e e q q < 0 = , # , = # 0 0 0 0 # # # = # # = 0 0 0 , # # 0 0 0 0 e e u e u u u u u u f f u u f f f K _ L L K L K f K f K f u e e q q q q L _ _ I } } } I |  .} L L L s H e q , e u q e e u f K K e e q 0 , = # @   O O O # = , 0 0 0 0 , , = = ",
"f q 0 0 # , % % @ O @   #   X @ X     O O   O O         @ # , 0 , 0 y e u u e k u K u u u e e 0 , # # # = 0 = @ # 0 0 0 0 0 0 0 e q 0 0 0 q 0 = # # # , # 0 0 # 0 # # # # = 0 0 0 0 q y q q q y 0 = = # # # # 0 0 0 0 0 0 0 q q q q e e u K K e e e e u f f f f K K u e s f u 0 0 0 e e f ) K ) K K ) ) K ) _ u q 0 0 0 q y y e e f ) _ ) ) _ _ _ _ K f u 0 q f ` ..' ` _ ) K K K u e e y 0 0 0 # 0 0 0 , 0 u u q 0 e e u u u u K u u ) K u K K _ ) ) K ) ) u e e q q q q y 0 7 # @ @ @ @ @   O X # # % 0 0 0 0 0 0 q e u u f e e e s f K K L ' ' | ' _ L K u q , = % q y e g K _ ` K f u e e y y 0 0 0 0 , 0 = 0 # 0 # = 0 q q u e 0 e q 0 y 0 q [ w 0 , # = # % , e K K L _ K K f K K K f f K K K K L _ I ' K _ _ ' _ K s K L L K K K f e e u q < , , , < # @ % @ @   X e e e e e e 0 w 0 # # # = 7 0 0 q q q q e y u y y y q y y y y k ) u u u u u u u u u u K K ) _ ` K u u y y q y y e u y e u u y u u k ) ) e u ^ u k K ) ) u u e e f f q , # # y u K _ _ _ _ K f K u u K f u e y 0 0 = = # # @ , 0 0 q 0 0 u ) ) ) ) ) ) K u 0 0 0 , # % % # = , q u e e e u u u u e u e u u f u f u f f g L K K u u u s f u u e f f f u ) _ _ ) f _ K K f f f K u u u s f f u u u e s s u e 0 , # , 0 < 0 0 0 0 q q 0 0 K _ L K K f e u q q q < , = # @ @ O # # o @ @   O     O   X @ o X # # # = = , 0 e e e e u u u u u q 0 ",
"0 # # # X   O     O       @ @ @ # @ # = , = , = , 0 0 e e e e q e 0 q 0 0 = = = = = = , = # # @ O O @ O @ @ @ O @ = 0 0 0 q q , 0 q e 0 0 0 0 0 0 , 0 , # 0 0 0 y 0 0 0 e u K K k u ) ] ) ) ) ) u u u u u f u ) ) ) ] ) ) K ) K e u e u e e q 0 q q 0 e e q e q 0 , 0 = q u q u u u u u f u u K u e e q q q q 0 0 0 q e u u ) f f f f u 0 0 < 0 5 0 0 # @ # = e u u u 0 # # # @ @ # # # = , e K K u K K q q q e u e q q e f k K u 0 0 0 # # = O @ @ @ @ # @ @ @ # # # # @ @ # # # = = q 0 e q y e f f _ ) ) _ _ ' _ ' ' _ @.@.| X.| L K K K K f e # , = # % # u q s H L K ' ) e e y 0 0 e w e u u e w e q e u u u y K K K _ ' ) _ ) ) _ K K ) u f ^ u u f u g s g g g K s H H K f K f f K s u u u u q q e q q q q e q 0 0 0 q 0 , # = # # @ o @     .                     @ # = # # , # # # 0 0 y q 0 q 0 0 y 0 0 = 7 0 = 4 7 7 0 q 0 = y e 0 y e u e e y y e u u e u 0 e q q u u e u u u 0 e u u u u u u u e u e 0 e 0 = 0 q e 0 e u f f f e 0 , y e u f u K ) e q q 0 0 , # # # X   X   O   O @ @ @ , 0 e u u u u u u w 0 0 0 0 0 q e u u e s s g L H _ _ _ H L K L L f f f u u u u u f u u f K K _ ) K K _ ' _ ) K _ _ K f u ) u u 0 q u u f K K u f u f u e e q q 0 0 # # , , 0 e u u u K K K K K u u u e q u e , # # # @ #                       O O   O X X X @ @ @ # = , 0 e e w e q e y e q 0 0 0 0 0 0 0 = = ",
"# @ @ O # # , 0 y 0 0 q q w q q q 0 # = = # # # # # # # # # # # = 7 = = # # # @ @ @ # # # # = = # = = , , , = @ # = 0 = = # 0 , 0 0 , # , 0 0 0 0 0 , # # , 0 0 0 e e y e k u e y y y e u y e y e y u ) ) ) u u u y y y e q y 0 # # # # # # # # # @ # # # # 0 0 q 0 0 y u f e q y e 0 0 0 q y u u e u e u u f K f f u f f u q e e u u u ) ) ) _ _ _ ) u q u q u q e u u u u f u u u K K _ _ ' ' ' ..{ _ K K ) ) ) K u u q q e u u y q u 0 0 q 0 q q q q e 0 e e e e e K K u K e K u u f f L K f K K u K f ) L ..@.@.@.@..._ K f K f e , 0 e u u e u u H L _ } | | X.' ' K L K e e w 0 e e e q u u u y e u 0 , = # # 0 u e 0 0 = 0 = 7 7 = # = # e ^ K s K g L g L H H L H L } } _ f , 0 0 0 0 0 , , # # o # @ @ O O X O . O   O   O         O     X @ # @ X O   O   o # = @ @ # O O O   O # , = = 0 7 0 0 0 e y e y u ^ k ) ) ^ ) _ f u y , 7 e e e y 0 0 0 q e e e e e q e e u u 0 q 0 = # 0 = 0 0 0 7 0 e 0 0 0 0 y w y 0 0 # # 0 u u f e 0 = # 0 0 0 # # o @ X X @ @ # # # # = 0 0 0 0 0 q u f f f f K K u e 0 0 0 q , e f f K f ) u u e f s f L K f f K g u q u u f u u u e q w q 0 0 0 0 f u u u e w q e u q 0 q e 0 0 0 , 0 0 0 0 e u 0 0 0 0 0 , # , , , , 0 q e u u f K K K ) K K ) ) ) K K K u u u K u u u e 0 , # # # @ # , # # = = , 0 0 0 0 0 0 , 0 0 = , 0 = , , , = 0 , # 7 = # # # @ @ X @ O O @ @ @ X ",
"0 q q u u K s L ' f e 0 = # = # # 0 = 0 0 0 , , , 4 q q 0 0 q 0 e y e q y 0 , 7 # # 0 0 0 7 0 # # # @ # = = 0 0 , = , 0 0 0 , < , # @   O   # # = , # # # # # @ @ # , # 0 = = # 0 0 = 0 7 = # @ # @ @ # 4 # = # # # # # # # 7 0 0 q y 0 e e u u u u u f f K u u e q 0 0 0 0 0 % , , 0 q e u u u u e e e f f K e q 0 e u u f u K f K f f f f u e q q u u f K K L L _ _ _ _ ....X.#...@...@.| ..-.@.=.{ ' #.#.' _ ' _ .._ K K K K f K ) _ _ _ _ ' ' | ..' _ K K _ ' _ | ' ..| ..X.| ..| @.#.@.#.| 9.9.#.@.....' ) f u u K K K u u g K _ _ ' ' _ #.@...| ..} | | _ u K u u # 0 q e u K ) _ K K u u u 0 # 0 y 0 0 , 0 0 0 0 0 0 0 0 0 = = , 0 q q e 0 ] } L _ I } _ | | | | } } L L f e 0 e q 0 e u K K K e q q q 0 , # #     O   @ # = # = 0 # = q 0 0 0 0 0 , = , = q e u u , # = # # 7 = 0 u u u y e e e u f u K K u u e y 0 y 0 w y 0 0 # @ O @ O # @ @ @ @ = 0 e e u u u s e 0 0 = = # # = = # @ O O     @ @ O O O O O   O X O @ # , 0 0 , e ) K k e u q 0 0 0 y q y q y e k u K ' K K ) _ f u q q u e e q q u f g f L L L K s 0 0 e e f u f u f f f f f L _ ' ) ' L _ ) ) ' ' _ ) K K K f K _ K f f u u u u u e u q u u q e 0 e u f f K f u K K f ) K ) _ ) K _ ) u u f u 0 , 0 # @ @ O @ # # 0 0 q e q e y u f K u , # , , , e u u e K u e e 0 , 0 = 0 = # = = @ @ @ @ @ # = # # = = 0 0 0 0 0 0 0 # # # @ , 0 # = ",
"u L L L g f e 0 = # # , 0 q u e K K e q e q q 0 0 , , 0 = = 0 = 0 , 0 # = 0 0 0 0 , , 0 , , , 0 e 0 # , 0 , w 0 0 e u K K f e e e u u q 0 = 0 , 0 , % # @ # = 0 # 0 0 # = # = # y q q e 0 y 0 0 0 q 0 e e q q q u u u u u f f f f u e u e u e 0 0 0 0 q q e e q y u u K f K f u f f f ) ) u u e e 0 0 0 0 q q e u u _ K _ _ _ f u q u e e u e f K _ ' ' | ' ' | X...| X._ K K K K ) _ ....) _ _ K _ K u _ _ f K _ K u f e e f e q u K ) ' L L L _ _ L L _ ' K L K f _ L L L L K K K K f f K _ _ f u _ K K e e 0 = 0 e f f L K K g f f q 0 u q q e 0 0 0 0 0 0 0 0 = @ # 0 0 0 q e u u u e e 0 e e q 0 u u f u u f f u e K K K ) ) ) L ` _ ` ) _ y { _ K I K g f s f u u 0 0 , # # @ # < # # @ @ # = # # # # # # # = = # = # , w e e e u u u e e 0 0 0 w q 0 0 , 0 q e 0 , 0 0 q 0 0 q 0 y u u y q 0 y 0 0 # # , 0 0 0 0 7 = = # # @ X X # # # 7 = 0 = 7 0 0 0 , , = # # = 0 0 0 , 7 0 0 0 q 0 = , 0 y y e 0 0 , , , < q q e u f K f K _ _ u q q 0 0 0 y u u u f K ) ) K K K K q e e e e u u e 0 = 0 u u u s g _ | X...f _ f u u K ' ' | ..{ ' _ _ _ K f K f u e 0 # # # @ # % 0 < # 0 q q 0 q e u f ) f ) _ ..{ _ ' _ { ..K ) K _ f f u f f u f y e q 0 7 7 # @   O O O @     O   O   # O   @ # # # # # # # 0 q e e u f K K L } ' K K K u < < # # , 0 q e u q e e e u e e 0 q e e 0 0 0 0 0 0 0 , 0 q = 0 , # , 0 , = ",
"e = % # # # # , < e s s f L u e q 0 0 0 0 0 y 0 w 0 , 0 0 y 0 q 0 0 e u u K K f K k K f s f u u e y 0 0 0 # = # = 7 0 0 0 0 0 0 u u e y 0 w y y u q 0 , = 0 0 0 0 y 0 q y y w w e e u e e e e e e u e u e e q 0 e q 0 0 q 0 0 0 0 , , 0 0 0 0 q e K K _ _ ) ) K ) u u u K f f K f f f K u 0 e e u e u u K ) ' ' ..X._ u u K | L _ _ { { ..{ { { ....' ' ' ' ) _ u K u f e , y y 0 e e u e q u y 0 u u 0 q 0 e q e q 0 e 0 , u s s K L L q u q q e 0 e 0 e u 0 e 0 q u q 0 0 e 0 # , u 0 0 0 e 0 # # # # @ # # 0 0 q s e u e u u q e 0 = 7 , = 0 e e 0 0 0 , , 0 e e e f u K K K u e f f f K K ) K _ ' ..' ' ` { ....{ _ ' _ K K K K k k u u y 0 y =.q # # # @ o     o             O     O   O O     O O X @ # # 0 y y e e e e u u e q e u e u e e q 0 7 # @ X O   X @ O   # 0 0 0 0 q 0 , y 0 y 0 = 0 < 0 = # = # # , 0 # = = # # 7 0 0 e e e u k k k u u u e q 0 0 0 q q e u u e u u u u u u u u f K K K f f f e f _ K f f f e q 0 % 0 q 0 y e y u K K _ K ) K u K u u u f u q 0 = = 0 e e u u f ) _ K u u e e q 0 0 0 # @ # e K _ ) f e q 0 = = 7 # @ @ X   , q q u f f e f f f u e e e f u u f k e , e 0 0 0 % q % 0 7 # # = # # @ @ @ @ @ @ O O O     o o @ # = = 0 0 u u K K u f K L _ _ } L _ H I L K _ _ _ _ _ K s s u < , , o X o < q q f K K K K u e e 0 0 0 , , , = = = = , 0 , # 0 0 0 e u u u u e u e e e ",
"f q u e s H L _ _ ' ' g g g u 0 0 , , 0 0 0 q e e e q e 0 , , # # % u e 0 0 = , = 7 0 = = 7 # # # @ @ # # # # # = 0 0 = = 7 7 = 0 # @ @ @ # @ # = 0 y e u f ) ) K f K u f u u u u u e u e e u u u u e q e e e q e q e e e f s f f f K K f u f u f K f u q q q q q q e e e y u e w e e u u f K _ _ ` ....=...@._ K e 0 # 0 u u f u f u e e u 0 0 0 0 0 0 q e y e 0 0 0 = # # # = # # # # @   @ X O     O O O X @ # # @ # # # # % # # # , o O   o X   X O @ @ X X O O O   O O O X = 0 @ X @ @ = # # # = , , 0 0 0 0 0 q e f K ) K K f u u u u e K K ) K K f K K K _ L ......| | | ' ..@.#.@.....@.' _ ' { ) ) K u f u 0 % # # , # @ @ @   O O O O q -.) = # # # @ @ @ # # # # = # 7 0 0 0 0 0 0 y 0 , 0 0 0 0 0 , q w 0 = 0 7 = = # @ @ @ X O @ @ @ @ X O X X X # # # # X   @ = 0 , 0 0 0 , , e e 0 e u e 0 , 0 , , # 0 y u u u u y u K ) K k u k u ) ) u ^ ) ) u ) K _ { ) ` ) K K ) ) K u e 0 = 0 , 0 # # @ @ # X @ @ # # 0 0 , , , 0 f K e u f u u 0 0 q q u f y e 0 , 0 , 0 q e u e f f u u u e u u 0 e e e e e u q 0 # , , e y q e y 7 # 0 = 0 e e g f f f K _ K _ _ f u q 0 e u u q 5 q q u u e 0 # 0 # @ = # @ @ X @ @   @ # # # = # 0 # 0 0 0 0 u u q q q u q e u u e e u f K ' ..| @.X.| | | _ ' K u q e 0 e 0 , @ o q , < q g H K _ } I L L 0 , # # = 0 q 0 e e e e e u e e q 0 , = u K f u f u u e e e u q q ",
"L I | | _ | _ _ e k 0 @ , 0 q q u u f u u u e e q , # 0 , # = # # # 0 , # = # # # @ o # , 0 = # , = 0 , 0 , , 0 , # # # 7 = = = 7 0 q q y y q 0 e u e y q q 0 e 0 0 e q y 0 q q y 0 q f u K f f f u e e e e u u K f K ) K L L f e u K f f u f e u e u f u e u K ) _ _ ) K ) ` _ K K ) K K K ) K ) K u u e e u u , X , , , = @ @ @ X O   @ , # @ @ @ # , , , < q , < , 0 0 0 , 0 # # # # , % q q u s q q , s u u H H s u e < s % # % , < % , , # # 0 0 0 % # < u 0 , 0 , e e e e u u 0 u f e K K _ L _ L L L K K K K f K u f e 0 0 q y y y y f K u e e e e u f K f f K _ ' I | ..K _ _ L s f e e 0 0 # # # # = # @ @ # = 7 7 0 e 0 q 0 u u u e 0 u ,.u , # # 0 0 u e u L K f u e q 0 w 0 0 # # , # @ @ # @ @ # # # # 7 = 0 0 0 , 0 = = # # @ # 0 # = , 0 = = # = , , , , = # = 0 # , # , , # # O O   @ # = , , = # @ # # # @ # , = 7 y y 0 7 7 7 = 0 0 7 0 0 0 = 0 e e e 0 0 7 # # # # # = 7 # # 7 = = , 0 , 0 0 0 w q e u u u q 0 = 0 e 0 , % , 0 , # < e e e u e u u K K L _ L f f u u u e e u e f u f K _ K L K ) K u f f u f e f f K g K _ _ | ' ' _ _ ' _ ..X...X...{ X...| ` ` _ L f u u u u u u u K y u g f K K K K K f e f u f K K K K L L ' L L I _ K I _ _ ..L ' _ _ ' | ..| } I K _ _ f < 0 q 0 0 e e f K L I L I _ I | | | X._ k K q q s e u e e e u e 0 q q e 0 = 0 0 @ X X   o % , o o o . X .   O X o @ ",
"q , u 0 0 0 7 0 0 #   @ = # = 0 e e u e e 0 q 0 0 0 0 e q e 0 e e e e u f f f e K u K ) ) K K K K K f K K u u u y # 0 7 0 e e y y u u f u e 0 0 0 , # @ = # # 0 0 0 0 0 0 0 0 0 e e f K K f u u u e 0 0 0 q e u f u e q q s g K L _ _ ' _ _ _ ' _ ' ' ' ' _ _ K _ ) u q e u u ) K e e e y y 0 = y , # = # # @ = = # u 7 # , # 0 0 q q q u u e K K K L g s L g K K g K L _ L Y } _ ' } } } } } Y ' I | L I Y  .} T |  . . .Y T Y L Y T | Y } _ _ _ L _ L g s u g s K K _ ' L K s K K s e K H f s e q , q 0 0 y 0 q q 0 q e q q e e u K K f f f K u u u u u e u u u u s K g u q 0 , # = # = = 0 0 0 e 0 e u e f e e ) K ) K f K f f f K L K K f u K F.' q K L L _ ..L L g e 0 , # = , 0 0 e e e u e u e q w y u f e y e 0 y y e 0 q e 0 , 0 = , e 0 0 , = = 0 o o = = 0 e q , 0 y e f e q q < 0 0 # @ @ @ # # # # @ @ @ @ # # # 0 , # @ @ # 7 y 0 0 0 = 0 = @ @ @ @ @ @ @ # # = 0 q q r 0 e e u u u e e u u u e q e e e e e 0 0 0 q q q e e e 0 0 q q u f K K u u q 0 , y q u 0 0 = q f u K K _ K f f f u e e 0 e e f f K I _ _ ' | | | | | | ' | | ' ' @.@.-...@.-.` .._ _ | | L f ) K | ` K K ) L u u K _ _ L | _ ..X.| } | _ L _ _ K _ | ' | _ | | ' ' _ } | ..| @.@.X._ { ' ) K e u e , 0 q s K K K L ' _ L _ _ ' } _ K K K f K e 0 y 7 # #   # # # , e ) _ ) K u e e 0 # = 0 0 0 0 e 0 0 0 q q 0 e 0 e e e u e f u ",
"K ) e e # # = 0 0 o o % % % % $ o $ # # o # % % 0 0 u e q q q u u u q q e e u u e q e q 0 , = 0 7 , , , % # @ @   , y 0 e q 0 , # = = , , 0 = , , , 0 0 e e e u K f K K u u u q e u e u u u u u K u K K _ _ ' ' _ { ` | ' ' | ..........{ ....' ) _ ) ' _ _ _ { { ) K f K K u e e e e 0 , 0 0 = # @ # # @ @ X   O # g O o q % K _ _ | | ....' ' .._ ' ....@.X.X.| @.X.X.| } } _ L H L L L _ L K K f f u e L s s 0 < 0 0 e e a e e q < 0 q u u u f f L K H K L _ _ } I } I ' ' _ _ ' L _ | | | ' | ' ' ..' ' ' _ _ X...X.#...' _ ' ) _ ) u u f f f f u K K u f u u u f K f f s f s K K K K K ) ` _ _ } | ' | X.X.X...' _ ' _ ) ) K f e u u u e e q Q.S.e f f e q q , o o % , e e K K K L K f e e 0 0 0 , , # # # # = , , # = 0 , 0 e e e f u e u e q e e f u , 0 q , = 0 = 0 q e u u u e e f ) ) u e q y w e 0 0 = @ # # # X = = = 7 0 , , 0 e q y e y u e e u u k k K f f u K K u u u e u e e w 0 w 0 e 0 0 0 q e u f f f f u f f f _ _ _ _ K _ _ _ ' ) q e 0 e 0 0 q e q f K L _ ' ` f K _ _ u f f f f K f K _ | X.X...X..._ ' ' ' ' _ K e e e u e u u ) u y K 0 K u e q f f u q K u f e % # 0 0 0 e f K L K s s f K e e g u K u e q f e q u e u q 0 e f u e f K e e q 0 0 , 0 < , 0 0 f K K u f u q q < @ , # @ @ # # # # # o @ @ # 0 , % , q q w e 0 q < 0 , , , q e e u u K f K u f K K K K _ K _ K ) _ _ _ _ ) K ",
"[.}.'.'._._./.'.Y.R./.E./.E._.R.E.R._._./._.Q.Q.A.S.A.A.q.t.=.=.=.o.o.{ { ` e e y y y y q # # @                   O                   . . . + + + + o $ o o o % , % < % o       @ # # # # # % , 0 q u u u u u q q q q 0 = q q 0 # # # @ , , 7 % # # @ # # # @ @ @ @ @     @ @ @ @ @ 7 O O O   @ o @ @ = # # # # # % f @ @ q @ e u u K _ K K u f K K f K L u u f e e f u 0 f 0 e 0 0 0 0 0 0 q , 0 0 , , , 0 # = , 0 , , < 0 0 0 q , q u q q q s g L I L g u f g f q q u u f g K K K f g f g s K _ _ K f e q q y e L K L K f f _ ' ' @.#.#...@.) K f u e 0 q q q 0 0 0 0 y e K ' } ' ' _ _ ) K _ ' } L L K _ _ K K K K K K K u u e u e e q q q 0 < {.A.o @ # , , , u s H H | } L ' K < , = # , q q e u f u e u u e u u e 0 0 K K K ) ) f f k f K u K u e y 0 = = , # @ # # 7 = 0 # = 7 7 0 q 0 = = # = # = 0 0 q q 0 e u K f f e e e u e u u u u k u y y 0 q q q q 0 0 0 0 , 0 0 , 0 , 0 0 0 q e e e e e e e u f ) _ ) f f f u e 0 q u e q e e q e q u u 0 u u K f ) _ ' ' X.X...' _ f , u K _ _ _ ' _ ) _ ' ) ) _ ) K u K u e K u u e q 0 # # = = 0 0 0 , # # = @ 0 , X   # # # @ # @ # 0 q 0 q s s q < < s < q 0 0 # , , , = # , # # # # # o X X O @ # # @ X X # @ X @       X X @ @ @ # # < 0 u e e e e e e f e e f K K f u e q 0 q u u s K K u K L f f K L L I _ _ ) _ ' ....' ..' ' _ _ K K f e e 0 0 0 0 0 = 0 # "
};
